assets/luts/blossom.cube
TITLE "blossom"
LUT_3D_SIZE 9
0.113535 0.073535 0.083535
0.222414 0.072414 0.082414
0.331292 0.071293 0.081293
0.440171 0.070171 0.080171
0.549050 0.069050 0.079050
0.657929 0.067929 0.077929
0.770077 0.066808 0.077897
0.882768 0.065686 0.078047
0.996932 0.065880 0.079564
0.111334 0.181334 0.081334
0.220212 0.180212 0.080213
0.329091 0.179091 0.079091
0.437970 0.177970 0.077970
0.549978 0.176849 0.077892
0.662669 0.175727 0.078041
0.776602 0.175715 0.079344
0.895572 0.180200 0.085324
1.000000 0.184685 0.091304
0.109132 0.289133 0.079132
0.218011 0.288011 0.078011
0.329879 0.286890 0.077886
0.442570 0.285769 0.078036
0.556272 0.285550 0.079124
0.675242 0.290035 0.085104
0.794212 0.294520 0.091084
0.913182 0.299005 0.097064
1.000000 0.303490 0.103044
0.109780 0.396931 0.077881
0.222471 0.395810 0.078030
0.335942 0.395385 0.078904
0.454912 0.399870 0.084884
0.573882 0.404355 0.090864
0.692852 0.408840 0.096844
0.811822 0.413325 0.102824
0.924828 0.417810 0.106816
1.000000 0.422295 0.109806
0.115612 0.505220 0.078684
0.234582 0.509705 0.084664
0.353552 0.514190 0.090644
0.472522 0.518675 0.096624
0.591492 0.523160 0.102604
0.704828 0.527645 0.106706
0.814828 0.532130 0.109696
0.924828 0.536615 0.112686
1.000000 0.541100 0.115676
0.133222 0.624025 0.090424
0.252192 0.628510 0.096404
0.371162 0.632995 0.102384
0.484828 0.637480 0.106596
0.594828 0.641965 0.109586
0.704828 0.646450 0.112576
0.814828 0.650935 0.115566
0.924828 0.655420 0.118556
1.000000 0.659194 0.121447
0.150832 0.742830 0.102164
0.264828 0.747315 0.106486
0.374828 0.751800 0.109476
0.484828 0.756285 0.112466
0.594828 0.760770 0.115456
0.704828 0.765255 0.118446
0.814167 0.769038 0.121353
0.920322 0.770047 0.123916
1.000000 0.771015 0.127438
0.154828 0.861635 0.109366
0.264828 0.866120 0.112356
0.374828 0.870605 0.115346
0.484828 0.875090 0.118336
0.594451 0.878918 0.121258
0.701611 0.879435 0.123823
0.810591 0.879911 0.127296
0.919779 0.880347 0.131141
1.000000 0.880743 0.134945
0.154828 0.980440 0.115236
0.264828 0.984925 0.118226
0.374662 0.988834 0.121163
0.482827 0.988859 0.123729
0.592664 0.988843 0.127154
0.702859 0.988788 0.131000
0.812026 0.988692 0.134806
0.920166 0.988556 0.138572
1.000000 0.988379 0.142297
0.113107 0.073108 0.193108
0.221986 0.071986 0.191986
0.330865 0.070865 0.190865
0.439744 0.069744 0.189744
0.548623 0.068622 0.188622
0.658412 0.067501 0.187805
0.771103 0.066380 0.187954
0.883794 0.065259 0.188104
1.000000 0.067590 0.191844
0.110906 0.180906 0.190906
0.219785 0.179785 0.189785
0.328664 0.178664 0.188664
0.438313 0.177543 0.187799
0.551004 0.176421 0.187949
0.663695 0.175300 0.188098
0.780022 0.177425 0.191624
0.898992 0.181910 0.197604
1.000000 0.186395 0.203584
0.108705 0.288705 0.188705
0.218214 0.287584 0.187794
0.330905 0.286463 0.187943
0.443596 0.285341 0.188093
0.559692 0.287260 0.191404
0.678662 0.291745 0.197384
0.797632 0.296230 0.203364
0.916602 0.300715 0.209344
1.000000 0.305200 0.215076
0.110806 0.396504 0.187938
0.223497 0.395383 0.188087
0.339362 0.397095 0.191184
0.458332 0.401580 0.197164
0.577302 0.406065 0.203144
0.696272 0.410550 0.209124
0.814828 0.415035 0.214966
0.924828 0.419520 0.217956
1.000000 0.424005 0.220946
0.119032 0.506930 0.190964
0.238002 0.511415 0.196944
0.356972 0.515900 0.202924
0.475942 0.520385 0.208904
0.594828 0.524870 0.214856
0.704828 0.529355 0.217846
0.814828 0.533840 0.220836
0.924828 0.538325 0.223826
1.000000 0.542810 0.226816
0.136642 0.625735 0.202704
0.255612 0.630220 0.208684
0.374582 0.634705 0.214664
0.484828 0.639190 0.217736
0.594828 0.643675 0.220726
0.704828 0.648160 0.223716
0.814828 0.652645 0.226706
0.924828 0.657130 0.229696
1.000000 0.659771 0.232121
0.154252 0.744540 0.214444
0.264828 0.749025 0.217626
0.374828 0.753510 0.220616
0.484828 0.757995 0.223606
0.594828 0.762480 0.226596
0.704828 0.766965 0.229586
0.812928 0.769427 0.232045
0.919354 0.770420 0.234258
1.000000 0.771373 0.237633
0.154828 0.863345 0.220506
0.264828 0.867830 0.223496
0.374828 0.872315 0.226486
0.484828 0.876800 0.229476
0.593588 0.879120 0.231969
0.700871 0.879621 0.234133
0.810882 0.880082 0.237510
0.919866 0.880503 0.240846
1.000000 0.880884 0.244142
0.154828 0.982150 0.226376
0.264828 0.986635 0.229366
0.374175 0.988848 0.231892
0.482314 0.988858 0.234008
0.593332 0.988827 0.237386
0.703323 0.988756 0.240724
0.812286 0.988645 0.244021
0.920223 0.988493 0.247278
1.000000 0.988301 0.250495
0.112680 0.072680 0.302680
0.221559 0.071559 0.301559
0.330437 0.070437 0.300438
0.439316 0.069316 0.299316
0.548195 0.068195 0.298195
0.659438 0.067074 0.297862
0.772129 0.065952 0.298011
0.884820 0.064831 0.298161
1.000000 0.069300 0.304124
0.110479 0.180479 0.300479
0.219358 0.179358 0.299357
0.328236 0.178236 0.298236
0.439339 0.177115 0.297856
0.552030 0.175994 0.298006
0.664721 0.174872 0.298155
0.783442 0.179135 0.303904
0.902412 0.183620 0.309884
1.000000 0.188105 0.315864
0.108277 0.288277 0.298277
0.219240 0.287156 0.297851
0.331931 0.286035 0.298000
0.444622 0.284914 0.298150
0.563112 0.288970 0.303684
0.682082 0.293455 0.309664
0.801052 0.297940 0.315644
0.920022 0.302425 0.321624
1.000000 0.306910 0.326216
0.111832 0.396076 0.297995
0.224523 0.394955 0.298144
0.342782 0.398805 0.303464
0.461752 0.403290 0.309444
0.580722 0.407775 0.315424
0.699692 0.412260 0.321404
0.814828 0.416745 0.326106
0.924828 0.421230 0.329096
1.000000 0.425715 0.332086
0.122452 0.508640 0.303244
0.241422 0.513125 0.309224
0.360392 0.517610 0.315204
0.479362 0.522095 0.321184
0.594828 0.526580 0.325996
0.704828 0.531065 0.328986
0.814828 0.535550 0.331976
0.924828 0.540035 0.334966
1.000000 0.544520 0.337956
0.140062 0.627445 0.314984
0.259032 0.631930 0.320964
0.374828 0.636415 0.325886
0.484828 0.640900 0.328876
0.594828 0.645385 0.331866
0.704828 0.649870 0.334856
0.814828 0.654355 0.337846
0.924818 0.658832 0.340832
1.000000 0.660342 0.342415
0.154828 0.746250 0.325776
0.264828 0.750735 0.328766
0.374828 0.755220 0.331756
0.484828 0.759705 0.334746
0.594828 0.764190 0.337736
0.704828 0.768675 0.340726
0.811688 0.769811 0.342357
0.919466 0.770789 0.344580
1.000000 0.771726 0.347446
0.154828 0.865055 0.331646
0.264828 0.869540 0.334636
0.374828 0.874025 0.337626
0.484828 0.878510 0.340616
0.592724 0.879316 0.342299
0.701359 0.879802 0.344474
0.811167 0.880247 0.347341
0.919948 0.880653 0.350169
1.000000 0.881018 0.352956
0.154828 0.983860 0.337516
0.264828 0.988345 0.340506
0.373688 0.988857 0.342241
0.483179 0.988851 0.344367
0.593993 0.988805 0.347236
0.703781 0.988718 0.350065
0.812541 0.988592 0.352854
0.920275 0.988425 0.355602
1.000000 0.988218 0.358311
0.112253 0.072252 0.412252
0.221131 0.071131 0.411131
0.330010 0.070010 0.410010
0.438889 0.068889 0.408889
0.547773 0.067768 0.407769
0.660464 0.066646 0.407919
0.773155 0.065525 0.408068
0.888222 0.066525 0.410424
1.000000 0.071010 0.416404
0.110051 0.180051 0.410051
0.218930 0.178930 0.408930
0.327809 0.177809 0.407809
0.440365 0.176688 0.407913
0.553056 0.175566 0.408063
0.667892 0.176360 0.410204
0.786862 0.180845 0.416184
0.905832 0.185330 0.422164
1.000000 0.189815 0.428144
0.107850 0.287850 0.407850
0.220266 0.286729 0.407908
0.332957 0.285608 0.408057
0.447562 0.286195 0.409984
0.566532 0.290680 0.415964
0.685502 0.295165 0.421944
0.804472 0.299650 0.427924
0.923442 0.304135 0.433904
1.000000 0.308620 0.437356
0.112858 0.395649 0.408052
0.227232 0.396030 0.409764
0.346202 0.400515 0.415744
0.465172 0.405000 0.421724
0.584142 0.409485 0.427704
0.703112 0.413970 0.433684
0.814828 0.418455 0.437246
0.924828 0.422940 0.440236
1.000000 0.427425 0.443226
0.125872 0.510350 0.415524
0.244842 0.514835 0.421504
0.363812 0.519320 0.427484
0.482782 0.523805 0.433464
0.594828 0.528290 0.437136
0.704828 0.532775 0.440126
0.814828 0.537260 0.443116
0.924828 0.541745 0.446106
1.000000 0.546230 0.449096
0.143482 0.629155 0.427264
0.262452 0.633640 0.433244
0.374828 0.638125 0.437026
0.484828 0.642610 0.440016
0.594828 0.647095 0.443006
0.704828 0.651580 0.445996
0.814828 0.656065 0.448986
0.923390 0.659413 0.451249
1.000000 0.660907 0.452328
0.154828 0.747960 0.436916
0.264828 0.752445 0.439906
0.374828 0.756930 0.442896
0.484828 0.761415 0.445886
0.594828 0.765900 0.448876
0.703871 0.769186 0.451209
0.810449 0.770188 0.452289
0.919572 0.771151 0.454519
1.000000 0.772073 0.456877
0.154828 0.866765 0.442786
0.264828 0.871250 0.445776
0.374828 0.875735 0.448766
0.484278 0.878995 0.451169
0.591861 0.879506 0.452250
0.701841 0.879976 0.454432
0.811446 0.880407 0.456791
0.920023 0.880797 0.459110
1.000000 0.881147 0.461388
0.154828 0.985570 0.448656
0.264613 0.988840 0.451129
0.373201 0.988859 0.452210
0.484038 0.988838 0.454344
0.594649 0.988776 0.456705
0.704233 0.988675 0.459025
0.812790 0.988533 0.461305
0.920320 0.988351 0.463545
1.000000 0.988128 0.465744
0.111825 0.071825 0.521825
0.220704 0.070704 0.520704
0.329583 0.069583 0.519582
0.438461 0.068461 0.518461
0.548799 0.067340 0.517826
0.661490 0.066219 0.517976
0.774181 0.065097 0.518125
0.891642 0.068235 0.522704
1.000000 0.072720 0.528684
0.109624 0.179624 0.519624
0.218503 0.178503 0.518503
0.328700 0.177381 0.517821
0.441391 0.176260 0.517970
0.554082 0.175139 0.518120
0.671312 0.178070 0.522484
0.790282 0.182555 0.528464
0.909252 0.187040 0.534444
1.000000 0.191525 0.540424
0.108601 0.287422 0.517815
0.221292 0.286301 0.517965
0.333983 0.285180 0.518114
0.450982 0.287905 0.522264
0.569952 0.292390 0.528244
0.688922 0.296875 0.534224
0.807892 0.301360 0.540204
0.924828 0.305845 0.545506
1.000000 0.310330 0.548496
0.113884 0.395221 0.518109
0.230652 0.397740 0.522044
0.349622 0.402225 0.528024
0.468592 0.406710 0.534004
0.587562 0.411195 0.539984
0.704828 0.415680 0.545396
0.814828 0.420165 0.548386
0.924828 0.424650 0.551376
1.000000 0.429135 0.554366
0.129292 0.512060 0.527804
0.248262 0.516545 0.533784
0.367232 0.521030 0.539764
0.484828 0.525515 0.545286
0.594828 0.530000 0.548276
0.704828 0.534485 0.551266
0.814828 0.538970 0.554256
0.924828 0.543455 0.557246
1.000000 0.547940 0.560236
0.146902 0.630865 0.539544
0.264828 0.635350 0.545176
0.374828 0.639835 0.548166
0.484828 0.644320 0.551156
0.594828 0.648805 0.554146
0.704828 0.653290 0.557136
0.814828 0.657775 0.560126
0.921963 0.659987 0.561286
1.000000 0.661466 0.562258
0.154828 0.749670 0.548056
0.264828 0.754155 0.551046
0.374828 0.758640 0.554036
0.484828 0.763125 0.557026
0.594828 0.767610 0.560016
0.702819 0.769573 0.561265
0.810250 0.770560 0.562188
0.919672 0.771507 0.564077
1.000000 0.772414 0.565926
0.154828 0.868475 0.553926
0.264828 0.872960 0.556916
0.374828 0.877445 0.559906
0.483603 0.879194 0.561243
0.591890 0.879690 0.562118
0.702318 0.880145 0.564008
0.811719 0.880560 0.565858
0.920093 0.880935 0.567668
1.000000 0.881270 0.569438
0.154828 0.987280 0.559796
0.264315 0.988852 0.561221
0.373457 0.988856 0.562047
0.484892 0.988819 0.563939
0.595299 0.988742 0.565791
0.704680 0.988625 0.567602
0.813033 0.988468 0.569374
0.920360 0.988271 0.571105
1.000000 0.988033 0.572796
0.111398 0.071397 0.631398
0.220276 0.070276 0.630276
0.329155 0.069155 0.629155
0.438034 0.068034 0.628034
0.549825 0.066912 0.627883
0.662516 0.065791 0.628033
0.776092 0.065460 0.629004
0.895062 0.069945 0.634984
1.000000 0.074430 0.640964
0.109196 0.179196 0.629196
0.218075 0.178075 0.628075
0.329726 0.176954 0.627878
0.442417 0.175833 0.628027
0.555762 0.175295 0.628784
0.674732 0.179780 0.634764
0.793702 0.184265 0.640744
0.912672 0.188750 0.646724
1.000000 0.193235 0.652704
0.109627 0.286995 0.627872
0.222318 0.285874 0.628022
0.335432 0.285130 0.628564
0.454402 0.289615 0.634544
0.573372 0.294100 0.640524
0.692342 0.298585 0.646504
0.811312 0.303070 0.652484
0.924828 0.307555 0.656646
1.000000 0.312040 0.659636
0.115102 0.394965 0.628344
0.234072 0.399450 0.634324
0.353042 0.403935 0.640304
0.472012 0.408420 0.646284
0.590982 0.412905 0.652264
0.704828 0.417390 0.656536
0.814828 0.421875 0.659526
0.924828 0.426360 0.662516
1.000000 0.430845 0.665506
0.132712 0.513770 0.640084
0.251682 0.518255 0.646064
0.370652 0.522740 0.652044
0.484828 0.527225 0.656426
0.594828 0.531710 0.659416
0.704828 0.536195 0.662406
0.814828 0.540680 0.665396
0.924828 0.545165 0.668386
1.000000 0.549198 0.670849
0.150322 0.632575 0.651824
0.264828 0.637060 0.656316
0.374828 0.641545 0.659306
0.484828 0.646030 0.662296
0.594828 0.650515 0.665286
0.704828 0.655000 0.668276
0.814352 0.659052 0.670845
0.920535 0.660556 0.670943
1.000000 0.662020 0.671924
0.154828 0.751380 0.659196
0.264828 0.755865 0.662186
0.374828 0.760350 0.665176
0.484828 0.764835 0.668166
0.594580 0.768941 0.670841
0.701768 0.769954 0.670940
0.810547 0.770926 0.671872
0.919766 0.771858 0.673252
1.000000 0.772749 0.674592
0.154828 0.870185 0.665066
0.264828 0.874670 0.668056
0.374735 0.878868 0.670836
0.482928 0.879388 0.670937
0.592564 0.879868 0.671820
0.702789 0.880308 0.673202
0.811986 0.880708 0.674544
0.920157 0.881067 0.675845
1.000000 0.881387 0.677106
0.154817 0.988830 0.670832
0.264016 0.988858 0.670934
0.374508 0.988847 0.671769
0.485739 0.988795 0.673152
0.595943 0.988703 0.674495
0.705120 0.988570 0.675798
0.813271 0.988398 0.677061
0.920394 0.988185 0.678283
1.000000 0.987932 0.679465
0.110970 0.070970 0.740970
0.219849 0.069849 0.739849
0.328728 0.068727 0.738727
0.438160 0.067606 0.737791
0.550851 0.066485 0.737940
0.663542 0.065364 0.738090
0.779512 0.067170 0.741284
0.898482 0.071655 0.747264
1.000000 0.076140 0.753244
0.108769 0.178769 0.738769
0.218061 0.177647 0.737785
0.330752 0.176526 0.737935
0.443443 0.175405 0.738084
0.559182 0.177005 0.741064
0.678152 0.181490 0.747044
0.797122 0.185975 0.753024
0.916092 0.190460 0.759004
1.000000 0.194945 0.764906
0.110653 0.286568 0.737929
0.223344 0.285446 0.738079
0.338852 0.286840 0.740844
0.457822 0.291325 0.746824
0.576792 0.295810 0.752804
0.695762 0.300295 0.758784
0.814732 0.304780 0.764764
0.924828 0.309265 0.767786
1.000000 0.313750 0.770776
0.118522 0.396675 0.740624
0.237492 0.401160 0.746604
0.356462 0.405645 0.752584
0.475432 0.410130 0.758564
0.594402 0.414615 0.764544
0.704828 0.419100 0.767676
0.814828 0.423585 0.770666
0.924828 0.428070 0.773656
1.000000 0.432555 0.776646
0.136132 0.515480 0.752364
0.255102 0.519965 0.758344
0.374072 0.524450 0.764324
0.484828 0.528935 0.767566
0.594828 0.533420 0.770556
0.704828 0.537905 0.773546
0.814828 0.542390 0.776536
0.924828 0.546875 0.779526
1.000000 0.549964 0.780611
0.153742 0.634285 0.764104
0.264828 0.638770 0.767456
0.374828 0.643255 0.770446
0.484828 0.647740 0.773436
0.594828 0.652225 0.776426
0.704828 0.656710 0.779416
0.813112 0.659630 0.780625
0.919337 0.661119 0.780297
1.000000 0.662567 0.781207
0.154828 0.753090 0.770336
0.264828 0.757575 0.773326
0.374828 0.762060 0.776316
0.484828 0.766545 0.779306
0.593716 0.769332 0.780639
0.700797 0.770329 0.780262
0.810839 0.771286 0.781174
0.919854 0.772202 0.782046
1.000000 0.773079 0.782877
0.154828 0.871895 0.776206
0.264828 0.876380 0.779196
0.374248 0.879071 0.780654
0.482253 0.879576 0.780251
0.593233 0.880041 0.781141
0.703254 0.880465 0.782014
0.812248 0.880850 0.782847
0.920215 0.881194 0.783640
1.000000 0.881498 0.784392
0.154707 0.988845 0.780668
0.263717 0.988859 0.780266
0.375554 0.988832 0.781108
0.486581 0.988764 0.781983
0.596582 0.988657 0.782817
0.705555 0.988509 0.783611
0.813502 0.988321 0.784365
0.920422 0.988093 0.785079
1.000000 0.987825 0.785752
0.110542 0.070543 0.850543
0.219421 0.069421 0.849421
0.328300 0.068300 0.848300
0.439186 0.067179 0.847848
0.551877 0.066058 0.847997
0.664568 0.064936 0.848147
0.782932 0.068880 0.853564
0.901902 0.073365 0.859544
1.000000 0.077850 0.865524
0.108341 0.178341 0.848341
0.219087 0.177220 0.847842
0.331778 0.176099 0.847992
0.444469 0.174978 0.848141
0.562602 0.178715 0.853344
0.681572 0.183200 0.859324
0.800542 0.187685 0.865304
0.919512 0.192170 0.871284
1.000000 0.196655 0.876046
0.111679 0.286140 0.847986
0.224370 0.285019 0.848136
0.342272 0.288550 0.853124
0.461242 0.293035 0.859104
0.580212 0.297520 0.865084
0.699182 0.302005 0.871064
0.814828 0.306490 0.875936
0.924828 0.310975 0.878926
1.000000 0.315460 0.881916
0.121942 0.398385 0.852904
0.240912 0.402870 0.858884
0.359882 0.407355 0.864864
0.478852 0.411840 0.870844
0.594828 0.416325 0.875826
0.704828 0.420810 0.878816
0.814828 0.425295 0.881806
0.924828 0.429780 0.884796
1.000000 0.434265 0.887786
0.139552 0.517190 0.864644
0.258522 0.521675 0.870624
0.374828 0.526160 0.875716
0.484828 0.530645 0.878706
0.594828 0.535130 0.881696
0.704828 0.539615 0.884686
0.814828 0.544100 0.887676
0.924828 0.548585 0.890666
1.000000 0.550724 0.889992
0.154828 0.635995 0.875606
0.264828 0.640480 0.878596
0.374828 0.644965 0.881586
0.484828 0.649450 0.884576
0.594828 0.653935 0.887566
0.704828 0.658420 0.890556
0.811873 0.660202 0.890025
0.919450 0.661676 0.889707
1.000000 0.663109 0.890108
0.154828 0.754800 0.881476
0.264828 0.759285 0.884466
0.374828 0.763770 0.887456
0.484828 0.768255 0.890446
0.592853 0.769717 0.890058
0.701286 0.770699 0.889691
0.811125 0.771640 0.890094
0.919936 0.772541 0.890457
1.000000 0.773402 0.890780
0.154828 0.873605 0.887346
0.264828 0.878090 0.890336
0.373761 0.879268 0.890091
0.483051 0.879758 0.889675
0.593895 0.880207 0.890080
0.703713 0.880616 0.890444
0.812504 0.880986 0.890769
0.920267 0.881314 0.891053
1.000000 0.881603 0.891296
0.154596 0.988855 0.890124
0.264742 0.988853 0.889660
0.376593 0.988811 0.890066
0.487417 0.988728 0.890432
0.597214 0.988605 0.890757
0.705984 0.988442 0.891043
0.813727 0.988239 0.891288
0.920444 0.987995 0.891493
1.000000 0.987712 0.891658
0.110115 0.070115 0.960115
0.218994 0.068994 0.958994
0.327873 0.067872 0.957873
0.440212 0.066751 0.957905
0.552903 0.065630 0.958054
0.667382 0.066105 0.959864
0.786352 0.070590 0.965844
0.905322 0.075075 0.971824
1.000000 0.079560 0.977804
0.107914 0.177914 0.957914
0.220113 0.176792 0.957899
0.332804 0.175671 0.958049
0.447052 0.175940 0.959644
0.566022 0.180425 0.965624
0.684992 0.184910 0.971604
0.803962 0.189395 0.977584
0.922932 0.193880 0.983564
1.000000 0.198365 0.987186
0.112705 0.285713 0.958043
0.226722 0.285775 0.959424
0.345692 0.290260 0.965404
0.464662 0.294745 0.971384
0.583632 0.299230 0.977364
0.702602 0.303715 0.983344
0.814828 0.308200 0.987076
0.924828 0.312685 0.990066
1.000000 0.317170 0.993056
0.125362 0.400095 0.965184
0.244332 0.404580 0.971164
0.363302 0.409065 0.977144
0.482272 0.413550 0.983124
0.594828 0.418035 0.986966
0.704828 0.422520 0.989956
0.814828 0.427005 0.992946
0.924828 0.431490 0.995936
1.000000 0.435975 0.998926
0.142972 0.518900 0.976924
0.261942 0.523385 0.982904
0.374828 0.527870 0.986856
0.484828 0.532355 0.989846
0.594828 0.536840 0.992836
0.704828 0.541325 0.995826
0.814828 0.545810 0.998816
0.923603 0.549488 1.000000
1.000000 0.551478 0.998994
0.154828 0.637705 0.986746
0.264828 0.642190 0.989736
0.374828 0.646675 0.992726
0.484828 0.651160 0.995716
0.594828 0.655645 0.998706
0.704027 0.659271 1.000000
0.810633 0.660769 0.999045
0.919556 0.662227 0.998735
1.000000 0.663645 0.998628
0.154828 0.756510 0.992616
0.264828 0.760995 0.995606
0.374828 0.765480 0.998596
0.484379 0.769090 1.000000
0.591990 0.770096 0.999097
0.701770 0.771062 0.998738
0.811405 0.771988 0.998632
0.920013 0.772874 0.998486
1.000000 0.773720 0.998300
0.154828 0.875315 0.998486
0.264658 0.878945 1.000000
0.373274 0.879459 0.999148
0.483911 0.879934 0.998741
0.594552 0.880368 0.998637
0.704166 0.880762 0.998493
0.812753 0.881116 0.998308
0.920314 0.881429 0.998083
1.000000 0.881702 0.997818
0.154485 0.988859 0.999200
0.265979 0.988842 0.998744
0.377626 0.988784 0.998641
0.488247 0.988686 0.998499
0.597841 0.988548 0.998316
0.706407 0.988369 0.998092
0.813947 0.988151 0.997829
0.920460 0.987892 0.997525
1.000000 0.988800 0.998400
