assets/luts/blossom.cube
TITLE "blossom"
LUT_3D_SIZE 5
0.113535 0.073535 0.083535
0.331292 0.071293 0.081293
0.549050 0.069050 0.079050
0.770077 0.066808 0.077897
0.996932 0.065880 0.079564
0.109132 0.289133 0.079132
0.329879 0.286890 0.077886
0.556272 0.285550 0.079124
0.794212 0.294520 0.091084
1.000000 0.303490 0.103044
0.115612 0.505220 0.078684
0.353552 0.514190 0.090644
0.591492 0.523160 0.102604
0.814828 0.532130 0.109696
1.000000 0.541100 0.115676
0.150832 0.742830 0.102164
0.374828 0.751800 0.109476
0.594828 0.760770 0.115456
0.814167 0.769038 0.121353
1.000000 0.771015 0.127438
0.154828 0.980440 0.115236
0.374662 0.988834 0.121163
0.592664 0.988843 0.127154
0.812026 0.988692 0.134806
1.000000 0.988379 0.142297
0.112680 0.072680 0.302680
0.330437 0.070437 0.300438
0.548195 0.068195 0.298195
0.772129 0.065952 0.298011
1.000000 0.069300 0.304124
0.108277 0.288277 0.298277
0.331931 0.286035 0.298000
0.563112 0.288970 0.303684
0.801052 0.297940 0.315644
1.000000 0.306910 0.326216
0.122452 0.508640 0.303244
0.360392 0.517610 0.315204
0.594828 0.526580 0.325996
0.814828 0.535550 0.331976
1.000000 0.544520 0.337956
0.154828 0.746250 0.325776
0.374828 0.755220 0.331756
0.594828 0.764190 0.337736
0.811688 0.769811 0.342357
1.000000 0.771726 0.347446
0.154828 0.983860 0.337516
0.373688 0.988857 0.342241
0.593993 0.988805 0.347236
0.812541 0.988592 0.352854
1.000000 0.988218 0.358311
0.111825 0.071825 0.521825
0.329583 0.069583 0.519582
0.548799 0.067340 0.517826
0.774181 0.065097 0.518125
1.000000 0.072720 0.528684
0.108601 0.287422 0.517815
0.333983 0.285180 0.518114
0.569952 0.292390 0.528244
0.807892 0.301360 0.540204
1.000000 0.310330 0.548496
0.129292 0.512060 0.527804
0.367232 0.521030 0.539764
0.594828 0.530000 0.548276
0.814828 0.538970 0.554256
1.000000 0.547940 0.560236
0.154828 0.749670 0.548056
0.374828 0.758640 0.554036
0.594828 0.767610 0.560016
0.810250 0.770560 0.562188
1.000000 0.772414 0.565926
0.154828 0.987280 0.559796
0.373457 0.988856 0.562047
0.595299 0.988742 0.565791
0.813033 0.988468 0.569374
1.000000 0.988033 0.572796
0.110970 0.070970 0.740970
0.328728 0.068727 0.738727
0.550851 0.066485 0.737940
0.779512 0.067170 0.741284
1.000000 0.076140 0.753244
0.110653 0.286568 0.737929
0.338852 0.286840 0.740844
0.576792 0.295810 0.752804
0.814732 0.304780 0.764764
1.000000 0.313750 0.770776
0.136132 0.515480 0.752364
0.374072 0.524450 0.764324
0.594828 0.533420 0.770556
0.814828 0.542390 0.776536
1.000000 0.549964 0.780611
0.154828 0.753090 0.770336
0.374828 0.762060 0.776316
0.593716 0.769332 0.780639
0.810839 0.771286 0.781174
1.000000 0.773079 0.782877
0.154707 0.988845 0.780668
0.375554 0.988832 0.781108
0.596582 0.988657 0.782817
0.813502 0.988321 0.784365
1.000000 0.987825 0.785752
0.110115 0.070115 0.960115
0.327873 0.067872 0.957873
0.552903 0.065630 0.958054
0.786352 0.070590 0.965844
1.000000 0.079560 0.977804
0.112705 0.285713 0.958043
0.345692 0.290260 0.965404
0.583632 0.299230 0.977364
0.814828 0.308200 0.987076
1.000000 0.317170 0.993056
0.142972 0.518900 0.976924
0.374828 0.527870 0.986856
0.594828 0.536840 0.992836
0.814828 0.545810 0.998816
1.000000 0.551478 0.998994
0.154828 0.756510 0.992616
0.374828 0.765480 0.998596
0.591990 0.770096 0.999097
0.811405 0.771988 0.998632
1.000000 0.773720 0.998300
0.154485 0.988859 0.999200
0.377626 0.988784 0.998641
0.597841 0.988548 0.998316
0.813947 0.988151 0.997829
1.000000 0.988800 0.998400
