assets/luts/blossom.cube
TITLE "blossom"
LUT_3D_SIZE 33
0.113535 0.073535 0.083535
0.140755 0.073255 0.083255
0.167974 0.072974 0.082974
0.195194 0.072694 0.082694
0.222414 0.072414 0.082414
0.249633 0.072133 0.082133
0.276853 0.071853 0.081853
0.304073 0.071573 0.081573
0.331292 0.071293 0.081293
0.358512 0.071012 0.081012
0.385732 0.070732 0.080732
0.412952 0.070452 0.080452
0.440171 0.070171 0.080171
0.467391 0.069891 0.079891
0.494611 0.069611 0.079611
0.521830 0.069330 0.079330
0.549050 0.069050 0.079050
0.576270 0.068770 0.078770
0.603489 0.068489 0.078489
0.630709 0.068209 0.078209
0.657929 0.067929 0.077929
0.685559 0.067648 0.077785
0.713732 0.067368 0.077823
0.741904 0.067088 0.077860
0.770077 0.066808 0.077897
0.798250 0.066527 0.077935
0.826423 0.066247 0.077972
0.854595 0.065967 0.078010
0.882768 0.065686 0.078047
0.910941 0.065406 0.078084
0.939114 0.065126 0.078122
0.967286 0.064845 0.078159
0.996932 0.065880 0.079564
0.112985 0.100485 0.082985
0.140204 0.100204 0.082704
0.167424 0.099924 0.082424
0.194644 0.099644 0.082144
0.221863 0.099363 0.081863
0.249083 0.099083 0.081583
0.276303 0.098803 0.081303
0.303523 0.098522 0.081022
0.330742 0.098242 0.080742
0.357962 0.097962 0.080462
0.385182 0.097682 0.080182
0.412401 0.097401 0.079901
0.439621 0.097121 0.079621
0.466841 0.096841 0.079341
0.494060 0.096560 0.079060
0.521280 0.096280 0.078780
0.548500 0.096000 0.078500
0.575719 0.095719 0.078219
0.602939 0.095439 0.077939
0.630534 0.095159 0.077784
0.658707 0.094878 0.077821
0.686880 0.094598 0.077859
0.715052 0.094318 0.077896
0.743225 0.094037 0.077933
0.771398 0.093757 0.077971
0.799571 0.093477 0.078008
0.827743 0.093197 0.078046
0.855916 0.092916 0.078083
0.884089 0.092636 0.078120
0.912262 0.092356 0.078158
0.941850 0.093339 0.079509
0.971592 0.094460 0.081004
1.000000 0.095581 0.082499
0.112434 0.127434 0.082434
0.139654 0.127154 0.082154
0.166874 0.126874 0.081874
0.194093 0.126593 0.081593
0.221313 0.126313 0.081313
0.248533 0.126033 0.081033
0.275753 0.125752 0.080753
0.302972 0.125472 0.080472
0.330192 0.125192 0.080192
0.357412 0.124912 0.079912
0.384631 0.124631 0.079631
0.411851 0.124351 0.079351
0.439071 0.124071 0.079071
0.466290 0.123790 0.078790
0.493510 0.123510 0.078510
0.520730 0.123230 0.078230
0.547949 0.122949 0.077949
0.575509 0.122669 0.077783
0.603682 0.122389 0.077820
0.631855 0.122108 0.077857
0.660028 0.121828 0.077895
0.688200 0.121548 0.077932
0.716373 0.121268 0.077969
0.744546 0.120987 0.078007
0.772719 0.120707 0.078044
0.800891 0.120427 0.078082
0.829064 0.120146 0.078119
0.857237 0.119866 0.078156
0.886767 0.120798 0.079454
0.916510 0.121919 0.080949
0.946252 0.123040 0.082444
0.975995 0.124161 0.083939
1.000000 0.125282 0.085434
0.111884 0.154384 0.081884
0.139104 0.154104 0.081604
0.166323 0.153823 0.081323
0.193543 0.153543 0.081043
0.220763 0.153263 0.080763
0.247983 0.152982 0.080482
0.275202 0.152702 0.080202
0.302422 0.152422 0.079922
0.329642 0.152142 0.079642
0.356861 0.151861 0.079361
0.384081 0.151581 0.079081
0.411301 0.151301 0.078801
0.438520 0.151020 0.078520
0.465740 0.150740 0.078240
0.492960 0.150460 0.077960
0.520485 0.150179 0.077781
0.548657 0.149899 0.077819
0.576830 0.149619 0.077856
0.605003 0.149338 0.077893
0.633176 0.149058 0.077931
0.661348 0.148778 0.077968
0.689521 0.148498 0.078005
0.717694 0.148217 0.078043
0.745867 0.147937 0.078080
0.774039 0.147657 0.078118
0.802212 0.147376 0.078155
0.831685 0.148256 0.079399
0.861427 0.149377 0.080894
0.891170 0.150499 0.082389
0.920912 0.151620 0.083884
0.950655 0.152741 0.085379
0.980397 0.153863 0.086874
1.000000 0.154984 0.088369
0.111334 0.181334 0.081334
0.138553 0.181053 0.081053
0.165773 0.180773 0.080773
0.192993 0.180493 0.080493
0.220212 0.180212 0.080213
0.247432 0.179932 0.079932
0.274652 0.179652 0.079652
0.301872 0.179372 0.079372
0.329091 0.179091 0.079091
0.356311 0.178811 0.078811
0.383531 0.178531 0.078531
0.410750 0.178250 0.078250
0.437970 0.177970 0.077970
0.465460 0.177690 0.077780
0.493633 0.177409 0.077817
0.521805 0.177129 0.077855
0.549978 0.176849 0.077892
0.578151 0.176568 0.077929
0.606324 0.176288 0.077967
0.634496 0.176008 0.078004
0.662669 0.175727 0.078041
0.690842 0.175447 0.078079
0.719015 0.175167 0.078116
0.747187 0.174887 0.078154
0.776602 0.175715 0.079344
0.806345 0.176836 0.080839
0.836087 0.177957 0.082334
0.865830 0.179079 0.083829
0.895572 0.180200 0.085324
0.925315 0.181321 0.086819
0.955057 0.182442 0.088314
0.984800 0.183564 0.089809
1.000000 0.184685 0.091304
0.110783 0.208283 0.080783
0.138003 0.208003 0.080503
0.165223 0.207723 0.080223
0.192442 0.207442 0.079942
0.219662 0.207162 0.079662
0.246882 0.206882 0.079382
0.274102 0.206602 0.079102
0.301321 0.206321 0.078821
0.328541 0.206041 0.078541
0.355761 0.205761 0.078261
0.382980 0.205480 0.077980
0.410435 0.205200 0.077778
0.438608 0.204920 0.077816
0.466781 0.204639 0.077853
0.494953 0.204359 0.077891
0.523126 0.204079 0.077928
0.551299 0.203798 0.077965
0.579472 0.203518 0.078003
0.607644 0.203238 0.078040
0.635817 0.202958 0.078077
0.663990 0.202677 0.078115
0.692163 0.202397 0.078152
0.721519 0.203174 0.079289
0.751262 0.204295 0.080784
0.781005 0.205416 0.082279
0.810747 0.206537 0.083774
0.840490 0.207659 0.085269
0.870232 0.208780 0.086764
0.899975 0.209901 0.088259
0.929717 0.211023 0.089754
0.959460 0.212144 0.091249
0.989202 0.213265 0.092744
1.000000 0.214386 0.094239
0.110233 0.235233 0.080233
0.137453 0.234953 0.079953
0.164672 0.234673 0.079673
0.191892 0.234392 0.079392
0.219112 0.234112 0.079112
0.246332 0.233832 0.078832
0.273551 0.233551 0.078551
0.300771 0.233271 0.078271
0.327991 0.232991 0.077991
0.355410 0.232710 0.077777
0.383583 0.232430 0.077814
0.411756 0.232150 0.077852
0.439929 0.231869 0.077889
0.468101 0.231589 0.077927
0.496274 0.231309 0.077964
0.524447 0.231028 0.078001
0.552620 0.230748 0.078039
0.580792 0.230468 0.078076
0.608965 0.230187 0.078113
0.637138 0.229907 0.078151
0.666437 0.230633 0.079234
0.696180 0.231754 0.080729
0.725922 0.232875 0.082224
0.755665 0.233996 0.083719
0.785407 0.235117 0.085214
0.815150 0.236239 0.086709
0.844892 0.237360 0.088204
0.874635 0.238481 0.089699
0.904377 0.239602 0.091194
0.934120 0.240724 0.092689
0.963862 0.241845 0.094184
0.993605 0.242966 0.095679
1.000000 0.244088 0.097174
0.109683 0.262183 0.079683
0.136902 0.261902 0.079403
0.164122 0.261622 0.079122
0.191342 0.261342 0.078842
0.218562 0.261062 0.078562
0.245781 0.260781 0.078281
0.273001 0.260501 0.078001
0.300386 0.260221 0.077776
0.328558 0.259940 0.077813
0.356731 0.259660 0.077850
0.384904 0.259380 0.077888
0.413077 0.259099 0.077925
0.441249 0.258819 0.077963
0.469422 0.258539 0.078000
0.497595 0.258258 0.078037
0.525768 0.257978 0.078075
0.553940 0.257698 0.078112
0.582113 0.257418 0.078149
0.611355 0.258091 0.079179
0.641097 0.259212 0.080674
0.670840 0.260334 0.082169
0.700582 0.261455 0.083664
0.730325 0.262576 0.085159
0.760067 0.263698 0.086654
0.789810 0.264819 0.088149
0.819552 0.265940 0.089644
0.849295 0.267061 0.091139
0.879037 0.268182 0.092634
0.908780 0.269304 0.094129
0.938522 0.270425 0.095624
0.968264 0.271546 0.097119
0.998007 0.272668 0.098614
1.000000 0.273789 0.100109
0.109132 0.289133 0.079132
0.136352 0.288852 0.078852
0.163572 0.288572 0.078572
0.190792 0.288292 0.078292
0.218011 0.288011 0.078011
0.245361 0.287731 0.077774
0.273534 0.287451 0.077812
0.301706 0.287170 0.077849
0.329879 0.286890 0.077886
0.358052 0.286610 0.077924
0.386225 0.286329 0.077961
0.414397 0.286049 0.077999
0.442570 0.285769 0.078036
0.470743 0.285488 0.078073
0.498916 0.285208 0.078111
0.527088 0.284928 0.078148
0.556272 0.285550 0.079124
0.586014 0.286671 0.080619
0.615757 0.287793 0.082114
0.645500 0.288914 0.083609
0.675242 0.290035 0.085104
0.704985 0.291156 0.086599
0.734727 0.292277 0.088094
0.764470 0.293399 0.089589
0.794212 0.294520 0.091084
0.823955 0.295641 0.092579
0.853697 0.296763 0.094074
0.883440 0.297884 0.095569
0.913182 0.299005 0.097064
0.942925 0.300126 0.098559
0.972667 0.301248 0.100054
1.000000 0.302369 0.101549
1.000000 0.303490 0.103044
0.108582 0.316082 0.078582
0.135802 0.315802 0.078302
0.163022 0.315522 0.078022
0.190336 0.315241 0.077773
0.218509 0.314961 0.077810
0.246682 0.314681 0.077848
0.274854 0.314400 0.077885
0.303027 0.314120 0.077922
0.331200 0.313840 0.077960
0.359373 0.313559 0.077997
0.387545 0.313279 0.078035
0.415718 0.312999 0.078072
0.443891 0.312718 0.078109
0.472064 0.312438 0.078147
0.501189 0.313009 0.079069
0.530932 0.314130 0.080564
0.560674 0.315251 0.082059
0.590417 0.316372 0.083554
0.620159 0.317494 0.085049
0.649902 0.318615 0.086544
0.679645 0.319736 0.088039
0.709387 0.320858 0.089534
0.739130 0.321979 0.091029
0.768872 0.323100 0.092524
0.798615 0.324221 0.094019
0.828357 0.325342 0.095514
0.858100 0.326464 0.097009
0.887842 0.327585 0.098504
0.917585 0.328706 0.099999
0.947327 0.329828 0.101494
0.977070 0.330949 0.102989
1.000000 0.332070 0.104484
1.000000 0.333191 0.105403
0.108032 0.343032 0.078032
0.135311 0.342752 0.077772
0.163484 0.342471 0.077809
0.191657 0.342191 0.077846
0.219830 0.341911 0.077884
0.248002 0.341630 0.077921
0.276175 0.341350 0.077958
0.304348 0.341070 0.077996
0.332521 0.340789 0.078033
0.360693 0.340509 0.078071
0.388866 0.340229 0.078108
0.417039 0.339948 0.078145
0.446107 0.340468 0.079014
0.475849 0.341589 0.080509
0.505592 0.342710 0.082004
0.535334 0.343831 0.083499
0.565077 0.344952 0.084994
0.594820 0.346074 0.086489
0.624562 0.347195 0.087984
0.654305 0.348316 0.089479
0.684047 0.349437 0.090974
0.713790 0.350559 0.092469
0.743532 0.351680 0.093964
0.773275 0.352801 0.095459
0.803017 0.353923 0.096954
0.832759 0.355044 0.098449
0.862502 0.356165 0.099944
0.892245 0.357286 0.101439
0.921987 0.358407 0.102934
0.951730 0.359529 0.104429
0.979828 0.360650 0.105376
1.000000 0.361771 0.106123
1.000000 0.362893 0.106871
0.108459 0.369982 0.077808
0.136632 0.369701 0.077845
0.164805 0.369421 0.077882
0.192978 0.369141 0.077920
0.221150 0.368860 0.077957
0.249323 0.368580 0.077994
0.277496 0.368300 0.078032
0.305669 0.368019 0.078069
0.333841 0.367739 0.078107
0.362014 0.367459 0.078144
0.391024 0.367926 0.078959
0.420767 0.369047 0.080454
0.450509 0.370169 0.081949
0.480252 0.371290 0.083444
0.509995 0.372411 0.084939
0.539737 0.373533 0.086434
0.569480 0.374654 0.087929
0.599222 0.375775 0.089424
0.628965 0.376896 0.090919
0.658707 0.378018 0.092414
0.688450 0.379139 0.093909
0.718192 0.380260 0.095404
0.747935 0.381381 0.096899
0.777677 0.382502 0.098394
0.807420 0.383624 0.099889
0.837162 0.384745 0.101384
0.866905 0.385866 0.102879
0.896647 0.386988 0.104374
0.924828 0.388109 0.105348
0.952328 0.389230 0.106096
0.979828 0.390351 0.106844
1.000000 0.391473 0.107591
1.000000 0.392594 0.108338
0.109780 0.396931 0.077881
0.137953 0.396651 0.077918
0.166126 0.396371 0.077956
0.194298 0.396090 0.077993
0.222471 0.395810 0.078030
0.250644 0.395530 0.078068
0.278817 0.395249 0.078105
0.306989 0.394969 0.078143
0.335942 0.395385 0.078904
0.365684 0.396506 0.080399
0.395427 0.397628 0.081894
0.425169 0.398749 0.083389
0.454912 0.399870 0.084884
0.484655 0.400991 0.086379
0.514397 0.402112 0.087874
0.544139 0.403234 0.089369
0.573882 0.404355 0.090864
0.603625 0.405476 0.092359
0.633367 0.406597 0.093854
0.663110 0.407719 0.095349
0.692852 0.408840 0.096844
0.722595 0.409961 0.098339
0.752337 0.411083 0.099834
0.782080 0.412204 0.101329
0.811822 0.413325 0.102824
0.841565 0.414446 0.104319
0.869828 0.415567 0.105321
0.897328 0.416689 0.106068
0.924828 0.417810 0.106816
0.952328 0.418931 0.107563
0.979828 0.420053 0.108311
1.000000 0.421174 0.109058
1.000000 0.422295 0.109806
0.111101 0.423881 0.077954
0.139274 0.423601 0.077992
0.167446 0.423320 0.078029
0.195619 0.423040 0.078066
0.223792 0.422760 0.078104
0.251965 0.422479 0.078141
0.280859 0.422844 0.078849
0.310602 0.423965 0.080344
0.340344 0.425086 0.081839
0.370087 0.426207 0.083334
0.399829 0.427329 0.084829
0.429572 0.428450 0.086324
0.459315 0.429571 0.087819
0.489057 0.430693 0.089314
0.518799 0.431814 0.090809
0.548542 0.432935 0.092304
0.578285 0.434056 0.093799
0.608027 0.435177 0.095294
0.637770 0.436299 0.096789
0.667512 0.437420 0.098284
0.697254 0.438541 0.099779
0.726997 0.439662 0.101274
0.756740 0.440784 0.102769
0.786482 0.441905 0.104264
0.814828 0.443026 0.105293
0.842328 0.444148 0.106041
0.869828 0.445269 0.106788
0.897328 0.446390 0.107536
0.924828 0.447511 0.108283
0.952328 0.448632 0.109031
0.979828 0.449754 0.109778
1.000000 0.450875 0.110526
1.000000 0.451996 0.111273
0.112422 0.450831 0.078028
0.140594 0.450550 0.078065
0.168767 0.450270 0.078102
0.196940 0.449990 0.078140
0.225777 0.450303 0.078794
0.255520 0.451424 0.080289
0.285262 0.452545 0.081784
0.315004 0.453666 0.083279
0.344747 0.454788 0.084774
0.374489 0.455909 0.086269
0.404232 0.457030 0.087764
0.433975 0.458151 0.089259
0.463717 0.459272 0.090754
0.493459 0.460394 0.092249
0.523202 0.461515 0.093744
0.552945 0.462636 0.095239
0.582687 0.463758 0.096734
0.612430 0.464879 0.098229
0.642172 0.466000 0.099724
0.671914 0.467121 0.101219
0.701657 0.468243 0.102714
0.731399 0.469364 0.104209
0.759828 0.470485 0.105266
0.787328 0.471606 0.106013
0.814828 0.472727 0.106761
0.842328 0.473849 0.107508
0.869828 0.474970 0.108256
0.897328 0.476091 0.109003
0.924828 0.477213 0.109751
0.952328 0.478334 0.110498
0.979828 0.479455 0.111246
1.000000 0.480576 0.111993
1.000000 0.481698 0.112741
0.113742 0.477780 0.078101
0.141915 0.477500 0.078138
0.170695 0.477761 0.078739
0.200437 0.478882 0.080234
0.230180 0.480004 0.081729
0.259922 0.481125 0.083224
0.289664 0.482246 0.084719
0.319407 0.483367 0.086214
0.349149 0.484489 0.087709
0.378892 0.485610 0.089204
0.408635 0.486731 0.090699
0.438377 0.487853 0.092194
0.468120 0.488974 0.093689
0.497862 0.490095 0.095184
0.527604 0.491216 0.096679
0.557347 0.492337 0.098174
0.587090 0.493459 0.099669
0.616832 0.494580 0.101164
0.646575 0.495701 0.102659
0.676317 0.496823 0.104154
0.704828 0.497944 0.105238
0.732328 0.499065 0.105986
0.759828 0.500186 0.106733
0.787328 0.501308 0.107481
0.814828 0.502429 0.108228
0.842328 0.503550 0.108976
0.869828 0.504671 0.109723
0.897328 0.505792 0.110471
0.924828 0.506914 0.111218
0.952328 0.508035 0.111966
0.979828 0.509156 0.112713
1.000000 0.510278 0.113461
1.000000 0.511399 0.114208
0.115612 0.505220 0.078684
0.145355 0.506341 0.080179
0.175097 0.507463 0.081674
0.204839 0.508584 0.083169
0.234582 0.509705 0.084664
0.264324 0.510826 0.086159
0.294067 0.511947 0.087654
0.323809 0.513069 0.089149
0.353552 0.514190 0.090644
0.383294 0.515311 0.092139
0.413037 0.516432 0.093634
0.442779 0.517554 0.095129
0.472522 0.518675 0.096624
0.502265 0.519796 0.098119
0.532007 0.520918 0.099614
0.561750 0.522039 0.101109
0.591492 0.523160 0.102604
0.621235 0.524281 0.104099
0.649828 0.525402 0.105211
0.677328 0.526524 0.105958
0.704828 0.527645 0.106706
0.732328 0.528766 0.107454
0.759828 0.529887 0.108201
0.787328 0.531009 0.108948
0.814828 0.532130 0.109696
0.842328 0.533251 0.110443
0.869828 0.534373 0.111191
0.897328 0.535494 0.111938
0.924828 0.536615 0.112686
0.952328 0.537736 0.113433
0.979828 0.538857 0.114181
1.000000 0.539979 0.114928
1.000000 0.541100 0.115676
0.120015 0.534921 0.081619
0.149757 0.536042 0.083114
0.179500 0.537164 0.084609
0.209242 0.538285 0.086104
0.238984 0.539406 0.087599
0.268727 0.540528 0.089094
0.298469 0.541649 0.090589
0.328212 0.542770 0.092084
0.357954 0.543891 0.093579
0.387697 0.545013 0.095074
0.417440 0.546134 0.096569
0.447182 0.547255 0.098064
0.476924 0.548376 0.099559
0.506667 0.549497 0.101054
0.536409 0.550619 0.102549
0.566152 0.551740 0.104044
0.594828 0.552861 0.105183
0.622328 0.553983 0.105931
0.649828 0.555104 0.106678
0.677328 0.556225 0.107426
0.704828 0.557346 0.108173
0.732328 0.558468 0.108921
0.759828 0.559589 0.109668
0.787328 0.560710 0.110416
0.814828 0.561831 0.111163
0.842328 0.562953 0.111911
0.869828 0.564074 0.112658
0.897328 0.565195 0.113406
0.924828 0.566316 0.114154
0.952328 0.567438 0.114901
0.979828 0.568559 0.115648
1.000000 0.569680 0.116396
1.000000 0.570801 0.117143
0.124417 0.564623 0.084554
0.154160 0.565744 0.086049
0.183902 0.566865 0.087544
0.213644 0.567986 0.089039
0.243387 0.569107 0.090534
0.273130 0.570229 0.092029
0.302872 0.571350 0.093524
0.332615 0.572471 0.095019
0.362357 0.573593 0.096514
0.392099 0.574714 0.098009
0.421842 0.575835 0.099504
0.451584 0.576956 0.100999
0.481327 0.578078 0.102494
0.511069 0.579199 0.103989
0.539828 0.580320 0.105156
0.567328 0.581441 0.105903
0.594828 0.582562 0.106651
0.622328 0.583684 0.107398
0.649828 0.584805 0.108146
0.677328 0.585926 0.108893
0.704828 0.587048 0.109641
0.732328 0.588169 0.110388
0.759828 0.589290 0.111136
0.787328 0.590411 0.111883
0.814828 0.591533 0.112631
0.842328 0.592654 0.113378
0.869828 0.593775 0.114126
0.897328 0.594896 0.114873
0.924828 0.596017 0.115621
0.952328 0.597139 0.116368
0.979828 0.598260 0.117116
1.000000 0.599381 0.117863
1.000000 0.600503 0.118611
0.128820 0.594324 0.087489
0.158562 0.595445 0.088984
0.188305 0.596566 0.090479
0.218047 0.597688 0.091974
0.247789 0.598809 0.093469
0.277532 0.599930 0.094964
0.307275 0.601051 0.096459
0.337017 0.602172 0.097954
0.366760 0.603294 0.099449
0.396502 0.604415 0.100944
0.426244 0.605536 0.102439
0.455987 0.606658 0.103934
0.484828 0.607779 0.105128
0.512328 0.608900 0.105876
0.539828 0.610021 0.106623
0.567328 0.611143 0.107371
0.594828 0.612264 0.108118
0.622328 0.613385 0.108866
0.649828 0.614506 0.109613
0.677328 0.615627 0.110361
0.704828 0.616749 0.111108
0.732328 0.617870 0.111856
0.759828 0.618991 0.112603
0.787328 0.620113 0.113351
0.814828 0.621234 0.114099
0.842328 0.622355 0.114846
0.869828 0.623476 0.115593
0.897328 0.624598 0.116341
0.924828 0.625719 0.117088
0.952328 0.626840 0.117836
0.979828 0.627961 0.118584
1.000000 0.629082 0.119331
1.000000 0.630204 0.120078
0.133222 0.624025 0.090424
0.162964 0.625146 0.091919
0.192707 0.626267 0.093414
0.222449 0.627389 0.094909
0.252192 0.628510 0.096404
0.281935 0.629631 0.097899
0.311677 0.630753 0.099394
0.341419 0.631874 0.100889
0.371162 0.632995 0.102384
0.400904 0.634116 0.103879
0.429828 0.635238 0.105101
0.457328 0.636359 0.105848
0.484828 0.637480 0.106596
0.512328 0.638601 0.107343
0.539828 0.639722 0.108091
0.567328 0.640844 0.108838
0.594828 0.641965 0.109586
0.622328 0.643086 0.110333
0.649828 0.644208 0.111081
0.677328 0.645329 0.111828
0.704828 0.646450 0.112576
0.732328 0.647571 0.113323
0.759828 0.648693 0.114071
0.787328 0.649814 0.114818
0.814828 0.650935 0.115566
0.842328 0.652056 0.116313
0.869828 0.653178 0.117061
0.897328 0.654299 0.117808
0.924828 0.655420 0.118556
0.952328 0.656541 0.119303
0.979828 0.657663 0.120051
1.000000 0.658784 0.120799
1.000000 0.659194 0.121447
0.137625 0.653726 0.093359
0.167367 0.654848 0.094854
0.197109 0.655969 0.096349
0.226852 0.657090 0.097844
0.256594 0.658211 0.099339
0.286337 0.659332 0.100834
0.316080 0.660454 0.102329
0.345822 0.661575 0.103824
0.374828 0.662696 0.105073
0.402328 0.663818 0.105821
0.429828 0.664939 0.106568
0.457328 0.666060 0.107316
0.484828 0.667181 0.108064
0.512328 0.668303 0.108811
0.539828 0.669424 0.109558
0.567328 0.670545 0.110306
0.594828 0.671666 0.111053
0.622328 0.672787 0.111801
0.649828 0.673909 0.112548
0.677328 0.675030 0.113296
0.704828 0.676151 0.114043
0.732328 0.677273 0.114791
0.759828 0.678394 0.115538
0.787328 0.679515 0.116286
0.814828 0.680636 0.117033
0.842328 0.681758 0.117781
0.869828 0.682879 0.118528
0.897328 0.684000 0.119276
0.924828 0.685121 0.120023
0.952328 0.686242 0.120771
0.978906 0.686652 0.121424
1.000000 0.687000 0.122067
1.000000 0.687346 0.122709
0.142027 0.683428 0.096294
0.171770 0.684549 0.097789
0.201512 0.685670 0.099284
0.231254 0.686791 0.100779
0.260997 0.687913 0.102274
0.290739 0.689034 0.103769
0.319828 0.690155 0.105046
0.347328 0.691276 0.105793
0.374828 0.692397 0.106541
0.402328 0.693519 0.107288
0.429828 0.694640 0.108036
0.457328 0.695761 0.108783
0.484828 0.696883 0.109531
0.512328 0.698004 0.110278
0.539828 0.699125 0.111026
0.567328 0.700246 0.111773
0.594828 0.701368 0.112521
0.622328 0.702489 0.113268
0.649828 0.703610 0.114016
0.677328 0.704731 0.114764
0.704828 0.705852 0.115511
0.732328 0.706974 0.116258
0.759828 0.708095 0.117006
0.787328 0.709216 0.117753
0.814828 0.710338 0.118501
0.842328 0.711459 0.119248
0.869828 0.712580 0.119996
0.897328 0.713701 0.120744
0.923998 0.714112 0.121400
0.950504 0.714429 0.122043
0.976948 0.714744 0.122685
1.000000 0.715056 0.123325
1.000000 0.715366 0.123963
0.146430 0.713129 0.099229
0.176172 0.714250 0.100724
0.205914 0.715371 0.102219
0.235657 0.716492 0.103714
0.264828 0.717614 0.105019
0.292328 0.718735 0.105766
0.319828 0.719856 0.106513
0.347328 0.720978 0.107261
0.374828 0.722099 0.108008
0.402328 0.723220 0.108756
0.429828 0.724341 0.109503
0.457328 0.725463 0.110251
0.484828 0.726584 0.110998
0.512328 0.727705 0.111746
0.539828 0.728826 0.112493
0.567328 0.729947 0.113241
0.594828 0.731069 0.113988
0.622328 0.732190 0.114736
0.649828 0.733311 0.115483
0.677328 0.734433 0.116231
0.704828 0.735554 0.116979
0.732328 0.736675 0.117726
0.759828 0.737796 0.118473
0.787328 0.738918 0.119221
0.814828 0.740039 0.119968
0.842328 0.741160 0.120716
0.869085 0.741574 0.121376
0.895653 0.741860 0.122020
0.922160 0.742144 0.122661
0.948605 0.742426 0.123301
0.974989 0.742705 0.123940
1.000000 0.742982 0.124577
1.000000 0.743256 0.125537
0.150832 0.742830 0.102164
0.180574 0.743951 0.103659
0.209828 0.745073 0.104991
0.237328 0.746194 0.105738
0.264828 0.747315 0.106486
0.292328 0.748436 0.107233
0.319828 0.749557 0.107981
0.347328 0.750679 0.108728
0.374828 0.751800 0.109476
0.402328 0.752921 0.110223
0.429828 0.754043 0.110971
0.457328 0.755164 0.111718
0.484828 0.756285 0.112466
0.512328 0.757406 0.113213
0.539828 0.758528 0.113961
0.567328 0.759649 0.114709
0.594828 0.760770 0.115456
0.622328 0.761891 0.116203
0.649828 0.763012 0.116951
0.677328 0.764134 0.117698
0.704828 0.765255 0.118446
0.732328 0.766376 0.119194
0.759828 0.767498 0.119941
0.787328 0.768619 0.120688
0.814167 0.769038 0.121353
0.840798 0.769294 0.121996
0.867368 0.769547 0.122638
0.893876 0.769798 0.123278
0.920322 0.770047 0.123916
0.946707 0.770292 0.124553
0.973970 0.770536 0.125501
1.000000 0.770776 0.126471
1.000000 0.771015 0.127438
0.154828 0.772531 0.104963
0.182328 0.773653 0.105711
0.209828 0.774774 0.106458
0.237328 0.775895 0.107206
0.264828 0.777016 0.107953
0.292328 0.778138 0.108701
0.319828 0.779259 0.109448
0.347328 0.780380 0.110196
0.374828 0.781501 0.110943
0.402328 0.782622 0.111691
0.429828 0.783744 0.112438
0.457328 0.784865 0.113186
0.484828 0.785986 0.113933
0.512328 0.787108 0.114681
0.539828 0.788229 0.115428
0.567328 0.789350 0.116176
0.594828 0.790471 0.116924
0.622328 0.791593 0.117671
0.649828 0.792714 0.118418
0.677328 0.793835 0.119166
0.704828 0.794956 0.119913
0.732328 0.796077 0.120661
0.759245 0.796505 0.121329
0.785939 0.796730 0.121972
0.812571 0.796952 0.122614
0.839142 0.797173 0.123254
0.865651 0.797390 0.123893
0.892099 0.797605 0.124530
0.919387 0.797818 0.125466
0.946720 0.798028 0.126435
0.973989 0.798235 0.127403
1.000000 0.798440 0.128367
1.000000 0.798643 0.129329
0.154828 0.802233 0.106431
0.182328 0.803354 0.107178
0.209828 0.804475 0.107926
0.237328 0.805596 0.108674
0.264828 0.806717 0.109421
0.292328 0.807839 0.110168
0.319828 0.808960 0.110916
0.347328 0.810081 0.111663
0.374828 0.811203 0.112411
0.402328 0.812324 0.113158
0.429828 0.813445 0.113906
0.457328 0.814566 0.114653
0.484828 0.815688 0.115401
0.512328 0.816809 0.116148
0.539828 0.817930 0.116896
0.567328 0.819051 0.117643
0.594828 0.820172 0.118391
0.622328 0.821294 0.119138
0.649828 0.822415 0.119886
0.677328 0.823536 0.120633
0.704318 0.823973 0.121305
0.731075 0.824168 0.121949
0.757770 0.824360 0.122591
0.784404 0.824549 0.123231
0.810976 0.824736 0.123869
0.837486 0.824920 0.124506
0.864800 0.825102 0.125430
0.892196 0.825282 0.126400
0.919527 0.825458 0.127367
