assets/luts/bronze.cube
TITLE "bronze"
LUT_3D_SIZE 9
0.054000 0.021600 0.000000
0.167457 0.027057 0.000000
0.278686 0.030286 0.000000
0.389915 0.033515 0.000000
0.501144 0.036744 0.000000
0.612373 0.039973 0.000000
0.723603 0.043203 0.000000
0.834832 0.046432 0.000000
0.946061 0.049661 0.000000
0.062567 0.138167 0.000000
0.173796 0.141396 0.000000
0.285025 0.144625 0.000000
0.396255 0.147855 0.000000
0.507484 0.151084 0.000000
0.618713 0.154313 0.000000
0.729942 0.157542 0.000000
0.842360 0.161960 0.000000
0.958433 0.170033 0.000000
0.068907 0.252507 0.000000
0.180136 0.255736 0.000000
0.291365 0.258965 0.000000
0.402594 0.262194 0.000000
0.513823 0.265423 0.000000
0.626063 0.269663 0.000000
0.742136 0.277736 0.000000
0.858209 0.285809 0.000000
0.974282 0.293882 0.000000
0.075246 0.366846 0.000000
0.186475 0.370075 0.000000
0.297705 0.373305 0.000000
0.409766 0.377366 0.000000
0.525839 0.385439 0.000000
0.641912 0.393512 0.000000
0.757985 0.401585 0.000000
0.874058 0.409658 0.000000
0.990131 0.417731 0.007331
0.081586 0.481186 0.000000
0.193469 0.485069 0.000000
0.309542 0.493142 0.000000
0.425615 0.501215 0.000000
0.541688 0.509288 0.000000
0.657761 0.517361 0.000000
0.773834 0.525434 0.007034
0.889907 0.533507 0.015107
1.000000 0.541580 0.023180
0.093245 0.600845 0.000000
0.209318 0.608918 0.000000
0.325391 0.616991 0.000000
0.441464 0.625064 0.000000
0.557537 0.633137 0.006737
0.673610 0.641210 0.014810
0.789683 0.649283 0.022883
0.905756 0.657356 0.030956
1.000000 0.665359 0.039025
0.109094 0.724694 0.000000
0.225167 0.732767 0.000000
0.341240 0.740840 0.006440
0.457313 0.748913 0.014513
0.573386 0.756986 0.022586
0.689459 0.765059 0.030659
0.805532 0.773132 0.038732
0.915059 0.775656 0.046473
1.000000 0.777937 0.054089
0.124943 0.848543 0.006143
0.241016 0.856616 0.014216
0.357089 0.864689 0.022289
0.473162 0.872762 0.030362
0.589235 0.880835 0.038435
0.700486 0.882831 0.046190
0.809798 0.884332 0.053811
0.917423 0.885715 0.061315
1.000000 0.886981 0.068702
0.140792 0.972392 0.021992
0.256865 0.980465 0.030065
0.372938 0.988538 0.038138
0.485799 0.990065 0.045907
0.596713 0.990785 0.053533
0.705940 0.991388 0.061041
0.813481 0.991873 0.068432
0.919335 0.992242 0.075706
1.000000 0.992493 0.082862
0.057078 0.024678 0.046278
0.168688 0.028288 0.049888
0.279917 0.031517 0.053117
0.391146 0.034746 0.056346
0.502375 0.037975 0.059575
0.613605 0.041205 0.062805
0.724834 0.044434 0.066034
0.836063 0.047663 0.069263
0.947292 0.050892 0.072492
0.063798 0.139398 0.052998
0.175027 0.142627 0.056227
0.286257 0.145857 0.059457
0.397486 0.149086 0.062686
0.508715 0.152315 0.065915
0.619944 0.155544 0.069144
0.731173 0.158773 0.072373
0.845438 0.165038 0.078638
0.961511 0.173111 0.086711
0.070138 0.253738 0.059338
0.181367 0.256967 0.062567
0.292596 0.260196 0.065796
0.403825 0.263425 0.069025
0.515055 0.266655 0.072255
0.629141 0.272741 0.078341
0.745214 0.280814 0.086414
0.861287 0.288887 0.094487
0.977360 0.296960 0.102560
0.076477 0.368077 0.065677
0.187707 0.371307 0.068907
0.298936 0.374536 0.072136
0.412844 0.380444 0.078044
0.528917 0.388517 0.086117
0.644990 0.396590 0.094190
0.761063 0.404663 0.102263
0.877136 0.412736 0.110336
0.993209 0.420809 0.118409
0.082817 0.482417 0.072017
0.196547 0.488147 0.077747
0.312620 0.496220 0.085820
0.428693 0.504293 0.093893
0.544766 0.512366 0.101966
0.660839 0.520439 0.110039
0.776912 0.528512 0.118112
0.892985 0.536585 0.126185
1.000000 0.544658 0.134258
0.096323 0.603923 0.085523
0.212396 0.611996 0.093596
0.328469 0.620069 0.101669
0.444542 0.628142 0.109742
0.560615 0.636215 0.117815
0.676688 0.644288 0.125888
0.792761 0.652361 0.133961
0.908834 0.660434 0.142034
1.000000 0.666585 0.149675
0.112172 0.727772 0.101372
0.228245 0.735845 0.109445
0.344318 0.743918 0.117518
0.460391 0.751991 0.125591
0.576464 0.760064 0.133664
0.692537 0.768137 0.141737
0.806501 0.774186 0.149419
0.915553 0.776539 0.156324
1.000000 0.778776 0.163112
0.128021 0.851621 0.117221
0.244094 0.859694 0.125294
0.360167 0.867767 0.133367
0.476240 0.875840 0.141440
0.590927 0.881844 0.149163
0.701581 0.883417 0.156072
0.810549 0.884873 0.162864
0.917830 0.886212 0.169539
1.000000 0.887433 0.176096
0.143870 0.975470 0.133070
0.259943 0.983543 0.141143
0.375236 0.989560 0.148907
0.487493 0.990353 0.155820
0.598064 0.991028 0.162616
0.706947 0.991587 0.169295
0.814144 0.992028 0.175857
0.919654 0.992351 0.182301
1.000000 0.992557 0.188628
0.058690 0.026290 0.155890
0.169919 0.029519 0.159119
0.281148 0.032748 0.162348
0.392377 0.035977 0.165577
0.503607 0.039207 0.168807
0.614836 0.042436 0.172036
0.726065 0.045665 0.175265
0.837294 0.048894 0.178494
0.948740 0.052340 0.181940
0.065029 0.140629 0.162229
0.176259 0.143859 0.165459
0.287488 0.147088 0.168688
0.398717 0.150317 0.171917
0.509946 0.153546 0.175146
0.621175 0.156775 0.178375
0.732443 0.160043 0.181643
0.848516 0.168116 0.189716
0.964589 0.176189 0.197789
0.071369 0.254969 0.168569
0.182598 0.258198 0.171798
0.293827 0.261427 0.175027
0.405057 0.264657 0.178257
0.516286 0.267886 0.181486
0.632219 0.275819 0.189419
0.748292 0.283892 0.197492
0.864365 0.291965 0.205565
0.980438 0.300038 0.213638
0.077709 0.369309 0.174909
0.188938 0.372538 0.178138
0.300167 0.375767 0.181367
0.415922 0.383522 0.189122
0.531995 0.391595 0.197195
0.648068 0.399668 0.205268
0.764141 0.407741 0.213341
0.880214 0.415814 0.221414
0.996287 0.423887 0.229487
0.084048 0.483648 0.181248
0.199625 0.491225 0.188825
0.315698 0.499298 0.196898
0.431771 0.507371 0.204971
0.547844 0.515444 0.213044
0.663917 0.523517 0.221117
0.779990 0.531590 0.229190
0.896063 0.539663 0.237263
1.000000 0.547736 0.245336
0.099401 0.607001 0.196601
0.215474 0.615074 0.204674
0.331547 0.623147 0.212747
0.447620 0.631220 0.220820
0.563693 0.639293 0.228893
0.679766 0.647366 0.236966
0.795839 0.655439 0.245039
0.911912 0.663512 0.253112
1.000000 0.667794 0.259711
0.115250 0.730850 0.212450
0.231323 0.738923 0.220523
0.347396 0.746996 0.228596
0.463469 0.755069 0.236669
0.579542 0.763142 0.244742
0.695615 0.771215 0.252815
0.807323 0.775097 0.259485
0.916031 0.777406 0.265560
1.000000 0.779597 0.271518
0.131099 0.854699 0.228299
0.247172 0.862772 0.236372
0.363245 0.870845 0.244445
0.479318 0.878918 0.252518
0.592348 0.882458 0.259259
0.702659 0.883986 0.265339
0.811282 0.885397 0.271301
0.918219 0.886691 0.277146
1.000000 0.887868 0.282874
0.146948 0.978548 0.244148
0.263021 0.986621 0.252221
0.377258 0.989876 0.259033
0.489171 0.990624 0.265117
0.599397 0.991255 0.271084
0.707937 0.991769 0.276933
0.814790 0.992165 0.282666
0.919956 0.992444 0.288280
1.000000 0.992605 0.293778
0.059921 0.027521 0.265121
0.171150 0.030750 0.268350
0.282379 0.033979 0.271579
0.393609 0.037209 0.274809
0.504838 0.040438 0.278038
0.616067 0.043667 0.281267
0.727296 0.046896 0.284496
0.838525 0.050125 0.287725
0.951818 0.055418 0.293018
0.066261 0.141861 0.271461
0.177490 0.145090 0.274690
0.288719 0.148319 0.277919
0.399948 0.151548 0.281148
0.511177 0.154777 0.284377
0.622407 0.158007 0.287607
0.735521 0.163121 0.292721
0.851594 0.171194 0.300794
0.967667 0.179267 0.308867
0.072600 0.256200 0.277800
0.183829 0.259429 0.281029
0.295059 0.262659 0.284259
0.406288 0.265888 0.287488
0.519224 0.270824 0.292424
0.635297 0.278897 0.300497
0.751370 0.286970 0.308570
0.867443 0.295043 0.316643
0.983516 0.303116 0.324716
0.078940 0.370540 0.284140
0.190169 0.373769 0.287369
0.302927 0.378527 0.292127
0.419000 0.386600 0.300200
0.535073 0.394673 0.308273
0.651146 0.402746 0.316346
0.767219 0.410819 0.324419
0.883292 0.418892 0.332492
0.999365 0.426965 0.340565
0.086630 0.486230 0.291830
0.202703 0.494303 0.299903
0.318776 0.502376 0.307976
0.434849 0.510449 0.316049
0.550922 0.518522 0.324122
0.666995 0.526595 0.332195
0.783068 0.534668 0.340268
0.899141 0.542741 0.348341
1.000000 0.550814 0.356414
0.102479 0.610079 0.307679
0.218552 0.618152 0.315752
0.334625 0.626225 0.323825
0.450698 0.634298 0.331898
0.566771 0.642371 0.339971
0.682844 0.650444 0.348044
0.798917 0.658517 0.356117
0.913938 0.665824 0.363771
1.000000 0.668985 0.369130
0.118328 0.733928 0.323528
0.234401 0.742001 0.331601
0.350474 0.750074 0.339674
0.466547 0.758147 0.347747
0.582620 0.766220 0.355820
0.698076 0.773610 0.363572
0.808127 0.775991 0.368935
0.916491 0.778255 0.374181
1.000000 0.780402 0.379310
0.134177 0.857777 0.339377
0.250250 0.865850 0.347450
0.366323 0.873923 0.355523
0.482099 0.881453 0.363372
0.593753 0.883054 0.368740
0.703719 0.884538 0.373990
0.811999 0.885905 0.379123
0.918592 0.887154 0.384139
1.000000 0.888286 0.389037
0.150026 0.981626 0.355226
0.266006 0.989355 0.363173
0.379262 0.990175 0.368545
0.490831 0.990879 0.373799
0.600714 0.991465 0.378936
0.708910 0.991933 0.383956
0.815419 0.992285 0.388859
0.920241 0.992519 0.393644
1.000000 0.992636 0.398312
0.061152 0.028752 0.374352
0.172381 0.031981 0.377581
0.283611 0.035211 0.380811
0.394840 0.038440 0.384040
0.506069 0.041669 0.387269
0.617298 0.044898 0.390498
0.728527 0.048127 0.393727
0.839757 0.051357 0.396957
0.954896 0.058496 0.404096
0.067492 0.143092 0.380692
0.178721 0.146321 0.383921
0.289950 0.149550 0.387150
0.401179 0.152779 0.390379
0.512409 0.156009 0.393609
0.623638 0.159238 0.396838
0.738599 0.166199 0.403799
0.854672 0.174272 0.411872
0.970745 0.182345 0.419945
0.073831 0.257431 0.387031
0.185061 0.260661 0.390261
0.296290 0.263890 0.393490
0.407519 0.267119 0.396719
0.522302 0.273902 0.403502
0.638375 0.281975 0.411575
0.754448 0.290048 0.419648
0.870521 0.298121 0.427721
0.986594 0.306194 0.435794
0.080171 0.371771 0.393371
0.191400 0.375000 0.396600
0.306005 0.381605 0.403205
0.422078 0.389678 0.411278
0.538151 0.397751 0.419351
0.654224 0.405824 0.427424
0.770297 0.413897 0.435497
0.886370 0.421970 0.443570
1.000000 0.430043 0.451643
0.089708 0.489308 0.402908
0.205781 0.497381 0.410981
0.321854 0.505454 0.419054
0.437927 0.513527 0.427127
0.554000 0.521600 0.435200
0.670073 0.529673 0.443273
0.786146 0.537746 0.451346
0.902219 0.545819 0.459419
1.000000 0.553892 0.467492
0.105557 0.613157 0.418757
0.221630 0.621230 0.426830
0.337703 0.629303 0.434903
0.453776 0.637376 0.442976
0.569849 0.645449 0.451049
0.685922 0.653522 0.459122
0.801995 0.661595 0.467195
0.914469 0.667043 0.473405
1.000000 0.670160 0.477934
0.121406 0.737006 0.434606
0.237479 0.745079 0.442679
0.353552 0.753152 0.450752
0.469625 0.761225 0.458825
0.585698 0.769298 0.466898
0.699208 0.774531 0.473236
0.808914 0.776868 0.477770
0.916935 0.779088 0.482186
1.000000 0.781190 0.486486
0.137255 0.860855 0.450455
0.253328 0.868928 0.458528
0.369401 0.877001 0.466601
0.483830 0.882078 0.473067
0.595140 0.883634 0.477605
0.704763 0.885073 0.482026
0.812698 0.886395 0.486330
0.918948 0.887599 0.490516
1.000000 0.888686 0.494585
0.153104 0.984704 0.466304
0.268338 0.989681 0.472898
0.381250 0.990457 0.477440
0.492475 0.991116 0.481865
0.602013 0.991657 0.486173
0.709865 0.992081 0.490364
0.816030 0.992388 0.494437
0.920509 0.992577 0.498393
1.000000 0.992649 0.502232
0.062383 0.029983 0.483583
0.173613 0.033213 0.486813
0.284842 0.036442 0.490042
0.396071 0.039671 0.493271
0.507300 0.042900 0.496500
0.618529 0.046129 0.499729
0.729759 0.049359 0.502959
0.841901 0.053501 0.507101
0.957974 0.061574 0.515174
0.068723 0.144323 0.489923
0.179952 0.147552 0.493152
0.291181 0.150781 0.496381
0.402411 0.154011 0.499611
0.513640 0.157240 0.502840
0.625604 0.161204 0.506804
0.741677 0.169277 0.514877
0.857750 0.177350 0.522950
0.973823 0.185423 0.531023
0.075063 0.258663 0.496263
0.186292 0.261892 0.499492
0.297521 0.265121 0.502721
0.409307 0.268907 0.506507
0.525380 0.276980 0.514580
0.641453 0.285053 0.522653
0.757526 0.293126 0.530726
0.873599 0.301199 0.538799
0.989672 0.309272 0.546872
0.081402 0.373002 0.502602
0.193010 0.376610 0.506210
0.309083 0.384683 0.514283
0.425156 0.392756 0.522356
0.541229 0.400829 0.530429
0.657302 0.408902 0.538502
0.773375 0.416975 0.546575
0.889448 0.425048 0.554648
1.000000 0.433121 0.562721
0.092786 0.492386 0.513986
0.208859 0.500459 0.522059
0.324932 0.508532 0.530132
0.441005 0.516605 0.538205
0.557078 0.524678 0.546278
0.673151 0.532751 0.554351
0.789224 0.540824 0.562424
0.905297 0.548897 0.570497
1.000000 0.556970 0.578570
0.108635 0.616235 0.529835
0.224708 0.624308 0.537908
0.340781 0.632381 0.545981
0.456854 0.640454 0.554054
0.572927 0.648527 0.562127
0.689000 0.656600 0.570200
0.805073 0.664673 0.578273
0.914983 0.668245 0.582423
1.000000 0.671318 0.586123
0.124484 0.740084 0.545684
0.240557 0.748157 0.553757
0.356630 0.756230 0.561830
0.472703 0.764303 0.569903
0.588776 0.772376 0.577976
0.700322 0.775436 0.582285
0.809685 0.777728 0.585989
0.917361 0.779903 0.589576
1.000000 0.781960 0.593046
0.140333 0.863933 0.561533
0.256406 0.872006 0.569606
0.372479 0.880079 0.577679
0.485545 0.882685 0.582146
0.596510 0.884196 0.585855
0.705789 0.885591 0.589447
0.813381 0.886868 0.592921
0.919286 0.888027 0.596277
1.000000 0.889070 0.599517
0.156182 0.987782 0.577382
0.270652 0.989991 0.582008
0.383220 0.990722 0.585721
0.494101 0.991336 0.589316
0.603296 0.991833 0.592795
0.710804 0.992212 0.596156
0.816625 0.992474 0.599400
0.920760 0.992619 0.602526
1.000000 0.992646 0.605536
0.063615 0.031215 0.592815
0.174844 0.034444 0.596044
0.286073 0.037673 0.599273
0.397302 0.040902 0.602502
0.508531 0.044131 0.605731
0.619761 0.047361 0.608961
0.730990 0.050590 0.612190
0.844979 0.056579 0.618179
0.961052 0.064652 0.626252
0.069954 0.145554 0.599154
0.181183 0.148783 0.602383
0.292413 0.152013 0.605613
0.403642 0.155242 0.608842
0.514871 0.158471 0.612071
0.628682 0.164282 0.617882
0.744755 0.172355 0.625955
0.860828 0.180428 0.634028
0.976901 0.188501 0.642101
0.076294 0.259894 0.605494
0.187523 0.263123 0.608723
0.298752 0.266352 0.611952
0.412385 0.271985 0.617585
0.528458 0.280058 0.625658
0.644531 0.288131 0.633731
0.760604 0.296204 0.641804
0.876677 0.304277 0.649877
0.992750 0.312350 0.657950
0.082633 0.374233 0.611833
0.196088 0.379688 0.617288
0.312161 0.387761 0.625361
0.428234 0.395834 0.633434
0.544307 0.403907 0.641507
0.660380 0.411980 0.649580
0.776453 0.420053 0.657653
0.892526 0.428126 0.665726
1.000000 0.436199 0.673799
0.095864 0.495464 0.625064
0.211937 0.503537 0.633137
0.328010 0.511610 0.641210
0.444083 0.519683 0.649283
0.560156 0.527756 0.657356
0.676229 0.535829 0.665429
0.792302 0.543902 0.673502
0.908375 0.551975 0.681575
1.000000 0.558669 0.687950
0.111713 0.619313 0.640913
0.227786 0.627386 0.648986
0.343859 0.635459 0.657059
0.459932 0.643532 0.665132
0.576005 0.651605 0.673205
0.692078 0.659678 0.681278
0.806377 0.666285 0.687838
0.915480 0.669430 0.690826
1.000000 0.672458 0.693697
0.127562 0.743162 0.656762
0.243635 0.751235 0.664835
0.359708 0.759308 0.672908
0.475781 0.767381 0.680981
0.590713 0.773959 0.687726
0.701419 0.776324 0.690718
0.810438 0.778571 0.693593
0.917770 0.780701 0.696351
1.000000 0.782714 0.698991
0.143411 0.867011 0.672611
0.259484 0.875084 0.680684
0.374934 0.881691 0.687614
0.487242 0.883275 0.690610
0.597863 0.884742 0.693490
0.706798 0.886091 0.696252
0.814046 0.887324 0.698896
0.919608 0.888439 0.701424
1.000000 0.889436 0.703834
0.159038 0.989480 0.687501
0.272949 0.990284 0.690502
0.385173 0.990970 0.693386
0.495711 0.991539 0.696152
0.604561 0.991991 0.698801
0.711725 0.992326 0.701333
0.817203 0.992543 0.703747
0.920993 0.992643 0.706044
1.000000 0.992626 0.708224
0.064846 0.032446 0.702046
0.176075 0.035675 0.705275
0.287304 0.038904 0.708504
0.398533 0.042133 0.711733
0.509763 0.045363 0.714963
0.620992 0.048592 0.718192
0.732221 0.051821 0.721421
0.848057 0.059657 0.729257
0.964130 0.067730 0.737330
0.071185 0.146785 0.708385
0.182415 0.150015 0.711615
0.293644 0.153244 0.714844
0.404873 0.156473 0.718073
0.516102 0.159702 0.721302
0.631760 0.167360 0.728960
0.747833 0.175433 0.737033
0.863906 0.183506 0.745106
0.979979 0.191579 0.753179
0.077525 0.261125 0.714725
0.188754 0.264354 0.717954
0.299983 0.267583 0.721183
0.415463 0.275063 0.728663
0.531536 0.283136 0.736736
0.647609 0.291209 0.744809
0.763682 0.299282 0.752882
0.879755 0.307355 0.760955
0.995828 0.315428 0.769028
0.083865 0.375465 0.721065
0.199166 0.382766 0.728366
0.315239 0.390839 0.736439
0.431312 0.398912 0.744512
0.547385 0.406985 0.752585
0.663458 0.415058 0.760658
0.779531 0.423131 0.768731
0.895604 0.431204 0.776804
1.000000 0.439277 0.784877
0.098942 0.498542 0.736142
0.215015 0.506615 0.744215
0.331088 0.514688 0.752288
0.447161 0.522761 0.760361
0.563234 0.530834 0.768434
0.679307 0.538907 0.776507
0.795380 0.546980 0.784580
0.911453 0.555053 0.792653
1.000000 0.560180 0.796536
0.114791 0.622391 0.751991
0.230864 0.630464 0.760064
0.346937 0.638537 0.768137
0.463010 0.646610 0.776210
0.579083 0.654683 0.784283
0.695156 0.662756 0.792356
0.807201 0.667498 0.796455
0.915961 0.670599 0.798614
1.000000 0.673582 0.800655
0.130640 0.746240 0.767840
0.246713 0.754313 0.775913
0.362786 0.762386 0.783986
0.478859 0.770459 0.792059
0.592137 0.774875 0.796373
0.702499 0.777195 0.798536
0.811174 0.779397 0.800582
0.918162 0.781482 0.802510
1.000000 0.783450 0.804321
0.146489 0.870089 0.783689
0.262562 0.878162 0.791762
0.376958 0.882309 0.796291
0.488922 0.883848 0.798459
0.599200 0.885270 0.800509
0.707790 0.886575 0.802441
0.814695 0.887763 0.804256
0.919912 0.888833 0.805954
1.000000 0.889786 0.807535
0.161662 0.989800 0.796209
0.275229 0.990559 0.798381
0.387109 0.991201 0.800435
0.497303 0.991726 0.802372
0.605810 0.992133 0.804192
0.712630 0.992422 0.805894
0.817763 0.992595 0.807479
0.921210 0.992650 0.808947
1.000000 0.995011 0.812275
0.066077 0.033677 0.811277
0.177306 0.036906 0.814506
0.288535 0.040135 0.817735
0.399765 0.043365 0.820965
0.510994 0.046594 0.824194
0.622223 0.049823 0.827423
0.735062 0.054662 0.832262
0.851135 0.062735 0.840335
0.967208 0.070808 0.848408
0.072417 0.148017 0.817617
0.183646 0.151246 0.820846
0.294875 0.154475 0.824075
0.406104 0.157704 0.827304
0.518765 0.162365 0.831965
0.634838 0.170438 0.840038
0.750911 0.178511 0.848111
0.866984 0.186584 0.856184
0.983057 0.194657 0.864257
0.078756 0.262356 0.823956
0.189985 0.265585 0.827185
0.302468 0.270068 0.831668
0.418541 0.278141 0.839741
0.534614 0.286214 0.847814
0.650687 0.294287 0.855887
0.766760 0.302360 0.863960
0.882833 0.310433 0.872033
0.998906 0.318506 0.880106
0.086171 0.377771 0.831371
0.202244 0.385844 0.839444
0.318317 0.393917 0.847517
0.434390 0.401990 0.855590
0.550463 0.410063 0.863663
0.666536 0.418136 0.871736
0.782609 0.426209 0.879809
0.898682 0.434282 0.887882
1.000000 0.442355 0.895955
0.102020 0.501620 0.847220
0.218093 0.509693 0.855293
0.334166 0.517766 0.863366
0.450239 0.525839 0.871439
0.566312 0.533912 0.879512
0.682385 0.541985 0.887585
0.798458 0.550058 0.895658
0.913857 0.557720 0.903065
1.000000 0.561673 0.904507
0.117869 0.625469 0.863069
0.233942 0.633542 0.871142
0.350015 0.641615 0.879215
0.466088 0.649688 0.887288
0.582161 0.657761 0.895361
0.697906 0.665521 0.903010
0.808008 0.668694 0.904456
0.916424 0.671750 0.905786
1.000000 0.674688 0.906997
0.133718 0.749318 0.878918
0.249791 0.757391 0.886991
0.365864 0.765464 0.895064
0.481840 0.773381 0.902954
0.593544 0.775773 0.904405
0.703562 0.778048 0.905739
0.811893 0.780206 0.906955
0.918538 0.782246 0.908054
1.000000 0.784170 0.909035
0.149567 0.873167 0.894767
0.265640 0.881240 0.902840
0.378964 0.882909 0.904354
0.490585 0.884404 0.905692
0.600519 0.885782 0.906912
0.708766 0.887042 0.908015
0.815326 0.888185 0.909001
0.920200 0.889210 0.909870
1.000000 0.890118 0.910621
0.164269 0.990103 0.904302
0.277492 0.990818 0.905645
0.389028 0.991415 0.906869
0.498878 0.991895 0.907977
0.607041 0.992257 0.908967
0.713517 0.992502 0.909840
0.818307 0.992630 0.910595
0.921410 0.992640 0.911234
1.000000 0.997904 0.916688
