assets/luts/bronze.cube
TITLE "bronze"
LUT_3D_SIZE 5
0.054000 0.021600 0.000000
0.278686 0.030286 0.000000
0.501144 0.036744 0.000000
0.723603 0.043203 0.000000
0.946061 0.049661 0.000000
0.068907 0.252507 0.000000
0.291365 0.258965 0.000000
0.513823 0.265423 0.000000
0.742136 0.277736 0.000000
0.974282 0.293882 0.000000
0.081586 0.481186 0.000000
0.309542 0.493142 0.000000
0.541688 0.509288 0.000000
0.773834 0.525434 0.007034
1.000000 0.541580 0.023180
0.109094 0.724694 0.000000
0.341240 0.740840 0.006440
0.573386 0.756986 0.022586
0.805532 0.773132 0.038732
1.000000 0.777937 0.054089
0.140792 0.972392 0.021992
0.372938 0.988538 0.038138
0.596713 0.990785 0.053533
0.813481 0.991873 0.068432
1.000000 0.992493 0.082862
0.058690 0.026290 0.155890
0.281148 0.032748 0.162348
0.503607 0.039207 0.168807
0.726065 0.045665 0.175265
0.948740 0.052340 0.181940
0.071369 0.254969 0.168569
0.293827 0.261427 0.175027
0.516286 0.267886 0.181486
0.748292 0.283892 0.197492
0.980438 0.300038 0.213638
0.084048 0.483648 0.181248
0.315698 0.499298 0.196898
0.547844 0.515444 0.213044
0.779990 0.531590 0.229190
1.000000 0.547736 0.245336
0.115250 0.730850 0.212450
0.347396 0.746996 0.228596
0.579542 0.763142 0.244742
0.807323 0.775097 0.259485
1.000000 0.779597 0.271518
0.146948 0.978548 0.244148
0.377258 0.989876 0.259033
0.599397 0.991255 0.271084
0.814790 0.992165 0.282666
1.000000 0.992605 0.293778
0.061152 0.028752 0.374352
0.283611 0.035211 0.380811
0.506069 0.041669 0.387269
0.728527 0.048127 0.393727
0.954896 0.058496 0.404096
0.073831 0.257431 0.387031
0.296290 0.263890 0.393490
0.522302 0.273902 0.403502
0.754448 0.290048 0.419648
0.986594 0.306194 0.435794
0.089708 0.489308 0.402908
0.321854 0.505454 0.419054
0.554000 0.521600 0.435200
0.786146 0.537746 0.451346
1.000000 0.553892 0.467492
0.121406 0.737006 0.434606
0.353552 0.753152 0.450752
0.585698 0.769298 0.466898
0.808914 0.776868 0.477770
1.000000 0.781190 0.486486
0.153104 0.984704 0.466304
0.381250 0.990457 0.477440
0.602013 0.991657 0.486173
0.816030 0.992388 0.494437
1.000000 0.992649 0.502232
0.063615 0.031215 0.592815
0.286073 0.037673 0.599273
0.508531 0.044131 0.605731
0.730990 0.050590 0.612190
0.961052 0.064652 0.626252
0.076294 0.259894 0.605494
0.298752 0.266352 0.611952
0.528458 0.280058 0.625658
0.760604 0.296204 0.641804
0.992750 0.312350 0.657950
0.095864 0.495464 0.625064
0.328010 0.511610 0.641210
0.560156 0.527756 0.657356
0.792302 0.543902 0.673502
1.000000 0.558669 0.687950
0.127562 0.743162 0.656762
0.359708 0.759308 0.672908
0.590713 0.773959 0.687726
0.810438 0.778571 0.693593
1.000000 0.782714 0.698991
0.159038 0.989480 0.687501
0.385173 0.990970 0.693386
0.604561 0.991991 0.698801
0.817203 0.992543 0.703747
1.000000 0.992626 0.708224
0.066077 0.033677 0.811277
0.288535 0.040135 0.817735
0.510994 0.046594 0.824194
0.735062 0.054662 0.832262
0.967208 0.070808 0.848408
0.078756 0.262356 0.823956
0.302468 0.270068 0.831668
0.534614 0.286214 0.847814
0.766760 0.302360 0.863960
0.998906 0.318506 0.880106
0.102020 0.501620 0.847220
0.334166 0.517766 0.863366
0.566312 0.533912 0.879512
0.798458 0.550058 0.895658
1.000000 0.561673 0.904507
0.133718 0.749318 0.878918
0.365864 0.765464 0.895064
0.593544 0.775773 0.904405
0.811893 0.780206 0.906955
1.000000 0.784170 0.909035
0.164269 0.990103 0.904302
0.389028 0.991415 0.906869
0.607041 0.992257 0.908967
0.818307 0.992630 0.910595
1.000000 0.997904 0.916688
