assets/luts/bronze.cube
TITLE "bronze"
LUT_3D_SIZE 33
0.054000 0.021600 0.000000
0.083018 0.023618 0.000000
0.111842 0.025442 0.000000
0.139649 0.026249 0.000000
0.167457 0.027057 0.000000
0.195264 0.027864 0.000000
0.223071 0.028671 0.000000
0.250879 0.029479 0.000000
0.278686 0.030286 0.000000
0.306493 0.031093 0.000000
0.334300 0.031900 0.000000
0.362108 0.032708 0.000000
0.389915 0.033515 0.000000
0.417722 0.034322 0.000000
0.445530 0.035130 0.000000
0.473337 0.035937 0.000000
0.501144 0.036744 0.000000
0.528952 0.037552 0.000000
0.556759 0.038359 0.000000
0.584566 0.039166 0.000000
0.612373 0.039973 0.000000
0.640181 0.040781 0.000000
0.667988 0.041588 0.000000
0.695795 0.042395 0.000000
0.723603 0.043203 0.000000
0.751410 0.044010 0.000000
0.779217 0.044817 0.000000
0.807025 0.045625 0.000000
0.834832 0.046432 0.000000
0.862639 0.047239 0.000000
0.890446 0.048046 0.000000
0.918254 0.048854 0.000000
0.946061 0.049661 0.000000
0.057812 0.052412 0.000000
0.085620 0.053220 0.000000
0.113427 0.054027 0.000000
0.141234 0.054834 0.000000
0.169042 0.055642 0.000000
0.196849 0.056449 0.000000
0.224656 0.057256 0.000000
0.252463 0.058063 0.000000
0.280271 0.058871 0.000000
0.308078 0.059678 0.000000
0.335885 0.060485 0.000000
0.363693 0.061293 0.000000
0.391500 0.062100 0.000000
0.419307 0.062907 0.000000
0.447115 0.063715 0.000000
0.474922 0.064522 0.000000
0.502729 0.065329 0.000000
0.530536 0.066136 0.000000
0.558344 0.066944 0.000000
0.586151 0.067751 0.000000
0.613958 0.068558 0.000000
0.641766 0.069366 0.000000
0.669573 0.070173 0.000000
0.697380 0.070980 0.000000
0.725188 0.071788 0.000000
0.752995 0.072595 0.000000
0.780802 0.073402 0.000000
0.808609 0.074209 0.000000
0.836417 0.075017 0.000000
0.864224 0.075824 0.000000
0.892031 0.076631 0.000000
0.919839 0.077439 0.000000
0.947646 0.078246 0.000000
0.059397 0.080997 0.000000
0.087205 0.081805 0.000000
0.115012 0.082612 0.000000
0.142819 0.083419 0.000000
0.170626 0.084226 0.000000
0.198434 0.085034 0.000000
0.226241 0.085841 0.000000
0.254048 0.086648 0.000000
0.281856 0.087456 0.000000
0.309663 0.088263 0.000000
0.337470 0.089070 0.000000
0.365278 0.089878 0.000000
0.393085 0.090685 0.000000
0.420892 0.091492 0.000000
0.448699 0.092299 0.000000
0.476507 0.093107 0.000000
0.504314 0.093914 0.000000
0.532121 0.094721 0.000000
0.559929 0.095529 0.000000
0.587736 0.096336 0.000000
0.615543 0.097143 0.000000
0.643351 0.097951 0.000000
0.671158 0.098758 0.000000
0.698965 0.099565 0.000000
0.726772 0.100372 0.000000
0.754580 0.101180 0.000000
0.782387 0.101987 0.000000
0.810194 0.102794 0.000000
0.838002 0.103602 0.000000
0.865809 0.104409 0.000000
0.893616 0.105216 0.000000
0.921490 0.106090 0.000000
0.950509 0.108108 0.000000
0.060982 0.109582 0.000000
0.088789 0.110389 0.000000
0.116597 0.111197 0.000000
0.144404 0.112004 0.000000
0.172211 0.112811 0.000000
0.200019 0.113619 0.000000
0.227826 0.114426 0.000000
0.255633 0.115233 0.000000
0.283441 0.116041 0.000000
0.311248 0.116848 0.000000
0.339055 0.117655 0.000000
0.366862 0.118462 0.000000
0.394670 0.119270 0.000000
0.422477 0.120077 0.000000
0.450284 0.120884 0.000000
0.478092 0.121692 0.000000
0.505899 0.122499 0.000000
0.533706 0.123306 0.000000
0.561514 0.124114 0.000000
0.589321 0.124921 0.000000
0.617128 0.125728 0.000000
0.644935 0.126535 0.000000
0.672743 0.127343 0.000000
0.700550 0.128150 0.000000
0.728357 0.128957 0.000000
0.756165 0.129765 0.000000
0.783972 0.130572 0.000000
0.811779 0.131379 0.000000
0.839587 0.132187 0.000000
0.867416 0.133016 0.000000
0.896434 0.135034 0.000000
0.925453 0.137052 0.000000
0.954471 0.139071 0.000000
0.062567 0.138167 0.000000
0.090374 0.138974 0.000000
0.118182 0.139782 0.000000
0.145989 0.140589 0.000000
0.173796 0.141396 0.000000
0.201604 0.142204 0.000000
0.229411 0.143011 0.000000
0.257218 0.143818 0.000000
0.285025 0.144625 0.000000
0.312833 0.145433 0.000000
0.340640 0.146240 0.000000
0.368447 0.147047 0.000000
0.396255 0.147855 0.000000
0.424062 0.148662 0.000000
0.451869 0.149469 0.000000
0.479677 0.150277 0.000000
0.507484 0.151084 0.000000
0.535291 0.151891 0.000000
0.563098 0.152698 0.000000
0.590906 0.153506 0.000000
0.618713 0.154313 0.000000
0.646520 0.155120 0.000000
0.674328 0.155928 0.000000
0.702135 0.156735 0.000000
0.729942 0.157542 0.000000
0.757750 0.158350 0.000000
0.785557 0.159157 0.000000
0.813364 0.159964 0.000000
0.842360 0.161960 0.000000
0.871378 0.163978 0.000000
0.900397 0.165996 0.000000
0.929415 0.168015 0.000000
0.958433 0.170033 0.000000
0.064152 0.166752 0.000000
0.091959 0.167559 0.000000
0.119767 0.168367 0.000000
0.147574 0.169174 0.000000
0.175381 0.169981 0.000000
0.203188 0.170788 0.000000
0.230996 0.171596 0.000000
0.258803 0.172403 0.000000
0.286610 0.173210 0.000000
0.314418 0.174018 0.000000
0.342225 0.174825 0.000000
0.370032 0.175632 0.000000
0.397840 0.176440 0.000000
0.425647 0.177247 0.000000
0.453454 0.178054 0.000000
0.481261 0.178861 0.000000
0.509069 0.179669 0.000000
0.536876 0.180476 0.000000
0.564683 0.181283 0.000000
0.592491 0.182091 0.000000
0.620298 0.182898 0.000000
0.648105 0.183705 0.000000
0.675913 0.184513 0.000000
0.703720 0.185320 0.000000
0.731527 0.186127 0.000000
0.759334 0.186934 0.000000
0.788286 0.188886 0.000000
0.817304 0.190904 0.000000
0.846322 0.192922 0.000000
0.875341 0.194940 0.000000
0.904359 0.196959 0.000000
0.933377 0.198977 0.000000
0.962395 0.200995 0.000000
0.065737 0.195337 0.000000
0.093544 0.196144 0.000000
0.121351 0.196951 0.000000
0.149159 0.197759 0.000000
0.176966 0.198566 0.000000
0.204773 0.199373 0.000000
0.232581 0.200181 0.000000
0.260388 0.200988 0.000000
0.288195 0.201795 0.000000
0.316003 0.202603 0.000000
0.343810 0.203410 0.000000
0.371617 0.204217 0.000000
0.399424 0.205024 0.000000
0.427232 0.205832 0.000000
0.455039 0.206639 0.000000
0.482846 0.207446 0.000000
0.510654 0.208254 0.000000
0.538461 0.209061 0.000000
0.566268 0.209868 0.000000
0.594076 0.210676 0.000000
0.621883 0.211483 0.000000
0.649690 0.212290 0.000000
0.677497 0.213097 0.000000
0.705305 0.213905 0.000000
0.734212 0.215811 0.000000
0.763230 0.217830 0.000000
0.792248 0.219848 0.000000
0.821266 0.221866 0.000000
0.850285 0.223884 0.000000
0.879303 0.225903 0.000000
0.908321 0.227921 0.000000
0.937339 0.229939 0.000000
0.966358 0.231957 0.000000
0.067322 0.223922 0.000000
0.095129 0.224729 0.000000
0.122936 0.225536 0.000000
0.150744 0.226344 0.000000
0.178551 0.227151 0.000000
0.206358 0.227958 0.000000
0.234166 0.228766 0.000000
0.261973 0.229573 0.000000
0.289780 0.230380 0.000000
0.317587 0.231187 0.000000
0.345395 0.231995 0.000000
0.373202 0.232802 0.000000
0.401009 0.233609 0.000000
0.428817 0.234417 0.000000
0.456624 0.235224 0.000000
0.484431 0.236031 0.000000
0.512239 0.236839 0.000000
0.540046 0.237646 0.000000
0.567853 0.238453 0.000000
0.595660 0.239260 0.000000
0.623468 0.240068 0.000000
0.651275 0.240875 0.000000
0.680137 0.242737 0.000000
0.709156 0.244756 0.000000
0.738174 0.246774 0.000000
0.767192 0.248792 0.000000
0.796210 0.250810 0.000000
0.825229 0.252829 0.000000
0.854247 0.254847 0.000000
0.883265 0.256865 0.000000
0.912283 0.258883 0.000000
0.941302 0.260902 0.000000
0.970320 0.262920 0.000000
0.068907 0.252507 0.000000
0.096714 0.253314 0.000000
0.124521 0.254121 0.000000
0.152329 0.254929 0.000000
0.180136 0.255736 0.000000
0.207943 0.256543 0.000000
0.235750 0.257350 0.000000
0.263558 0.258158 0.000000
0.291365 0.258965 0.000000
0.319172 0.259772 0.000000
0.346980 0.260580 0.000000
0.374787 0.261387 0.000000
0.402594 0.262194 0.000000
0.430402 0.263002 0.000000
0.458209 0.263809 0.000000
0.486016 0.264616 0.000000
0.513823 0.265423 0.000000
0.541631 0.266231 0.000000
0.569438 0.267038 0.000000
0.597245 0.267845 0.000000
0.626063 0.269663 0.000000
0.655081 0.271681 0.000000
0.684100 0.273699 0.000000
0.713118 0.275718 0.000000
0.742136 0.277736 0.000000
0.771154 0.279754 0.000000
0.800173 0.281772 0.000000
0.829191 0.283791 0.000000
0.858209 0.285809 0.000000
0.887227 0.287827 0.000000
0.916246 0.289845 0.000000
0.945264 0.291864 0.000000
0.974282 0.293882 0.000000
0.070492 0.281092 0.000000
0.098299 0.281899 0.000000
0.126106 0.282706 0.000000
0.153913 0.283513 0.000000
0.181721 0.284321 0.000000
0.209528 0.285128 0.000000
0.237335 0.285935 0.000000
0.265143 0.286743 0.000000
0.292950 0.287550 0.000000
0.320757 0.288357 0.000000
0.348565 0.289165 0.000000
0.376372 0.289972 0.000000
0.404179 0.290779 0.000000
0.431986 0.291586 0.000000
0.459794 0.292394 0.000000
0.487601 0.293201 0.000000
0.515408 0.294008 0.000000
0.543216 0.294816 0.000000
0.571989 0.296589 0.000000
0.601007 0.298607 0.000000
0.630025 0.300625 0.000000
0.659044 0.302643 0.000000
0.688062 0.304662 0.000000
0.717080 0.306680 0.000000
0.746098 0.308698 0.000000
0.775117 0.310717 0.000000
0.804135 0.312735 0.000000
0.833153 0.314753 0.000000
0.862171 0.316771 0.000000
0.891190 0.318790 0.000000
0.920208 0.320808 0.000000
0.949226 0.322826 0.000000
0.978244 0.324844 0.000000
0.072076 0.309676 0.000000
0.099884 0.310484 0.000000
0.127691 0.311291 0.000000
0.155498 0.312098 0.000000
0.183306 0.312906 0.000000
0.211113 0.313713 0.000000
0.238920 0.314520 0.000000
0.266728 0.315328 0.000000
0.294535 0.316135 0.000000
0.322342 0.316942 0.000000
0.350149 0.317749 0.000000
0.377957 0.318557 0.000000
0.405764 0.319364 0.000000
0.433571 0.320171 0.000000
0.461379 0.320979 0.000000
0.489186 0.321786 0.000000
0.517915 0.323515 0.000000
0.546933 0.325533 0.000000
0.575951 0.327551 0.000000
0.604969 0.329569 0.000000
0.633988 0.331587 0.000000
0.663006 0.333606 0.000000
0.692024 0.335624 0.000000
0.721042 0.337642 0.000000
0.750061 0.339661 0.000000
0.779079 0.341679 0.000000
0.808097 0.343697 0.000000
0.837115 0.345715 0.000000
0.866134 0.347734 0.000000
0.895152 0.349752 0.000000
0.924170 0.351770 0.000000
0.953188 0.353788 0.000000
0.982207 0.355806 0.000000
0.073661 0.338261 0.000000
0.101469 0.339069 0.000000
0.129276 0.339876 0.000000
0.157083 0.340683 0.000000
0.184891 0.341491 0.000000
0.212698 0.342298 0.000000
0.240505 0.343105 0.000000
0.268312 0.343912 0.000000
0.296120 0.344720 0.000000
0.323927 0.345527 0.000000
0.351734 0.346334 0.000000
0.379542 0.347142 0.000000
0.407349 0.347949 0.000000
0.435156 0.348756 0.000000
0.463840 0.350440 0.000000
0.492858 0.352459 0.000000
0.521877 0.354477 0.000000
0.550895 0.356495 0.000000
0.579913 0.358513 0.000000
0.608932 0.360532 0.000000
0.637950 0.362550 0.000000
0.666968 0.364568 0.000000
0.695986 0.366586 0.000000
0.725005 0.368605 0.000000
0.754023 0.370623 0.000000
0.783041 0.372641 0.000000
0.812059 0.374659 0.000000
0.841078 0.376677 0.000000
0.870096 0.378696 0.000000
0.899114 0.380714 0.000000
0.928132 0.382732 0.000000
0.957151 0.384750 0.001350
0.986169 0.386769 0.003369
0.075246 0.366846 0.000000
0.103054 0.367654 0.000000
0.130861 0.368461 0.000000
0.158668 0.369268 0.000000
0.186475 0.370075 0.000000
0.214283 0.370883 0.000000
0.242090 0.371690 0.000000
0.269897 0.372497 0.000000
0.297705 0.373305 0.000000
0.325512 0.374112 0.000000
0.353319 0.374919 0.000000
0.381127 0.375727 0.000000
0.409766 0.377366 0.000000
0.438784 0.379384 0.000000
0.467802 0.381403 0.000000
0.496821 0.383421 0.000000
0.525839 0.385439 0.000000
0.554857 0.387457 0.000000
0.583876 0.389476 0.000000
0.612894 0.391494 0.000000
0.641912 0.393512 0.000000
0.670930 0.395530 0.000000
0.699949 0.397549 0.000000
0.728967 0.399567 0.000000
0.757985 0.401585 0.000000
0.787003 0.403603 0.000000
0.816022 0.405621 0.000000
0.845040 0.407640 0.000000
0.874058 0.409658 0.000000
0.903076 0.411676 0.001276
0.932095 0.413694 0.003294
0.961113 0.415713 0.005313
0.990131 0.417731 0.007331
0.076831 0.395431 0.000000
0.104638 0.396238 0.000000
0.132446 0.397046 0.000000
0.160253 0.397853 0.000000
0.188060 0.398660 0.000000
0.215868 0.399468 0.000000
0.243675 0.400275 0.000000
0.271482 0.401082 0.000000
0.299290 0.401890 0.000000
0.327097 0.402697 0.000000
0.355692 0.404292 0.000000
0.384710 0.406310 0.000000
0.413728 0.408328 0.000000
0.442746 0.410347 0.000000
0.471765 0.412365 0.000000
0.500783 0.414383 0.000000
0.529801 0.416401 0.000000
0.558820 0.418419 0.000000
0.587838 0.420438 0.000000
0.616856 0.422456 0.000000
0.645874 0.424474 0.000000
0.674893 0.426493 0.000000
0.703911 0.428511 0.000000
0.732929 0.430529 0.000000
0.761947 0.432547 0.000000
0.790966 0.434565 0.000000
0.819984 0.436584 0.000000
0.849002 0.438602 0.001202
0.878020 0.440620 0.003220
0.907039 0.442638 0.005238
0.936057 0.444657 0.007257
0.965075 0.446675 0.009275
0.994093 0.448693 0.011293
0.078416 0.424016 0.000000
0.106223 0.424823 0.000000
0.134031 0.425631 0.000000
0.161838 0.426438 0.000000
0.189645 0.427245 0.000000
0.217453 0.428053 0.000000
0.245260 0.428860 0.000000
0.273067 0.429667 0.000000
0.301617 0.431217 0.000000
0.330636 0.433236 0.000000
0.359654 0.435254 0.000000
0.388672 0.437272 0.000000
0.417690 0.439291 0.000000
0.446709 0.441309 0.000000
0.475727 0.443327 0.000000
0.504745 0.445345 0.000000
0.533763 0.447364 0.000000
0.562782 0.449382 0.000000
0.591800 0.451400 0.000000
0.620818 0.453418 0.000000
0.649837 0.455437 0.000000
0.678855 0.457455 0.000000
0.707873 0.459473 0.000000
0.736891 0.461491 0.000000
0.765910 0.463510 0.000000
0.794928 0.465528 0.001128
0.823946 0.467546 0.003146
0.852964 0.469564 0.005164
0.881983 0.471583 0.007182
0.911001 0.473601 0.009201
0.940019 0.475619 0.011219
0.969037 0.477637 0.013237
0.998056 0.479656 0.015255
0.080001 0.452601 0.000000
0.107808 0.453408 0.000000
0.135616 0.454216 0.000000
0.163423 0.455023 0.000000
0.191230 0.455830 0.000000
0.219037 0.456637 0.000000
0.247543 0.458143 0.000000
0.276562 0.460162 0.000000
0.305580 0.462180 0.000000
0.334598 0.464198 0.000000
0.363616 0.466216 0.000000
0.392634 0.468235 0.000000
0.421653 0.470253 0.000000
0.450671 0.472271 0.000000
0.479689 0.474289 0.000000
0.508707 0.476307 0.000000
0.537726 0.478326 0.000000
0.566744 0.480344 0.000000
0.595762 0.482362 0.000000
0.624781 0.484380 0.000000
0.653799 0.486399 0.000000
0.682817 0.488417 0.000000
0.711835 0.490435 0.000000
0.740854 0.492454 0.001053
0.769872 0.494472 0.003072
0.798890 0.496490 0.005090
0.827908 0.498508 0.007108
0.856927 0.500526 0.009126
0.885945 0.502545 0.011145
0.914963 0.504563 0.013163
0.943981 0.506581 0.015181
0.973000 0.508599 0.017199
1.000000 0.510618 0.019218
0.081586 0.481186 0.000000
0.109393 0.481993 0.000000
0.137200 0.482800 0.000000
0.165008 0.483608 0.000000
0.193469 0.485069 0.000000
0.222487 0.487087 0.000000
0.251505 0.489106 0.000000
0.280524 0.491124 0.000000
0.309542 0.493142 0.000000
0.338560 0.495160 0.000000
0.367578 0.497179 0.000000
0.396597 0.499197 0.000000
0.425615 0.501215 0.000000
0.454633 0.503233 0.000000
0.483651 0.505251 0.000000
0.512670 0.507270 0.000000
0.541688 0.509288 0.000000
0.570706 0.511306 0.000000
0.599725 0.513324 0.000000
0.628743 0.515343 0.000000
0.657761 0.517361 0.000000
0.686779 0.519379 0.000979
0.715798 0.521397 0.002997
0.744816 0.523416 0.005016
0.773834 0.525434 0.007034
0.802852 0.527452 0.009052
0.831871 0.529471 0.011070
0.860889 0.531489 0.013089
0.889907 0.533507 0.015107
0.918925 0.535525 0.017125
0.947944 0.537544 0.019143
0.976962 0.539562 0.021162
1.000000 0.541580 0.023180
0.083171 0.509771 0.000000
0.110978 0.510578 0.000000
0.139395 0.511995 0.000000
0.168413 0.514013 0.000000
0.197431 0.516031 0.000000
0.226449 0.518050 0.000000
0.255468 0.520068 0.000000
0.284486 0.522086 0.000000
0.313504 0.524104 0.000000
0.342522 0.526123 0.000000
0.371541 0.528141 0.000000
0.400559 0.530159 0.000000
0.429577 0.532177 0.000000
0.458595 0.534196 0.000000
0.487614 0.536214 0.000000
0.516632 0.538232 0.000000
0.545650 0.540250 0.000000
0.574669 0.542269 0.000000
0.603687 0.544287 0.000000
0.632705 0.546305 0.000905
0.661723 0.548323 0.002923
0.690742 0.550342 0.004941
0.719760 0.552360 0.006960
0.748778 0.554378 0.008978
0.777796 0.556396 0.010996
0.806814 0.558415 0.013014
0.835833 0.560433 0.015033
0.864851 0.562451 0.017051
0.893869 0.564469 0.019069
0.922888 0.566487 0.021087
0.951906 0.568506 0.023106
0.980924 0.570524 0.025124
1.000000 0.572542 0.027142
0.085320 0.538921 0.000000
0.114339 0.540939 0.000000
0.143357 0.542957 0.000000
0.172375 0.544975 0.000000
0.201394 0.546994 0.000000
0.230412 0.549012 0.000000
0.259430 0.551030 0.000000
0.288448 0.553048 0.000000
0.317466 0.555066 0.000000
0.346485 0.557085 0.000000
0.375503 0.559103 0.000000
0.404521 0.561121 0.000000
0.433539 0.563140 0.000000
0.462558 0.565158 0.000000
0.491576 0.567176 0.000000
0.520594 0.569194 0.000000
0.549612 0.571213 0.000000
0.578631 0.573231 0.000831
0.607649 0.575249 0.002849
0.636667 0.577267 0.004867
0.665686 0.579286 0.006885
0.694704 0.581304 0.008904
0.723722 0.583322 0.010922
0.752740 0.585340 0.012940
0.781759 0.587359 0.014958
0.810777 0.589377 0.016977
0.839795 0.591395 0.018995
0.868813 0.593413 0.021013
0.897832 0.595432 0.023031
0.926850 0.597450 0.025050
0.955868 0.599468 0.027068
0.984886 0.601486 0.029086
1.000000 0.603504 0.031104
0.089283 0.569883 0.000000
0.118301 0.571901 0.000000
0.147319 0.573919 0.000000
0.176337 0.575937 0.000000
0.205356 0.577956 0.000000
0.234374 0.579974 0.000000
0.263392 0.581992 0.000000
0.292410 0.584010 0.000000
0.321429 0.586029 0.000000
0.350447 0.588047 0.000000
0.379465 0.590065 0.000000
0.408483 0.592083 0.000000
0.437502 0.594102 0.000000
0.466520 0.596120 0.000000
0.495538 0.598138 0.000000
0.524556 0.600156 0.000756
0.553575 0.602175 0.002775
0.582593 0.604193 0.004793
0.611611 0.606211 0.006811
0.640630 0.608230 0.008829
0.669648 0.610248 0.010848
0.698666 0.612266 0.012866
0.727684 0.614284 0.014884
0.756703 0.616303 0.016902
0.785721 0.618321 0.018921
0.814739 0.620339 0.020939
0.843757 0.622357 0.022957
0.872776 0.624376 0.024975
0.901794 0.626394 0.026994
0.930812 0.628412 0.029012
0.959830 0.630430 0.031030
0.988849 0.632448 0.033048
1.000000 0.634467 0.035067
0.093245 0.600845 0.000000
0.122263 0.602863 0.000000
0.151281 0.604882 0.000000
0.180300 0.606900 0.000000
0.209318 0.608918 0.000000
0.238336 0.610936 0.000000
0.267354 0.612955 0.000000
0.296373 0.614973 0.000000
0.325391 0.616991 0.000000
0.354409 0.619009 0.000000
0.383427 0.621027 0.000000
0.412446 0.623046 0.000000
0.441464 0.625064 0.000000
0.470482 0.627082 0.000682
0.499500 0.629101 0.002700
0.528519 0.631119 0.004719
0.557537 0.633137 0.006737
0.586555 0.635155 0.008755
0.615574 0.637173 0.010773
0.644592 0.639192 0.012792
0.673610 0.641210 0.014810
0.702628 0.643228 0.016828
0.731647 0.645247 0.018846
0.760665 0.647265 0.020865
0.789683 0.649283 0.022883
0.818701 0.651301 0.024901
0.847720 0.653320 0.026919
0.876738 0.655338 0.028938
0.905756 0.657356 0.030956
0.934774 0.659374 0.032974
0.963793 0.661393 0.034992
0.992811 0.663411 0.037011
1.000000 0.665359 0.039025
0.097207 0.631807 0.000000
0.126225 0.633826 0.000000
0.155244 0.635844 0.000000
0.184262 0.637862 0.000000
0.213280 0.639880 0.000000
0.242298 0.641899 0.000000
0.271317 0.643917 0.000000
0.300335 0.645935 0.000000
0.329353 0.647953 0.000000
0.358371 0.649972 0.000000
0.387390 0.651990 0.000000
0.416408 0.654008 0.000608
0.445426 0.656026 0.002626
0.474444 0.658045 0.004644
0.503463 0.660063 0.006663
0.532481 0.662081 0.008681
0.561499 0.664099 0.010699
0.590518 0.666118 0.012717
0.619536 0.668136 0.014736
0.648554 0.670154 0.016754
0.677572 0.672172 0.018772
0.706591 0.674191 0.020790
0.735609 0.676209 0.022809
0.764627 0.678227 0.024827
0.793645 0.680245 0.026845
0.822663 0.682264 0.028863
0.851682 0.684282 0.030882
0.880700 0.686300 0.032900
0.909718 0.688318 0.034918
0.938737 0.690337 0.036936
0.967718 0.692328 0.038953
0.994924 0.693085 0.040897
1.000000 0.693835 0.042833
0.101169 0.662770 0.000000
0.130188 0.664788 0.000000
0.159206 0.666806 0.000000
0.188224 0.668824 0.000000
0.217243 0.670843 0.000000
0.246261 0.672861 0.000000
0.275279 0.674879 0.000000
0.304297 0.676897 0.000000
0.333315 0.678916 0.000000
0.362334 0.680934 0.000534
0.391352 0.682952 0.002552
0.420370 0.684970 0.004570
0.449388 0.686989 0.006588
0.478407 0.689007 0.008607
0.507425 0.691025 0.010625
0.536443 0.693043 0.012643
0.565462 0.695062 0.014661
0.594480 0.697080 0.016680
0.623498 0.699098 0.018698
0.652516 0.701116 0.020716
0.681535 0.703134 0.022734
0.710553 0.705153 0.024753
0.739571 0.707171 0.026771
0.768589 0.709189 0.028789
0.797608 0.711207 0.030807
0.826626 0.713226 0.032826
0.855644 0.715244 0.034844
0.884662 0.717262 0.036862
0.913681 0.719280 0.038880
0.941013 0.720009 0.040826
0.968215 0.720710 0.042762
0.995311 0.721404 0.044692
1.000000 0.722090 0.046614
0.105132 0.693732 0.000000
0.134150 0.695750 0.000000
0.163168 0.697768 0.000000
0.192186 0.699787 0.000000
0.221205 0.701805 0.000000
0.250223 0.703823 0.000000
0.279241 0.705841 0.000000
0.308259 0.707859 0.000459
0.337278 0.709878 0.002478
0.366296 0.711896 0.004496
0.395314 0.713914 0.006514
0.424332 0.715932 0.008532
0.453351 0.717951 0.010551
0.482369 0.719969 0.012569
0.511387 0.721987 0.014587
0.540405 0.724006 0.016605
0.569424 0.726024 0.018624
0.598442 0.728042 0.020642
0.627460 0.730060 0.022660
0.656479 0.732079 0.024678
0.685497 0.734097 0.026697
0.714515 0.736115 0.028715
0.743533 0.738133 0.030733
0.772552 0.740152 0.032751
0.801570 0.742170 0.034770
0.830588 0.744188 0.036788
0.859606 0.746206 0.038806
0.887095 0.746937 0.040754
0.914397 0.747589 0.042691
0.941593 0.748234 0.044621
0.968683 0.748871 0.046543
0.995669 0.749501 0.048458
1.000000 0.750124 0.050366
0.109094 0.724694 0.000000
0.138112 0.726712 0.000000
0.167130 0.728731 0.000000
0.196149 0.730749 0.000000
0.225167 0.732767 0.000000
0.254185 0.734785 0.000385
0.283203 0.736804 0.002403
0.312222 0.738822 0.004422
0.341240 0.740840 0.006440
0.370258 0.742858 0.008458
0.399276 0.744877 0.010476
0.428295 0.746895 0.012495
0.457313 0.748913 0.014513
0.486331 0.750931 0.016531
0.515350 0.752950 0.018549
0.544368 0.754968 0.020568
0.573386 0.756986 0.022586
0.602404 0.759004 0.024604
0.631423 0.761023 0.026622
0.660441 0.763041 0.028641
0.689459 0.765059 0.030659
0.718477 0.767077 0.032677
0.747496 0.769095 0.034695
0.776514 0.771114 0.036714
0.805532 0.773132 0.038732
0.833170 0.773868 0.040683
0.860571 0.774471 0.042620
0.887868 0.775067 0.044550
0.915059 0.775656 0.046473
0.942144 0.776237 0.048388
0.969124 0.776811 0.050296
0.995998 0.777378 0.052196
1.000000 0.777937 0.054089
0.113056 0.755656 0.000000
0.142074 0.757675 0.000000
0.171093 0.759693 0.000000
0.200111 0.761711 0.000311
0.229129 0.763729 0.002329
0.258147 0.765748 0.004347
0.287166 0.767766 0.006366
0.316184 0.769784 0.008384
0.345202 0.771802 0.010402
0.374220 0.773821 0.012420
0.403239 0.775839 0.014439
0.432257 0.777857 0.016457
0.461275 0.779875 0.018475
0.490293 0.781894 0.020493
0.519312 0.783912 0.022512
0.548330 0.785930 0.024530
0.577348 0.787948 0.026548
0.606367 0.789967 0.028566
0.635385 0.791985 0.030585
0.664403 0.794003 0.032603
0.693421 0.796021 0.034621
0.722440 0.798040 0.036639
0.751458 0.800058 0.038658
0.779237 0.800803 0.040611
0.806739 0.801357 0.042549
0.834135 0.801905 0.044479
0.861426 0.802444 0.046402
0.888612 0.802977 0.048317
0.915692 0.803502 0.050226
0.942667 0.804020 0.052126
0.969536 0.804530 0.054020
0.996300 0.805033 0.055906
1.000000 0.805529 0.057785
0.117018 0.786618 0.000000
0.146037 0.788637 0.000237
0.175055 0.790655 0.002255
0.204073 0.792673 0.004273
0.233091 0.794692 0.006291
0.262110 0.796710 0.008310
0.291128 0.798728 0.010328
0.320146 0.800746 0.012346
0.349164 0.802765 0.014364
0.378183 0.804783 0.016383
0.407201 0.806801 0.018401
0.436219 0.808819 0.020419
0.465237 0.810838 0.022437
0.494256 0.812856 0.024456
0.523274 0.814874 0.026474
0.552292 0.816892 0.028492
0.581311 0.818911 0.030510
0.610329 0.820929 0.032529
0.639347 0.822947 0.034547
0.668365 0.824965 0.036565
0.697384 0.826984 0.038583
0.725297 0.827741 0.040540
0.752899 0.828247 0.042478
0.780396 0.828745 0.044408
0.807787 0.829236 0.046331
0.835073 0.829720 0.048247
0.862253 0.830196 0.050156
0.889328 0.830666 0.052057
0.916297 0.831127 0.053950
