assets/luts/butter.cube
# MoodFilm Filter — butter
TITLE "butter"
LUT_3D_SIZE 9
0.261475 0.031156 0.031156
0.382413 0.033352 0.033352
0.498849 0.035465 0.035465
0.612142 0.037522 0.037522
0.723033 0.039534 0.039534
0.831985 0.041512 0.041512
0.938702 0.043449 0.043449
0.938702 0.043449 0.043449
0.938702 0.043449 0.043449
0.262607 0.170630 0.039202
0.383780 0.171335 0.041316
0.500338 0.171955 0.043345
0.613698 0.172516 0.045317
0.724623 0.173030 0.047244
0.833588 0.173506 0.049135
0.940918 0.173951 0.050997
0.946294 0.173110 0.051041
0.946294 0.173110 0.051041
0.261117 0.300614 0.046657
0.382726 0.301433 0.048785
0.499567 0.302165 0.050826
0.613137 0.302837 0.052807
0.724227 0.303463 0.054743
0.833330 0.304052 0.056644
0.940777 0.304611 0.058514
0.953957 0.303981 0.058703
0.953957 0.303981 0.058703
0.259179 0.423673 0.053706
0.381239 0.424557 0.055845
0.498368 0.425352 0.057894
0.612148 0.426085 0.059883
0.723404 0.426772 0.061826
0.834255 0.428335 0.063812
0.944195 0.430330 0.065807
0.961373 0.430642 0.066119
0.961373 0.430642 0.066119
0.256949 0.542504 0.060506
0.379550 0.543472 0.062659
0.499557 0.545650 0.064838
0.616008 0.547764 0.066951
0.729802 0.549830 0.069017
0.841487 0.551857 0.071044
0.951427 0.553852 0.073040
0.968605 0.554164 0.073351
0.968605 0.554164 0.073351
0.261247 0.661451 0.067425
0.386590 0.663726 0.069700
0.506598 0.665904 0.071878
0.623048 0.668018 0.073992
0.736843 0.670083 0.076058
0.848528 0.672110 0.078085
0.960006 0.674680 0.080140
0.975701 0.675359 0.080447
0.975701 0.675359 0.080447
0.268141 0.779193 0.074319
0.393484 0.781468 0.076594
0.513932 0.783797 0.078788
0.632241 0.786563 0.080972
0.747822 0.789281 0.083105
0.861240 0.791959 0.085199
0.972873 0.794604 0.087261
0.982716 0.795169 0.087462
0.982716 0.795169 0.087462
0.278250 0.895936 0.081210
0.405403 0.898853 0.083553
0.527152 0.901673 0.085798
0.645298 0.904427 0.087978
0.760752 0.907132 0.090108
0.874067 0.909798 0.092200
0.985613 0.912432 0.094260
0.989608 0.912884 0.094355
0.989608 0.912884 0.094355
0.290158 0.981597 0.086343
0.416914 0.983898 0.088644
0.538405 0.986103 0.090849
0.656354 0.988244 0.092990
0.771648 0.990336 0.095083
0.884826 0.992391 0.097137
0.994379 0.994379 0.099126
0.994379 0.994379 0.099126
0.994379 0.994379 0.099126
0.261475 0.031156 0.031156
0.382413 0.033352 0.033352
0.498849 0.035465 0.035465
0.612142 0.037522 0.037522
0.723033 0.039534 0.039534
0.831985 0.041512 0.041512
0.938702 0.043449 0.043449
0.938702 0.043449 0.043449
0.938702 0.043449 0.043449
0.262607 0.170630 0.039202
0.383780 0.171335 0.041316
0.500338 0.171955 0.043345
0.613698 0.172516 0.045317
0.724623 0.173030 0.047244
0.833588 0.173506 0.049135
0.940918 0.173951 0.050997
0.946294 0.173110 0.051041
0.946294 0.173110 0.051041
0.261117 0.300614 0.046657
0.382726 0.301433 0.048785
0.499567 0.302165 0.050826
0.613137 0.302837 0.052807
0.724227 0.303463 0.054743
0.833330 0.304052 0.056644
0.940777 0.304611 0.058514
0.953957 0.303981 0.058703
0.953957 0.303981 0.058703
0.259179 0.423673 0.053706
0.381239 0.424557 0.055845
0.498368 0.425352 0.057894
0.612148 0.426085 0.059883
0.723404 0.426772 0.061826
0.834255 0.428335 0.063812
0.944195 0.430330 0.065807
0.961373 0.430642 0.066119
0.961373 0.430642 0.066119
0.256949 0.542504 0.060506
0.379550 0.543472 0.062659
0.499557 0.545650 0.064838
0.616008 0.547764 0.066951
0.729802 0.549830 0.069017
0.841487 0.551857 0.071044
0.951427 0.553852 0.073040
0.968605 0.554164 0.073351
0.968605 0.554164 0.073351
0.261247 0.661451 0.067425
0.386590 0.663726 0.069700
0.506598 0.665904 0.071878
0.623048 0.668018 0.073992
0.736843 0.670083 0.076058
0.848528 0.672110 0.078085
0.960006 0.674680 0.080140
0.975701 0.675359 0.080447
0.975701 0.675359 0.080447
0.268141 0.779193 0.074319
0.393484 0.781468 0.076594
0.513932 0.783797 0.078788
0.632241 0.786563 0.080972
0.747822 0.789281 0.083105
0.861240 0.791959 0.085199
0.972873 0.794604 0.087261
0.982716 0.795169 0.087462
0.982716 0.795169 0.087462
0.278250 0.895936 0.081210
0.405403 0.898853 0.083553
0.527152 0.901673 0.085798
0.645298 0.904427 0.087978
0.760752 0.907132 0.090108
0.874067 0.909798 0.092200
0.985613 0.912432 0.094260
0.989608 0.912884 0.094355
0.989608 0.912884 0.094355
0.290158 0.981597 0.086343
0.416914 0.983898 0.088644
0.538405 0.986103 0.090849
0.656354 0.988244 0.092990
0.771648 0.990336 0.095083
0.884826 0.992391 0.097137
0.994379 0.994379 0.099126
0.994379 0.994379 0.099126
0.994379 0.994379 0.099126
0.261369 0.031783 0.133687
0.382350 0.033988 0.137338
0.498816 0.036111 0.140905
0.612135 0.038176 0.144413
0.723047 0.040198 0.147875
0.832020 0.042185 0.151299
0.939371 0.044143 0.154692
0.939402 0.044149 0.155592
0.939402 0.044149 0.155592
0.262498 0.170865 0.145503
0.383714 0.171580 0.149067
0.500304 0.172209 0.152544
0.613689 0.172778 0.155961
0.724636 0.173301 0.159332
0.833621 0.173786 0.162664
0.940969 0.174240 0.165965
0.946993 0.173416 0.166917
0.946993 0.173416 0.166917
0.261036 0.300909 0.157827
0.382690 0.301738 0.161398
0.499563 0.302479 0.164880
0.613159 0.303160 0.168300
0.724272 0.303795 0.171673
0.833394 0.304393 0.175007
0.940859 0.304960 0.178310
0.954687 0.304347 0.179404
0.954687 0.304347 0.179404
0.259126 0.424014 0.169721
0.381232 0.424908 0.173296
0.498394 0.425712 0.176780
0.612200 0.426454 0.180200
0.723478 0.427150 0.183573
0.835016 0.429095 0.185679
0.944955 0.431091 0.187675
0.962133 0.431402 0.187986
0.962133 0.431402 0.187986
0.256923 0.542886 0.181344
0.380310 0.544232 0.184526
0.500318 0.546411 0.186705
0.616768 0.548524 0.188818
0.730563 0.550590 0.190884
0.842248 0.552617 0.192911
0.952187 0.554613 0.194907
0.969365 0.554925 0.195219
0.969365 0.554925 0.195219
0.262008 0.662211 0.189292
0.387351 0.664486 0.191567
0.507359 0.666664 0.193746
0.623809 0.668778 0.195859
0.737604 0.670844 0.197925
0.849545 0.672965 0.199962
0.961258 0.675624 0.202026
0.976471 0.676294 0.202325
0.976471 0.676294 0.202325
0.268901 0.779953 0.196186
0.394245 0.782229 0.198461
0.515224 0.784738 0.200675
0.633519 0.787505 0.202858
0.749089 0.790222 0.204991
0.862500 0.792900 0.207085
0.974125 0.795545 0.209147
0.983486 0.796101 0.209339
0.983486 0.796101 0.209339
0.279590 0.896876 0.203097
0.406712 0.899793 0.205440
0.528443 0.902612 0.207685
0.646575 0.905365 0.209864
0.762019 0.908070 0.211994
0.875326 0.910736 0.214086
0.986865 0.913370 0.216146
0.990378 0.913814 0.216232
0.990378 0.913814 0.216232
0.291486 0.982367 0.208221
0.418213 0.984668 0.210521
0.539685 0.986873 0.212726
0.657621 0.989013 0.214867
0.772904 0.991106 0.216959
0.886075 0.993160 0.219013
0.995140 0.995140 0.220993
0.995140 0.995140 0.220993
0.995140 0.995140 0.220993
0.261268 0.032580 0.264197
0.382290 0.034785 0.267723
0.498783 0.036908 0.271165
0.612121 0.038973 0.274550
0.723048 0.040995 0.277890
0.832033 0.042981 0.281193
0.939394 0.044938 0.284467
0.940211 0.044958 0.285308
0.940211 0.044958 0.285308
0.262362 0.171153 0.275657
0.383620 0.171867 0.279098
0.500237 0.172496 0.282455
0.613642 0.173064 0.285752
0.724604 0.173585 0.289004
0.833601 0.174069 0.292220
0.940959 0.174522 0.295404
0.947770 0.173711 0.296299
0.947770 0.173711 0.296299
0.260896 0.301230 0.287576
0.382593 0.302059 0.291029
0.499495 0.302800 0.294394
0.613110 0.303480 0.297698
0.724238 0.304114 0.300957
0.833373 0.304712 0.304179
0.940849 0.305278 0.307370
0.955464 0.304679 0.308408
0.955464 0.304679 0.308408
0.258980 0.424352 0.299077
0.381131 0.425246 0.302539
0.498322 0.426049 0.305910
0.612149 0.426791 0.309220
0.724132 0.427870 0.312147
0.835817 0.429897 0.314175
0.945757 0.431892 0.316170
0.962935 0.432204 0.316482
0.962935 0.432204 0.316482
0.256770 0.543235 0.310322
0.381112 0.545034 0.313022
0.501119 0.547212 0.315200
0.617570 0.549326 0.317314
0.731364 0.551392 0.319380
0.843049 0.553419 0.321407
0.952989 0.555414 0.323402
0.970167 0.555726 0.323714
0.970167 0.555726 0.323714
0.262809 0.663013 0.317788
0.388153 0.665288 0.320063
0.508160 0.667466 0.322241
0.624610 0.669580 0.324355
0.738405 0.671645 0.326420
0.850959 0.673992 0.328481
0.962664 0.676651 0.330545
0.977286 0.677311 0.330833
0.977286 0.677311 0.330833
0.269703 0.780755 0.324681
0.395046 0.783030 0.326957
0.516677 0.785762 0.329195
0.634955 0.788528 0.331377
0.750513 0.791245 0.333510
0.863913 0.793923 0.335604
0.975530 0.796568 0.337666
0.984300 0.797113 0.337847
0.984300 0.797113 0.337847
0.281101 0.897897 0.331618
0.408187 0.900813 0.333960
0.529895 0.903632 0.336204
0.648011 0.906385 0.338383
0.763442 0.909090 0.340513
0.876739 0.911756 0.342605
0.988269 0.914389 0.344664
0.991192 0.914823 0.344739
0.991192 0.914823 0.344739
0.292983 0.983182 0.336729
0.419673 0.985481 0.339029
0.541124 0.987686 0.341233
0.659043 0.989826 0.343374
0.774315 0.991919 0.345466
0.887474 0.993973 0.347520
0.995941 0.995941 0.349489
0.995941 0.995941 0.349489
0.995941 0.995941 0.349489
0.261116 0.033327 0.386579
0.382179 0.035533 0.390045
0.498699 0.037655 0.393427
0.612057 0.039721 0.396752
0.723000 0.041742 0.400033
0.831997 0.043729 0.403277
0.939369 0.045685 0.406492
0.940973 0.045719 0.407311
0.940973 0.045719 0.407311
0.262176 0.171391 0.397851
0.383477 0.172105 0.401234
0.500121 0.172733 0.404531
0.613546 0.173300 0.407769
0.724524 0.173821 0.410963
0.833534 0.174305 0.414120
0.940903 0.174756 0.417247
0.948500 0.173959 0.418119
0.948500 0.173959 0.418119
0.260707 0.301503 0.409572
0.382449 0.302332 0.412967
0.499378 0.303072 0.416274
0.613014 0.303752 0.419521
0.724158 0.304386 0.422722
0.833306 0.304983 0.425887
0.940792 0.305549 0.429020
0.956196 0.304964 0.430037
0.956196 0.304964 0.430037
0.258786 0.424643 0.420878
0.380984 0.425537 0.424283
0.498204 0.426340 0.427598
0.612051 0.427082 0.430850
0.724888 0.428626 0.433350
0.836573 0.430653 0.435377
0.946513 0.432648 0.437372
0.963691 0.432960 0.437684
0.963691 0.432960 0.437684
0.256572 0.543537 0.431930
0.381868 0.545790 0.434224
0.501876 0.547969 0.436403
0.618326 0.550082 0.438516
0.732121 0.552148 0.440582
0.843806 0.554175 0.442609
0.953745 0.556171 0.444605
0.970923 0.556482 0.444916
0.970923 0.556482 0.444916
0.263566 0.663769 0.438990
0.388909 0.666044 0.441265
0.508916 0.668222 0.443443
0.625367 0.670336 0.445557
0.739162 0.672401 0.447623
0.852328 0.674974 0.449707
0.964023 0.677633 0.451770
0.978054 0.678281 0.452048
0.978054 0.678281 0.452048
0.270459 0.781511 0.445884
0.396171 0.783908 0.448172
0.518084 0.786740 0.450421
0.636346 0.789506 0.452603
0.751891 0.792223 0.454736
0.865281 0.794900 0.456830
0.976889 0.797545 0.458891
0.985069 0.798080 0.459062
0.985069 0.798080 0.459062
0.282567 0.898873 0.452845
0.409615 0.901789 0.455186
0.531301 0.904607 0.457430
0.649400 0.907360 0.459609
0.764819 0.910064 0.461739
0.878106 0.912730 0.463830
0.989628 0.915363 0.465889
0.991960 0.915786 0.465954
0.991960 0.915786 0.465954
0.294433 0.983951 0.457944
0.421089 0.986249 0.460243
0.542517 0.988454 0.462447
0.660420 0.990594 0.464587
0.775679 0.992686 0.466679
0.888829 0.994740 0.468733
0.996698 0.996698 0.470691
0.996698 0.996698 0.470691
0.996698 0.996698 0.470691
0.260935 0.034046 0.504349
0.382040 0.036251 0.507775
0.498587 0.038374 0.511119
0.611964 0.040440 0.514405
0.722923 0.042462 0.517646
0.831933 0.044448 0.520852
0.939316 0.046404 0.524028
0.941706 0.046452 0.524837
0.941706 0.046452 0.524837
0.261962 0.171601 0.515487
0.383305 0.172314 0.518832
0.499977 0.172942 0.522090
0.613422 0.173509 0.525290
0.724416 0.174029 0.528445
0.833438 0.174512 0.531564
0.940818 0.174963 0.534652
0.949203 0.174179 0.535515
0.949203 0.174179 0.535515
0.260490 0.301748 0.527079
0.382276 0.302577 0.530436
0.499234 0.303317 0.533705
0.612890 0.303997 0.536914
0.724050 0.304631 0.540077
0.833211 0.305228 0.543203
0.940709 0.305793 0.546299
0.956916 0.305526 0.547057
0.956916 0.305526 0.547057
0.258565 0.424906 0.538257
0.380809 0.425801 0.541624
0.498058 0.426604 0.544901
0.611926 0.427346 0.548116
0.725618 0.429355 0.550226
0.837303 0.431382 0.552254
0.947242 0.433378 0.554249
0.964420 0.433690 0.554561
0.964420 0.433690 0.554561
0.257254 0.544244 0.548826
0.382597 0.546520 0.551101
0.502605 0.548698 0.553279
0.619055 0.550812 0.555393
0.732850 0.552877 0.557459
0.844535 0.554904 0.559486
0.954474 0.556900 0.561481
0.971652 0.557212 0.561793
0.971652 0.557212 0.561793
0.264295 0.664498 0.555867
0.389638 0.666773 0.558142
0.509646 0.668951 0.560320
0.626096 0.671065 0.562434
0.740186 0.673238 0.564511
0.853669 0.675929 0.566607
0.965356 0.678587 0.568671
0.978796 0.679225 0.568937
0.978796 0.679225 0.568937
0.271189 0.782241 0.562761
0.397574 0.784860 0.565073
0.519464 0.787692 0.567322
0.637710 0.790457 0.569504
0.753242 0.793174 0.571636
0.866621 0.795851 0.573730
0.978221 0.798496 0.575791
0.985810 0.799020 0.575951
0.985810 0.799020 0.575951
0.284005 0.899822 0.569747
0.411017 0.902737 0.572087
0.532680 0.905555 0.574330
0.650763 0.908308 0.576509
0.766169 0.911012 0.578639
0.879446 0.913677 0.580730
0.990959 0.916310 0.582789
0.992702 0.916722 0.582843
0.992702 0.916722 0.582843
0.295857 0.984692 0.574833
0.422477 0.986991 0.577132
0.543883 0.989194 0.579335
0.661770 0.991334 0.581475
0.777017 0.993426 0.583567
0.890156 0.995480 0.585621
0.997427 0.997427 0.587568
0.997427 0.997427 0.587568
0.997427 0.997427 0.587568
0.260734 0.034744 0.618911
0.381880 0.036950 0.622309
0.498454 0.039074 0.625625
0.611852 0.041139 0.628882
0.722826 0.043161 0.632095
0.831849 0.045147 0.635272
0.939243 0.047104 0.638419
0.942419 0.047166 0.639224
0.942419 0.047166 0.639224
0.261727 0.171790 0.629944
0.383114 0.172504 0.633260
0.499813 0.173131 0.636490
0.613279 0.173697 0.639662
0.724288 0.174217 0.642788
0.833324 0.174699 0.645878
0.940714 0.175149 0.648938
0.949886 0.174380 0.649797
0.949886 0.174380 0.649797
0.260252 0.301972 0.641440
0.382083 0.302802 0.644770
0.499069 0.303543 0.648011
0.612746 0.304222 0.651191
0.723923 0.304856 0.654326
0.833097 0.305452 0.657424
0.940605 0.306018 0.660492
0.957626 0.306236 0.660874
0.957626 0.306236 0.660874
0.258323 0.425150 0.652523
0.380614 0.426045 0.655863
0.497892 0.426848 0.659112
0.612533 0.427999 0.661978
0.726328 0.430065 0.664043
0.838013 0.432092 0.666071
0.947952 0.434088 0.668066
0.965130 0.434400 0.668378
0.965130 0.434400 0.668378
0.257964 0.544954 0.662643
0.383307 0.547230 0.664918
0.503315 0.549408 0.667096
0.619765 0.551522 0.669210
0.733560 0.553587 0.671276
0.845245 0.555614 0.673303
0.955185 0.557610 0.675298
0.972362 0.557922 0.675610
0.972362 0.557922 0.675610
0.265005 0.665208 0.669684
0.390348 0.667483 0.671959
0.510356 0.669662 0.674137
0.626806 0.671775 0.676251
0.741519 0.674174 0.678351
0.854991 0.676864 0.680447
0.966669 0.679523 0.682511
0.979519 0.680150 0.682767
0.979519 0.680150 0.682767
0.271899 0.782951 0.676578
0.398958 0.785793 0.678915
0.520825 0.788624 0.681162
0.639055 0.791389 0.683344
0.754574 0.794105 0.685477
0.867943 0.796782 0.687570
0.979534 0.799427 0.689631
0.986532 0.799940 0.689780
0.986532 0.799940 0.689780
0.285424 0.900752 0.683588
0.412400 0.903666 0.685928
0.534040 0.906484 0.688171
0.652107 0.909236 0.690349
0.767500 0.911940 0.692479
0.880767 0.914605 0.694570
0.992271 0.917238 0.696629
0.993424 0.917639 0.696672
0.993424 0.917639 0.696672
0.297261 0.985415 0.688663
0.423846 0.987713 0.690961
0.545229 0.989916 0.693164
0.663101 0.992056 0.695303
0.778335 0.994147 0.697395
0.891464 0.996201 0.699449
0.998137 0.998137 0.701385
0.998137 0.998137 0.701385
0.998137 0.998137 0.701385
0.260517 0.035427 0.731027
0.381705 0.037634 0.734403
0.498307 0.039758 0.737696
0.611724 0.041823 0.740930
0.722714 0.043845 0.744121
0.831750 0.045832 0.747275
0.939155 0.047788 0.750400
0.943118 0.047865 0.751205
0.943118 0.047865 0.751205
0.261477 0.171964 0.741970
0.382907 0.172678 0.745264
0.499634 0.173304 0.748472
0.613120 0.173870 0.751621
0.724145 0.174390 0.754725
0.833194 0.174871 0.757792
0.940595 0.175321 0.760830
0.950554 0.174565 0.761689
0.950554 0.174565 0.761689
0.259999 0.302182 0.753392
0.381875 0.303012 0.756699
0.498890 0.303753 0.759918
0.612588 0.304433 0.763076
0.723780 0.305066 0.766189
0.832968 0.305662 0.769265
0.941144 0.306619 0.772022
0.958322 0.306931 0.772334
0.958322 0.306931 0.772334
0.258066 0.425378 0.764399
0.380404 0.426274 0.767718
0.497712 0.427078 0.770944
0.613228 0.428695 0.773438
0.727023 0.430760 0.775504
0.838708 0.432788 0.777531
0.948648 0.434783 0.779526
0.965826 0.435095 0.779838
0.965826 0.435095 0.779838
0.258659 0.545650 0.774103
0.384003 0.547925 0.776378
0.504010 0.550103 0.778557
0.620460 0.552217 0.780670
0.734255 0.554283 0.782736
0.845940 0.556310 0.784763
0.955880 0.558305 0.786759
0.973062 0.558682 0.787074
0.973062 0.558682 0.787074
0.265700 0.665903 0.781144
0.391043 0.668179 0.783419
0.511051 0.670357 0.785597
0.627501 0.672471 0.787711
0.742837 0.675095 0.789835
0.856299 0.677785 0.791931
0.967968 0.680443 0.793994
0.980227 0.681060 0.794239
0.980227 0.681060 0.794239
0.273022 0.783780 0.788053
0.400328 0.786711 0.790399
0.522172 0.789542 0.792647
0.640384 0.792306 0.794828
0.755891 0.795022 0.796960
0.869249 0.797699 0.799053
0.980832 0.800343 0.801114
0.987240 0.800846 0.801253
0.987240 0.800846 0.801253
0.286828 0.901668 0.795073
0.413767 0.904581 0.797412
0.535385 0.907398 0.799655
0.653436 0.910150 0.801833
0.768817 0.912854 0.803962
0.882073 0.915519 0.806053
0.993569 0.918151 0.808112
0.994131 0.918542 0.808144
0.994131 0.918542 0.808144
0.298651 0.986123 0.800136
0.425200 0.988420 0.802433
0.546561 0.990623 0.804636
0.664417 0.992762 0.806775
0.779639 0.994854 0.808866
0.892758 0.996907 0.810920
0.998832 0.998832 0.812845
0.998832 0.998832 0.812845
0.998832 0.998832 0.812845
0.260287 0.036098 0.841173
0.381517 0.038305 0.844531
0.498147 0.040429 0.847805
0.611584 0.042495 0.851021
0.722590 0.044517 0.854193
0.831639 0.046504 0.857329
0.939054 0.048461 0.860435
0.943805 0.048551 0.861243
0.943805 0.048551 0.861243
0.261214 0.172125 0.852037
0.382687 0.172839 0.855312
0.499442 0.173465 0.858502
0.612948 0.174031 0.861632
0.723989 0.174550 0.864718
0.833051 0.175031 0.867767
0.940464 0.175480 0.870786
0.951211 0.174738 0.871648
0.951211 0.174738 0.871648
0.259733 0.302380 0.863397
0.381655 0.303210 0.866686
0.498698 0.303951 0.869887
0.612417 0.304631 0.873027
0.723626 0.305264 0.876121
0.832826 0.305860 0.879179
0.941827 0.307303 0.881573
0.959005 0.307615 0.881885
0.959005 0.307615 0.881885
0.257797 0.425595 0.874343
0.380182 0.426491 0.877643
0.497519 0.427295 0.880852
0.613912 0.429378 0.882988
0.727707 0.431444 0.885054
0.839392 0.433471 0.887081
0.949331 0.435467 0.889077
0.966509 0.435779 0.889389
0.966509 0.435779 0.889389
0.259343 0.546333 0.883653
0.384686 0.548609 0.885929
0.504694 0.550787 0.888107
0.621144 0.552901 0.890221
0.734939 0.554966 0.892286
0.846624 0.556993 0.894313
0.956563 0.558989 0.896309
0.973758 0.559585 0.896637
0.973758 0.559585 0.896637
0.266384 0.666587 0.890694
0.391727 0.668862 0.892969
0.511735 0.671040 0.895148
0.628521 0.673274 0.897274
0.744143 0.676004 0.899409
0.857594 0.678694 0.901505
0.969255 0.681352 0.903568
0.980923 0.681958 0.903802
0.980923 0.681958 0.903802
0.274417 0.784687 0.897628
0.401685 0.787617 0.899974
0.523506 0.790447 0.902221
0.641702 0.793212 0.904402
0.757196 0.795927 0.906534
0.870544 0.798604 0.908627
0.982118 0.801248 0.910688
0.987936 0.801740 0.910816
0.987936 0.801740 0.910816
0.288220 0.902571 0.904648
0.415123 0.905484 0.906987
0.536718 0.908300 0.909229
0.654753 0.911052 0.911407
0.770121 0.913755 0.913536
0.883367 0.916420 0.915626
0.994805 0.919052 0.917684
0.994827 0.919432 0.917707
0.994827 0.919432 0.917707
0.300028 0.986819 0.909699
0.426542 0.989116 0.911995
0.547881 0.991318 0.914198
0.665721 0.993457 0.916337
0.780930 0.995548 0.918428
0.894039 0.997601 0.920481
0.999516 0.999516 0.922395
0.999516 0.999516 0.922395
0.999516 0.999516 0.922395
