assets/luts/butter.cube
# MoodFilm Filter — butter
TITLE "butter"
LUT_3D_SIZE 17
0.261475 0.031156 0.031156
0.322637 0.032267 0.032267
0.382413 0.033352 0.033352
0.441088 0.034417 0.034417
0.498849 0.035465 0.035465
0.555833 0.036499 0.036499
0.612142 0.037522 0.037522
0.667854 0.038533 0.038533
0.723033 0.039534 0.039534
0.777729 0.040527 0.040527
0.831985 0.041512 0.041512
0.885838 0.042490 0.042490
0.938702 0.043449 0.043449
0.938702 0.043449 0.043449
0.938702 0.043449 0.043449
0.938702 0.043449 0.043449
0.938702 0.043449 0.043449
0.263041 0.100579 0.035178
0.324219 0.100883 0.036242
0.383998 0.101159 0.037281
0.442665 0.101415 0.038299
0.500413 0.101653 0.039301
0.557379 0.101875 0.040288
0.613665 0.102084 0.041263
0.669353 0.102281 0.042227
0.724504 0.102467 0.043181
0.779171 0.102644 0.044127
0.833396 0.102811 0.045064
0.887217 0.102969 0.045994
0.940663 0.103119 0.046917
0.942150 0.102325 0.046896
0.942138 0.102121 0.046884
0.942138 0.102121 0.046884
0.942138 0.102121 0.046884
0.262607 0.170630 0.039202
0.323907 0.170996 0.040272
0.383780 0.171335 0.041316
0.442524 0.171654 0.042339
0.500338 0.171955 0.043345
0.557361 0.172242 0.044337
0.613698 0.172516 0.045317
0.669431 0.172778 0.046285
0.724623 0.173030 0.047244
0.779327 0.173272 0.048194
0.833588 0.173506 0.049135
0.887441 0.173733 0.050070
0.940918 0.173951 0.050997
0.946305 0.173297 0.051052
0.946294 0.173110 0.051041
0.946294 0.173110 0.051041
0.946294 0.173110 0.051041
0.261936 0.236788 0.042998
0.323357 0.237188 0.044072
0.383325 0.237561 0.045119
0.442146 0.237913 0.046146
0.500024 0.238247 0.047155
0.557103 0.238567 0.048150
0.613489 0.238874 0.049132
0.669265 0.239170 0.050103
0.724497 0.239455 0.051065
0.779238 0.239732 0.052017
0.833531 0.240000 0.052961
0.887415 0.240260 0.053898
0.940920 0.240513 0.054828
0.950208 0.239963 0.054955
0.950198 0.239784 0.054945
0.950198 0.239784 0.054945
0.950198 0.239784 0.054945
0.261117 0.300614 0.046657
0.322663 0.301037 0.047734
0.382726 0.301433 0.048785
0.441624 0.301808 0.049814
0.499567 0.302165 0.050826
0.556702 0.302508 0.051823
0.613137 0.302837 0.052807
0.668956 0.303155 0.053780
0.724227 0.303463 0.054743
0.779003 0.303762 0.055698
0.833330 0.304052 0.056644
0.887243 0.304335 0.057582
0.940777 0.304611 0.058514
0.953967 0.304154 0.058713
0.953957 0.303981 0.058703
0.953957 0.303981 0.058703
0.953957 0.303981 0.058703
0.260191 0.362783 0.050219
0.321863 0.363224 0.051299
0.382023 0.363638 0.052352
0.440999 0.364030 0.053384
0.499008 0.364405 0.054398
0.556198 0.364764 0.055397
0.612682 0.365110 0.056383
0.668545 0.365445 0.057358
0.723855 0.365770 0.058323
0.778667 0.366086 0.059279
0.833025 0.366393 0.060226
0.886969 0.366693 0.061166
0.940530 0.366985 0.062099
0.957662 0.367270 0.062409
0.957662 0.367270 0.062409
0.957662 0.367270 0.062409
0.957662 0.367270 0.062409
0.259179 0.423673 0.053706
0.320981 0.424129 0.054789
0.381239 0.424557 0.055845
0.440294 0.424964 0.056878
0.498368 0.425352 0.057894
0.555615 0.425725 0.058895
0.612148 0.426085 0.059883
0.668055 0.426434 0.060859
0.723404 0.426772 0.061826
0.778651 0.427325 0.062803
0.834255 0.428335 0.063812
0.889425 0.429336 0.064813
0.944195 0.430330 0.065807
0.961373 0.430642 0.066119
0.961373 0.430642 0.066119
0.961373 0.430642 0.066119
0.961373 0.430642 0.066119
0.258095 0.483524 0.057132
0.320029 0.483993 0.058218
0.380387 0.484434 0.059276
0.439522 0.484852 0.060312
0.497663 0.485252 0.061329
0.554966 0.485637 0.062332
0.612419 0.486476 0.063363
0.669609 0.487514 0.064401
0.726214 0.488542 0.065428
0.782294 0.489560 0.066446
0.837899 0.490569 0.067456
0.893069 0.491570 0.068457
0.947839 0.492565 0.069451
0.965016 0.492876 0.069763
0.965016 0.492876 0.069763
0.965016 0.492876 0.069763
0.965016 0.492876 0.069763
0.256949 0.542504 0.060506
0.319018 0.542985 0.061596
0.379550 0.543472 0.062659
0.440078 0.544571 0.063758
0.499557 0.545650 0.064838
0.558159 0.546714 0.065901
0.616008 0.547764 0.066951
0.673197 0.548802 0.067989
0.729802 0.549830 0.069017
0.785883 0.550848 0.070035
0.841487 0.551857 0.071044
0.896657 0.552858 0.072045
0.951427 0.553852 0.073040
0.968605 0.554164 0.073351
0.968605 0.554164 0.073351
0.968605 0.554164 0.073351
0.968605 0.554164 0.073351
0.257748 0.601676 0.063925
0.321265 0.602829 0.065078
0.383091 0.603951 0.066200
0.443619 0.605050 0.067299
0.503098 0.606130 0.068379
0.561700 0.607193 0.069442
0.619549 0.608243 0.070492
0.676738 0.609281 0.071530
0.733344 0.610309 0.072558
0.789424 0.611327 0.073576
0.845029 0.612336 0.074585
0.900198 0.613337 0.075587
0.954968 0.614332 0.076581
0.972146 0.614643 0.076893
0.972146 0.614643 0.076893
0.972146 0.614643 0.076893
0.972146 0.614643 0.076893
0.261247 0.661451 0.067425
0.324765 0.662603 0.068578
0.386590 0.663726 0.069700
0.447119 0.664824 0.070799
0.506598 0.665904 0.071878
0.565200 0.666968 0.072942
0.623048 0.668018 0.073992
0.680238 0.669056 0.075030
0.736843 0.670083 0.076058
0.792924 0.671101 0.077076
0.848528 0.672110 0.078085
0.904352 0.673354 0.079111
0.960006 0.674680 0.080140
0.975696 0.675281 0.080443
0.975701 0.675359 0.080447
0.975701 0.675359 0.080447
0.975701 0.675359 0.080447
0.264711 0.720601 0.070888
0.328228 0.721754 0.072041
0.390054 0.722876 0.073163
0.450582 0.723975 0.074262
0.510062 0.725055 0.075342
0.568663 0.726118 0.076405
0.626512 0.727168 0.077455
0.683789 0.728238 0.078497
0.741310 0.729594 0.079559
0.798290 0.730941 0.080611
0.854780 0.732279 0.081654
0.910824 0.733609 0.082690
0.966457 0.734931 0.083718
0.979221 0.735475 0.083967
0.979225 0.735552 0.083972
0.979225 0.735552 0.083972
0.979225 0.735552 0.083972
0.268141 0.779193 0.074319
0.331659 0.780346 0.075472
0.393484 0.781468 0.076594
0.454013 0.782567 0.077693
0.513932 0.783797 0.078788
0.573474 0.785187 0.079887
0.632241 0.786563 0.080972
0.690331 0.787927 0.082044
0.747822 0.789281 0.083105
0.804774 0.790624 0.084157
0.861240 0.791959 0.085199
0.917261 0.793285 0.086234
0.972873 0.794604 0.087261
0.982711 0.795092 0.087458
0.982716 0.795169 0.087462
0.982716 0.795169 0.087462
0.982716 0.795169 0.087462
0.271542 0.837279 0.077720
0.335895 0.838700 0.078902
0.398694 0.840147 0.080060
0.460162 0.841570 0.081193
0.520557 0.842973 0.082307
0.580055 0.844360 0.083405
0.638784 0.845733 0.084489
0.696841 0.847094 0.085560
0.754301 0.848444 0.086621
0.811227 0.849785 0.087672
0.867668 0.851116 0.088714
0.923667 0.852440 0.089748
0.979258 0.853756 0.090775
0.986171 0.854188 0.090918
0.986176 0.854264 0.090922
0.986176 0.854264 0.090922
0.986176 0.854264 0.090922
0.278250 0.895936 0.081210
0.342683 0.897410 0.082397
0.405403 0.898853 0.083553
0.466809 0.900273 0.084685
0.527152 0.901673 0.085798
0.586607 0.903057 0.086895
0.645298 0.904427 0.087978
0.703321 0.905785 0.089048
0.760752 0.907132 0.090108
0.817651 0.908469 0.091159
0.874067 0.909798 0.092200
0.930043 0.911118 0.093234
0.985613 0.912432 0.094260
0.989603 0.912809 0.094350
0.989608 0.912884 0.094355
0.989608 0.912884 0.094355
0.989608 0.912884 0.094355
0.285112 0.954211 0.084681
0.349440 0.955682 0.085866
0.412082 0.957121 0.087021
0.473427 0.958537 0.088152
0.533719 0.959934 0.089263
0.593130 0.961315 0.090359
0.651784 0.962682 0.091441
0.709774 0.964037 0.092511
0.767175 0.965382 0.093571
0.824047 0.966716 0.094620
0.880440 0.968042 0.095661
0.936393 0.969361 0.096694
0.991943 0.970671 0.097720
0.993010 0.970993 0.097757
0.993014 0.971068 0.097761
0.993014 0.971068 0.097761
0.993014 0.971068 0.097761
0.290158 0.981597 0.086343
0.354366 0.982762 0.087509
0.416914 0.983898 0.088644
0.478180 0.985010 0.089756
0.538405 0.986103 0.090849
0.597755 0.987180 0.091927
0.656354 0.988244 0.092990
0.714293 0.989295 0.094042
0.771648 0.990336 0.095083
0.828476 0.991368 0.096115
0.884826 0.992391 0.097137
0.940740 0.993406 0.098152
0.994379 0.994379 0.099126
0.994379 0.994379 0.099126
0.994379 0.994379 0.099126
0.994379 0.994379 0.099126
0.994379 0.994379 0.099126
0.261475 0.031156 0.031156
0.322637 0.032267 0.032267
0.382413 0.033352 0.033352
0.441088 0.034417 0.034417
0.498849 0.035465 0.035465
0.555833 0.036499 0.036499
0.612142 0.037522 0.037522
0.667854 0.038533 0.038533
0.723033 0.039534 0.039534
0.777729 0.040527 0.040527
0.831985 0.041512 0.041512
0.885838 0.042490 0.042490
0.938702 0.043449 0.043449
0.938702 0.043449 0.043449
0.938702 0.043449 0.043449
0.938702 0.043449 0.043449
0.938702 0.043449 0.043449
0.263041 0.100579 0.035178
0.324219 0.100883 0.036242
0.383998 0.101159 0.037281
0.442665 0.101415 0.038299
0.500413 0.101653 0.039301
0.557379 0.101875 0.040288
0.613665 0.102084 0.041263
0.669353 0.102281 0.042227
0.724504 0.102467 0.043181
0.779171 0.102644 0.044127
0.833396 0.102811 0.045064
0.887217 0.102969 0.045994
0.940663 0.103119 0.046917
0.942150 0.102325 0.046896
0.942138 0.102121 0.046884
0.942138 0.102121 0.046884
0.942138 0.102121 0.046884
0.262607 0.170630 0.039202
0.323907 0.170996 0.040272
0.383780 0.171335 0.041316
0.442524 0.171654 0.042339
0.500338 0.171955 0.043345
0.557361 0.172242 0.044337
0.613698 0.172516 0.045317
0.669431 0.172778 0.046285
0.724623 0.173030 0.047244
0.779327 0.173272 0.048194
0.833588 0.173506 0.049135
0.887441 0.173733 0.050070
0.940918 0.173951 0.050997
0.946305 0.173297 0.051052
0.946294 0.173110 0.051041
0.946294 0.173110 0.051041
0.946294 0.173110 0.051041
0.261936 0.236788 0.042998
0.323357 0.237188 0.044072
0.383325 0.237561 0.045119
0.442146 0.237913 0.046146
0.500024 0.238247 0.047155
0.557103 0.238567 0.048150
0.613489 0.238874 0.049132
0.669265 0.239170 0.050103
0.724497 0.239455 0.051065
0.779238 0.239732 0.052017
0.833531 0.240000 0.052961
0.887415 0.240260 0.053898
0.940920 0.240513 0.054828
0.950208 0.239963 0.054955
0.950198 0.239784 0.054945
0.950198 0.239784 0.054945
0.950198 0.239784 0.054945
0.261117 0.300614 0.046657
0.322663 0.301037 0.047734
0.382726 0.301433 0.048785
0.441624 0.301808 0.049814
0.499567 0.302165 0.050826
0.556702 0.302508 0.051823
0.613137 0.302837 0.052807
0.668956 0.303155 0.053780
0.724227 0.303463 0.054743
0.779003 0.303762 0.055698
0.833330 0.304052 0.056644
0.887243 0.304335 0.057582
0.940777 0.304611 0.058514
0.953967 0.304154 0.058713
0.953957 0.303981 0.058703
0.953957 0.303981 0.058703
0.953957 0.303981 0.058703
0.260191 0.362783 0.050219
0.321863 0.363224 0.051299
0.382023 0.363638 0.052352
0.440999 0.364030 0.053384
0.499008 0.364405 0.054398
0.556198 0.364764 0.055397
0.612682 0.365110 0.056383
0.668545 0.365445 0.057358
0.723855 0.365770 0.058323
0.778667 0.366086 0.059279
0.833025 0.366393 0.060226
0.886969 0.366693 0.061166
0.940530 0.366985 0.062099
0.957662 0.367270 0.062409
0.957662 0.367270 0.062409
0.957662 0.367270 0.062409
0.957662 0.367270 0.062409
0.259179 0.423673 0.053706
0.320981 0.424129 0.054789
0.381239 0.424557 0.055845
0.440294 0.424964 0.056878
0.498368 0.425352 0.057894
0.555615 0.425725 0.058895
0.612148 0.426085 0.059883
0.668055 0.426434 0.060859
0.723404 0.426772 0.061826
0.778651 0.427325 0.062803
0.834255 0.428335 0.063812
0.889425 0.429336 0.064813
0.944195 0.430330 0.065807
0.961373 0.430642 0.066119
0.961373 0.430642 0.066119
0.961373 0.430642 0.066119
0.961373 0.430642 0.066119
0.258095 0.483524 0.057132
0.320029 0.483993 0.058218
0.380387 0.484434 0.059276
0.439522 0.484852 0.060312
0.497663 0.485252 0.061329
0.554966 0.485637 0.062332
0.612419 0.486476 0.063363
0.669609 0.487514 0.064401
0.726214 0.488542 0.065428
0.782294 0.489560 0.066446
0.837899 0.490569 0.067456
0.893069 0.491570 0.068457
0.947839 0.492565 0.069451
0.965016 0.492876 0.069763
0.965016 0.492876 0.069763
0.965016 0.492876 0.069763
0.965016 0.492876 0.069763
0.256949 0.542504 0.060506
0.319018 0.542985 0.061596
0.379550 0.543472 0.062659
0.440078 0.544571 0.063758
0.499557 0.545650 0.064838
0.558159 0.546714 0.065901
0.616008 0.547764 0.066951
0.673197 0.548802 0.067989
0.729802 0.549830 0.069017
0.785883 0.550848 0.070035
0.841487 0.551857 0.071044
0.896657 0.552858 0.072045
0.951427 0.553852 0.073040
0.968605 0.554164 0.073351
0.968605 0.554164 0.073351
0.968605 0.554164 0.073351
0.968605 0.554164 0.073351
0.257748 0.601676 0.063925
0.321265 0.602829 0.065078
0.383091 0.603951 0.066200
0.443619 0.605050 0.067299
0.503098 0.606130 0.068379
0.561700 0.607193 0.069442
0.619549 0.608243 0.070492
0.676738 0.609281 0.071530
0.733344 0.610309 0.072558
0.789424 0.611327 0.073576
0.845029 0.612336 0.074585
0.900198 0.613337 0.075587
0.954968 0.614332 0.076581
0.972146 0.614643 0.076893
0.972146 0.614643 0.076893
0.972146 0.614643 0.076893
0.972146 0.614643 0.076893
0.261247 0.661451 0.067425
0.324765 0.662603 0.068578
0.386590 0.663726 0.069700
0.447119 0.664824 0.070799
0.506598 0.665904 0.071878
0.565200 0.666968 0.072942
0.623048 0.668018 0.073992
0.680238 0.669056 0.075030
0.736843 0.670083 0.076058
0.792924 0.671101 0.077076
0.848528 0.672110 0.078085
0.904352 0.673354 0.079111
0.960006 0.674680 0.080140
0.975696 0.675281 0.080443
0.975701 0.675359 0.080447
0.975701 0.675359 0.080447
0.975701 0.675359 0.080447
0.264711 0.720601 0.070888
0.328228 0.721754 0.072041
0.390054 0.722876 0.073163
0.450582 0.723975 0.074262
0.510062 0.725055 0.075342
0.568663 0.726118 0.076405
0.626512 0.727168 0.077455
0.683789 0.728238 0.078497
0.741310 0.729594 0.079559
0.798290 0.730941 0.080611
0.854780 0.732279 0.081654
0.910824 0.733609 0.082690
0.966457 0.734931 0.083718
0.979221 0.735475 0.083967
0.979225 0.735552 0.083972
0.979225 0.735552 0.083972
0.979225 0.735552 0.083972
0.268141 0.779193 0.074319
0.331659 0.780346 0.075472
0.393484 0.781468 0.076594
0.454013 0.782567 0.077693
0.513932 0.783797 0.078788
0.573474 0.785187 0.079887
0.632241 0.786563 0.080972
0.690331 0.787927 0.082044
0.747822 0.789281 0.083105
0.804774 0.790624 0.084157
0.861240 0.791959 0.085199
0.917261 0.793285 0.086234
0.972873 0.794604 0.087261
0.982711 0.795092 0.087458
0.982716 0.795169 0.087462
0.982716 0.795169 0.087462
0.982716 0.795169 0.087462
0.271542 0.837279 0.077720
0.335895 0.838700 0.078902
0.398694 0.840147 0.080060
0.460162 0.841570 0.081193
0.520557 0.842973 0.082307
0.580055 0.844360 0.083405
0.638784 0.845733 0.084489
0.696841 0.847094 0.085560
0.754301 0.848444 0.086621
0.811227 0.849785 0.087672
0.867668 0.851116 0.088714
0.923667 0.852440 0.089748
0.979258 0.853756 0.090775
0.986171 0.854188 0.090918
0.986176 0.854264 0.090922
0.986176 0.854264 0.090922
0.986176 0.854264 0.090922
0.278250 0.895936 0.081210
0.342683 0.897410 0.082397
0.405403 0.898853 0.083553
0.466809 0.900273 0.084685
0.527152 0.901673 0.085798
0.586607 0.903057 0.086895
0.645298 0.904427 0.087978
0.703321 0.905785 0.089048
0.760752 0.907132 0.090108
0.817651 0.908469 0.091159
0.874067 0.909798 0.092200
0.930043 0.911118 0.093234
0.985613 0.912432 0.094260
0.989603 0.912809 0.094350
0.989608 0.912884 0.094355
0.989608 0.912884 0.094355
0.989608 0.912884 0.094355
0.285112 0.954211 0.084681
0.349440 0.955682 0.085866
0.412082 0.957121 0.087021
0.473427 0.958537 0.088152
0.533719 0.959934 0.089263
0.593130 0.961315 0.090359
0.651784 0.962682 0.091441
0.709774 0.964037 0.092511
0.767175 0.965382 0.093571
0.824047 0.966716 0.094620
0.880440 0.968042 0.095661
0.936393 0.969361 0.096694
0.991943 0.970671 0.097720
0.993010 0.970993 0.097757
0.993014 0.971068 0.097761
0.993014 0.971068 0.097761
0.993014 0.971068 0.097761
0.290158 0.981597 0.086343
0.354366 0.982762 0.087509
0.416914 0.983898 0.088644
0.478180 0.985010 0.089756
0.538405 0.986103 0.090849
0.597755 0.987180 0.091927
0.656354 0.988244 0.092990
0.714293 0.989295 0.094042
0.771648 0.990336 0.095083
0.828476 0.991368 0.096115
0.884826 0.992391 0.097137
0.940740 0.993406 0.098152
0.994379 0.994379 0.099126
0.994379 0.994379 0.099126
0.994379 0.994379 0.099126
0.994379 0.994379 0.099126
0.994379 0.994379 0.099126
0.261475 0.031156 0.031156
0.322637 0.032267 0.032267
0.382413 0.033352 0.033352
0.441088 0.034417 0.034417
0.498849 0.035465 0.035465
0.555833 0.036499 0.036499
0.612142 0.037522 0.037522
0.667854 0.038533 0.038533
0.723033 0.039534 0.039534
0.777729 0.040527 0.040527
0.831985 0.041512 0.041512
0.885838 0.042490 0.042490
0.938702 0.043449 0.043449
0.938702 0.043449 0.043449
0.938702 0.043449 0.043449
0.938702 0.043449 0.043449
0.938702 0.043449 0.043449
0.263041 0.100579 0.035178
0.324219 0.100883 0.036242
0.383998 0.101159 0.037281
0.442665 0.101415 0.038299
0.500413 0.101653 0.039301
0.557379 0.101875 0.040288
0.613665 0.102084 0.041263
0.669353 0.102281 0.042227
0.724504 0.102467 0.043181
0.779171 0.102644 0.044127
0.833396 0.102811 0.045064
0.887217 0.102969 0.045994
0.940663 0.103119 0.046917
0.942150 0.102325 0.046896
0.942138 0.102121 0.046884
0.942138 0.102121 0.046884
0.942138 0.102121 0.046884
0.262607 0.170630 0.039202
0.323907 0.170996 0.040272
0.383780 0.171335 0.041316
0.442524 0.171654 0.042339
0.500338 0.171955 0.043345
0.557361 0.172242 0.044337
0.613698 0.172516 0.045317
0.669431 0.172778 0.046285
0.724623 0.173030 0.047244
0.779327 0.173272 0.048194
0.833588 0.173506 0.049135
0.887441 0.173733 0.050070
0.940918 0.173951 0.050997
0.946305 0.173297 0.051052
0.946294 0.173110 0.051041
0.946294 0.173110 0.051041
0.946294 0.173110 0.051041
0.261936 0.236788 0.042998
0.323357 0.237188 0.044072
0.383325 0.237561 0.045119
0.442146 0.237913 0.046146
0.500024 0.238247 0.047155
0.557103 0.238567 0.048150
0.613489 0.238874 0.049132
0.669265 0.239170 0.050103
0.724497 0.239455 0.051065
0.779238 0.239732 0.052017
0.833531 0.240000 0.052961
0.887415 0.240260 0.053898
0.940920 0.240513 0.054828
0.950208 0.239963 0.054955
0.950198 0.239784 0.054945
0.950198 0.239784 0.054945
0.950198 0.239784 0.054945
0.261117 0.300614 0.046657
0.322663 0.301037 0.047734
0.382726 0.301433 0.048785
0.441624 0.301808 0.049814
0.499567 0.302165 0.050826
0.556702 0.302508 0.051823
0.613137 0.302837 0.052807
0.668956 0.303155 0.053780
0.724227 0.303463 0.054743
0.779003 0.303762 0.055698
0.833330 0.304052 0.056644
0.887243 0.304335 0.057582
0.940777 0.304611 0.058514
0.953967 0.304154 0.058713
0.953957 0.303981 0.058703
0.953957 0.303981 0.058703
0.953957 0.303981 0.058703
0.260191 0.362783 0.050219
0.321863 0.363224 0.051299
0.382023 0.363638 0.052352
0.440999 0.364030 0.053384
0.499008 0.364405 0.054398
0.556198 0.364764 0.055397
0.612682 0.365110 0.056383
0.668545 0.365445 0.057358
0.723855 0.365770 0.058323
0.778667 0.366086 0.059279
0.833025 0.366393 0.060226
0.886969 0.366693 0.061166
0.940530 0.366985 0.062099
0.957662 0.367270 0.062409
0.957662 0.367270 0.062409
0.957662 0.367270 0.062409
0.957662 0.367270 0.062409
0.259179 0.423673 0.053706
0.320981 0.424129 0.054789
0.381239 0.424557 0.055845
0.440294 0.424964 0.056878
0.498368 0.425352 0.057894
0.555615 0.425725 0.058895
0.612148 0.426085 0.059883
0.668055 0.426434 0.060859
0.723404 0.426772 0.061826
0.778651 0.427325 0.062803
0.834255 0.428335 0.063812
0.889425 0.429336 0.064813
0.944195 0.430330 0.065807
0.961373 0.430642 0.066119
0.961373 0.430642 0.066119
0.961373 0.430642 0.066119
0.961373 0.430642 0.066119
0.258095 0.483524 0.057132
0.320029 0.483993 0.058218
0.380387 0.484434 0.059276
0.439522 0.484852 0.060312
0.497663 0.485252 0.061329
0.554966 0.485637 0.062332
0.612419 0.486476 0.063363
0.669609 0.487514 0.064401
0.726214 0.488542 0.065428
0.782294 0.489560 0.066446
0.837899 0.490569 0.067456
0.893069 0.491570 0.068457
0.947839 0.492565 0.069451
0.965016 0.492876 0.069763
0.965016 0.492876 0.069763
0.965016 0.492876 0.069763
0.965016 0.492876 0.069763
0.256949 0.542504 0.060506
0.319018 0.542985 0.061596
0.379550 0.543472 0.062659
0.440078 0.544571 0.063758
0.499557 0.545650 0.064838
0.558159 0.546714 0.065901
0.616008 0.547764 0.066951
0.673197 0.548802 0.067989
0.729802 0.549830 0.069017
0.785883 0.550848 0.070035
0.841487 0.551857 0.071044
0.896657 0.552858 0.072045
0.951427 0.553852 0.073040
0.968605 0.554164 0.073351
0.968605 0.554164 0.073351
0.968605 0.554164 0.073351
0.968605 0.554164 0.073351
0.257748 0.601676 0.063925
0.321265 0.602829 0.065078
0.383091 0.603951 0.066200
0.443619 0.605050 0.067299
0.503098 0.606130 0.068379
0.561700 0.607193 0.069442
0.619549 0.608243 0.070492
0.676738 0.609281 0.071530
0.733344 0.610309 0.072558
0.789424 0.611327 0.073576
0.845029 0.612336 0.074585
0.900198 0.613337 0.075587
0.954968 0.614332 0.076581
0.972146 0.614643 0.076893
0.972146 0.614643 0.076893
0.972146 0.614643 0.076893
0.972146 0.614643 0.076893
0.261247 0.661451 0.067425
0.324765 0.662603 0.068578
0.386590 0.663726 0.069700
0.447119 0.664824 0.070799
0.506598 0.665904 0.071878
0.565200 0.666968 0.072942
0.623048 0.668018 0.073992
0.680238 0.669056 0.075030
0.736843 0.670083 0.076058
0.792924 0.671101 0.077076
0.848528 0.672110 0.078085
0.904352 0.673354 0.079111
0.960006 0.674680 0.080140
0.975696 0.675281 0.080443
0.975701 0.675359 0.080447
0.975701 0.675359 0.080447
0.975701 0.675359 0.080447
0.264711 0.720601 0.070888
0.328228 0.721754 0.072041
0.390054 0.722876 0.073163
0.450582 0.723975 0.074262
0.510062 0.725055 0.075342
0.568663 0.726118 0.076405
0.626512 0.727168 0.077455
0.683789 0.728238 0.078497
0.741310 0.729594 0.079559
0.798290 0.730941 0.080611
0.854780 0.732279 0.081654
0.910824 0.733609 0.082690
0.966457 0.734931 0.083718
0.979221 0.735475 0.083967
0.979225 0.735552 0.083972
0.979225 0.735552 0.083972
0.979225 0.735552 0.083972
0.268141 0.779193 0.074319
0.331659 0.780346 0.075472
0.393484 0.781468 0.076594
0.454013 0.782567 0.077693
0.513932 0.783797 0.078788
0.573474 0.785187 0.079887
0.632241 0.786563 0.080972
0.690331 0.787927 0.082044
0.747822 0.789281 0.083105
0.804774 0.790624 0.084157
0.861240 0.791959 0.085199
0.917261 0.793285 0.086234
0.972873 0.794604 0.087261
0.982711 0.795092 0.087458
0.982716 0.795169 0.087462
0.982716 0.795169 0.087462
0.982716 0.795169 0.087462
0.271542 0.837279 0.077720
0.335895 0.838700 0.078902
0.398694 0.840147 0.080060
0.460162 0.841570 0.081193
0.520557 0.842973 0.082307
0.580055 0.844360 0.083405
0.638784 0.845733 0.084489
0.696841 0.847094 0.085560
0.754301 0.848444 0.086621
0.811227 0.849785 0.087672
0.867668 0.851116 0.088714
0.923667 0.852440 0.089748
0.979258 0.853756 0.090775
0.986171 0.854188 0.090918
0.986176 0.854264 0.090922
0.986176 0.854264 0.090922
0.986176 0.854264 0.090922
0.278250 0.895936 0.081210
0.342683 0.897410 0.082397
0.405403 0.898853 0.083553
0.466809 0.900273 0.084685
0.527152 0.901673 0.085798
0.586607 0.903057 0.086895
0.645298 0.904427 0.087978
0.703321 0.905785 0.089048
0.760752 0.907132 0.090108
0.817651 0.908469 0.091159
0.874067 0.909798 0.092200
0.930043 0.911118 0.093234
0.985613 0.912432 0.094260
0.989603 0.912809 0.094350
0.989608 0.912884 0.094355
0.989608 0.912884 0.094355
0.989608 0.912884 0.094355
0.285112 0.954211 0.084681
0.349440 0.955682 0.085866
0.412082 0.957121 0.087021
0.473427 0.958537 0.088152
0.533719 0.959934 0.089263
0.593130 0.961315 0.090359
0.651784 0.962682 0.091441
0.709774 0.964037 0.092511
0.767175 0.965382 0.093571
0.824047 0.966716 0.094620
0.880440 0.968042 0.095661
0.936393 0.969361 0.096694
0.991943 0.970671 0.097720
0.993010 0.970993 0.097757
0.993014 0.971068 0.097761
0.993014 0.971068 0.097761
0.993014 0.971068 0.097761
0.290158 0.981597 0.086343
0.354366 0.982762 0.087509
0.416914 0.983898 0.088644
0.478180 0.985010 0.089756
0.538405 0.986103 0.090849
0.597755 0.987180 0.091927
0.656354 0.988244 0.092990
0.714293 0.989295 0.094042
0.771648 0.990336 0.095083
0.828476 0.991368 0.096115
0.884826 0.992391 0.097137
0.940740 0.993406 0.098152
0.994379 0.994379 0.099126
0.994379 0.994379 0.099126
0.994379 0.994379 0.099126
0.994379 0.994379 0.099126
0.994379 0.994379 0.099126
0.261373 0.031338 0.061130
0.322548 0.032454 0.063074
0.382335 0.033544 0.064990
0.441019 0.034614 0.066884
0.498789 0.035668 0.068759
0.555782 0.036708 0.070617
0.612099 0.037735 0.072461
0.667819 0.038751 0.074292
0.723005 0.039758 0.076111
0.777708 0.040756 0.077920
0.831972 0.041746 0.079718
0.885832 0.042728 0.081508
0.938951 0.043698 0.083281
0.938956 0.043703 0.084089
0.938957 0.043704 0.084290
0.938957 0.043704 0.084290
0.938957 0.043704 0.084290
0.262938 0.100597 0.066688
0.324129 0.100906 0.068581
