assets/luts/butter.cube
# MoodFilm Filter — butter
TITLE "butter"
LUT_3D_SIZE 5
0.261475 0.031156 0.031156
0.498849 0.035465 0.035465
0.723033 0.039534 0.039534
0.938702 0.043449 0.043449
0.938702 0.043449 0.043449
0.261117 0.300614 0.046657
0.499567 0.302165 0.050826
0.724227 0.303463 0.054743
0.940777 0.304611 0.058514
0.953957 0.303981 0.058703
0.256949 0.542504 0.060506
0.499557 0.545650 0.064838
0.729802 0.549830 0.069017
0.951427 0.553852 0.073040
0.968605 0.554164 0.073351
0.268141 0.779193 0.074319
0.513932 0.783797 0.078788
0.747822 0.789281 0.083105
0.972873 0.794604 0.087261
0.982716 0.795169 0.087462
0.290158 0.981597 0.086343
0.538405 0.986103 0.090849
0.771648 0.990336 0.095083
0.994379 0.994379 0.099126
0.994379 0.994379 0.099126
0.261369 0.031783 0.133687
0.498816 0.036111 0.140905
0.723047 0.040198 0.147875
0.939371 0.044143 0.154692
0.939402 0.044149 0.155592
0.261036 0.300909 0.157827
0.499563 0.302479 0.164880
0.724272 0.303795 0.171673
0.940859 0.304960 0.178310
0.954687 0.304347 0.179404
0.256923 0.542886 0.181344
0.500318 0.546411 0.186705
0.730563 0.550590 0.190884
0.952187 0.554613 0.194907
0.969365 0.554925 0.195219
0.268901 0.779953 0.196186
0.515224 0.784738 0.200675
0.749089 0.790222 0.204991
0.974125 0.795545 0.209147
0.983486 0.796101 0.209339
0.291486 0.982367 0.208221
0.539685 0.986873 0.212726
0.772904 0.991106 0.216959
0.995140 0.995140 0.220993
0.995140 0.995140 0.220993
0.261116 0.033327 0.386579
0.498699 0.037655 0.393427
0.723000 0.041742 0.400033
0.939369 0.045685 0.406492
0.940973 0.045719 0.407311
0.260707 0.301503 0.409572
0.499378 0.303072 0.416274
0.724158 0.304386 0.422722
0.940792 0.305549 0.429020
0.956196 0.304964 0.430037
0.256572 0.543537 0.431930
0.501876 0.547969 0.436403
0.732121 0.552148 0.440582
0.953745 0.556171 0.444605
0.970923 0.556482 0.444916
0.270459 0.781511 0.445884
0.518084 0.786740 0.450421
0.751891 0.792223 0.454736
0.976889 0.797545 0.458891
0.985069 0.798080 0.459062
0.294433 0.983951 0.457944
0.542517 0.988454 0.462447
0.775679 0.992686 0.466679
0.996698 0.996698 0.470691
0.996698 0.996698 0.470691
0.260734 0.034744 0.618911
0.498454 0.039074 0.625625
0.722826 0.043161 0.632095
0.939243 0.047104 0.638419
0.942419 0.047166 0.639224
0.260252 0.301972 0.641440
0.499069 0.303543 0.648011
0.723923 0.304856 0.654326
0.940605 0.306018 0.660492
0.957626 0.306236 0.660874
0.257964 0.544954 0.662643
0.503315 0.549408 0.667096
0.733560 0.553587 0.671276
0.955185 0.557610 0.675298
0.972362 0.557922 0.675610
0.271899 0.782951 0.676578
0.520825 0.788624 0.681162
0.754574 0.794105 0.685477
0.979534 0.799427 0.689631
0.986532 0.799940 0.689780
0.297261 0.985415 0.688663
0.545229 0.989916 0.693164
0.778335 0.994147 0.697395
0.998137 0.998137 0.701385
0.998137 0.998137 0.701385
0.260287 0.036098 0.841173
0.498147 0.040429 0.847805
0.722590 0.044517 0.854193
0.939054 0.048461 0.860435
0.943805 0.048551 0.861243
0.259733 0.302380 0.863397
0.498698 0.303951 0.869887
0.723626 0.305264 0.876121
0.941827 0.307303 0.881573
0.959005 0.307615 0.881885
0.259343 0.546333 0.883653
0.504694 0.550787 0.888107
0.734939 0.554966 0.892286
0.956563 0.558989 0.896309
0.973758 0.559585 0.896637
0.274417 0.784687 0.897628
0.523506 0.790447 0.902221
0.757196 0.795927 0.906534
0.982118 0.801248 0.910688
0.987936 0.801740 0.910816
0.300028 0.986819 0.909699
0.547881 0.991318 0.914198
0.780930 0.995548 0.918428
0.999516 0.999516 0.922395
0.999516 0.999516 0.922395
