assets/luts/cafe_mood.cube
# MoodFilm Filter — cafe_mood
TITLE "cafe_mood"
LUT_3D_SIZE 9
0.263799 0.095409 0.095409
0.355418 0.099232 0.099232
0.443967 0.102926 0.102926
0.530364 0.106532 0.106532
0.615112 0.110068 0.110068
0.698527 0.113549 0.113549
0.780826 0.116983 0.116983
0.822542 0.118723 0.118723
0.822542 0.118723 0.118723
0.271150 0.205016 0.109170
0.362894 0.207661 0.112852
0.451471 0.210174 0.116403
0.537850 0.212593 0.119861
0.622551 0.214941 0.123249
0.705901 0.217231 0.126581
0.788120 0.219472 0.129866
0.835560 0.220614 0.131742
0.835560 0.220614 0.131742
0.275767 0.308565 0.122085
0.367893 0.311302 0.125793
0.456720 0.313901 0.129363
0.543285 0.316405 0.132839
0.628135 0.318837 0.136243
0.711608 0.321211 0.139589
0.793934 0.323536 0.142888
0.848904 0.325048 0.145086
0.848904 0.325048 0.145086
0.279701 0.407127 0.134361
0.372224 0.409921 0.138091
0.461305 0.412572 0.141677
0.548055 0.415125 0.145165
0.633051 0.417605 0.148581
0.718048 0.420706 0.152072
0.802836 0.424244 0.155610
0.861893 0.426708 0.158075
0.861893 0.426708 0.158075
0.283195 0.502628 0.146245
0.376134 0.505468 0.149995
0.467880 0.509242 0.153817
0.557249 0.512971 0.157546
0.644747 0.516622 0.161197
0.730762 0.520211 0.164786
0.815550 0.523749 0.168324
0.874607 0.526213 0.170789
0.874607 0.526213 0.170789
0.292714 0.598547 0.158400
0.388406 0.602540 0.162393
0.480291 0.606374 0.166227
0.569659 0.610103 0.169957
0.657158 0.613754 0.173608
0.743172 0.617343 0.177197
0.828715 0.621312 0.180815
0.887115 0.624107 0.183296
0.887115 0.624107 0.183296
0.304891 0.693852 0.170577
0.400583 0.697845 0.174570
0.492621 0.701760 0.178420
0.582989 0.706030 0.182252
0.671453 0.710221 0.186005
0.758409 0.714349 0.189695
0.844119 0.718425 0.193333
0.899506 0.721088 0.195688
0.899506 0.721088 0.195688
0.318557 0.788491 0.182727
0.415226 0.793017 0.186821
0.508055 0.797383 0.190756
0.598347 0.801643 0.194584
0.686750 0.805824 0.198333
0.773657 0.809943 0.202020
0.859326 0.814010 0.205656
0.911702 0.816542 0.207884
0.911702 0.816542 0.207884
0.334106 0.882854 0.194912
0.430601 0.887367 0.198998
0.523323 0.891723 0.202927
0.613538 0.895973 0.206751
0.701882 0.900146 0.210497
0.788740 0.904256 0.214182
0.874368 0.908316 0.217815
0.923735 0.910718 0.219917
0.923735 0.910718 0.219917
0.263799 0.095409 0.095409
0.355418 0.099232 0.099232
0.443967 0.102926 0.102926
0.530364 0.106532 0.106532
0.615112 0.110068 0.110068
0.698527 0.113549 0.113549
0.780826 0.116983 0.116983
0.822542 0.118723 0.118723
0.822542 0.118723 0.118723
0.271150 0.205016 0.109170
0.362894 0.207661 0.112852
0.451471 0.210174 0.116403
0.537850 0.212593 0.119861
0.622551 0.214941 0.123249
0.705901 0.217231 0.126581
0.788120 0.219472 0.129866
0.835560 0.220614 0.131742
0.835560 0.220614 0.131742
0.275767 0.308565 0.122085
0.367893 0.311302 0.125793
0.456720 0.313901 0.129363
0.543285 0.316405 0.132839
0.628135 0.318837 0.136243
0.711608 0.321211 0.139589
0.793934 0.323536 0.142888
0.848904 0.325048 0.145086
0.848904 0.325048 0.145086
0.279701 0.407127 0.134361
0.372224 0.409921 0.138091
0.461305 0.412572 0.141677
0.548055 0.415125 0.145165
0.633051 0.417605 0.148581
0.718048 0.420706 0.152072
0.802836 0.424244 0.155610
0.861893 0.426708 0.158075
0.861893 0.426708 0.158075
0.283195 0.502628 0.146245
0.376134 0.505468 0.149995
0.467880 0.509242 0.153817
0.557249 0.512971 0.157546
0.644747 0.516622 0.161197
0.730762 0.520211 0.164786
0.815550 0.523749 0.168324
0.874607 0.526213 0.170789
0.874607 0.526213 0.170789
0.292714 0.598547 0.158400
0.388406 0.602540 0.162393
0.480291 0.606374 0.166227
0.569659 0.610103 0.169957
0.657158 0.613754 0.173608
0.743172 0.617343 0.177197
0.828715 0.621312 0.180815
0.887115 0.624107 0.183296
0.887115 0.624107 0.183296
0.304891 0.693852 0.170577
0.400583 0.697845 0.174570
0.492621 0.701760 0.178420
0.582989 0.706030 0.182252
0.671453 0.710221 0.186005
0.758409 0.714349 0.189695
0.844119 0.718425 0.193333
0.899506 0.721088 0.195688
0.899506 0.721088 0.195688
0.318557 0.788491 0.182727
0.415226 0.793017 0.186821
0.508055 0.797383 0.190756
0.598347 0.801643 0.194584
0.686750 0.805824 0.198333
0.773657 0.809943 0.202020
0.859326 0.814010 0.205656
0.911702 0.816542 0.207884
0.911702 0.816542 0.207884
0.334106 0.882854 0.194912
0.430601 0.887367 0.198998
0.523323 0.891723 0.202927
0.613538 0.895973 0.206751
0.701882 0.900146 0.210497
0.788740 0.904256 0.214182
0.874368 0.908316 0.217815
0.923735 0.910718 0.219917
0.923735 0.910718 0.219917
0.264233 0.096588 0.178536
0.355899 0.100428 0.183428
0.444484 0.104139 0.188190
0.530912 0.107760 0.192861
0.615688 0.111313 0.197461
0.699129 0.114809 0.202005
0.781451 0.118259 0.206500
0.823858 0.120039 0.209016
0.823858 0.120039 0.209016
0.271575 0.205874 0.195035
0.363367 0.208536 0.199783
0.451981 0.211064 0.204397
0.538391 0.213499 0.208918
0.623120 0.215862 0.213367
0.706495 0.218168 0.217758
0.788739 0.220425 0.222101
0.836870 0.221605 0.224750
0.836870 0.221605 0.224750
0.276243 0.309498 0.211528
0.368419 0.312252 0.216297
0.457284 0.314867 0.220927
0.543880 0.317387 0.225461
0.628758 0.319834 0.229921
0.712256 0.322224 0.234323
0.794607 0.324565 0.238676
0.850268 0.326116 0.241644
0.850268 0.326116 0.241644
0.280226 0.408124 0.227366
0.372801 0.410935 0.232153
0.461920 0.413602 0.236795
0.548702 0.416171 0.241337
0.633727 0.418667 0.245806
0.719468 0.422126 0.249487
0.804256 0.425664 0.253025
0.863313 0.428128 0.255489
0.863313 0.428128 0.255489
0.283768 0.503686 0.242798
0.377415 0.506827 0.247397
0.469300 0.510661 0.251231
0.558668 0.514390 0.254961
0.646167 0.518041 0.258612
0.732181 0.521631 0.262201
0.816970 0.525169 0.265739
0.876027 0.527633 0.268203
0.876027 0.527633 0.268203
0.294133 0.599966 0.255815
0.389826 0.603959 0.259808
0.481710 0.607793 0.263642
0.571079 0.611523 0.267371
0.658577 0.615174 0.271022
0.744679 0.618812 0.274621
0.830427 0.622898 0.278261
0.888554 0.625682 0.280731
0.888554 0.625682 0.280731
0.306310 0.695271 0.267992
0.402003 0.699264 0.271985
0.494353 0.703344 0.275866
0.584714 0.707615 0.279699
0.673173 0.711805 0.283451
0.760124 0.715933 0.287141
0.845830 0.720009 0.290779
0.900945 0.722661 0.293122
0.900945 0.722661 0.293122
0.320313 0.790074 0.280174
0.416967 0.794600 0.284268
0.509787 0.798966 0.288202
0.600071 0.803225 0.292030
0.688469 0.807406 0.295779
0.775371 0.811525 0.299466
0.861037 0.815592 0.303101
0.913141 0.818113 0.305318
0.913141 0.818113 0.305318
0.335862 0.884436 0.292359
0.432341 0.888948 0.296444
0.525054 0.893303 0.300373
0.615261 0.897553 0.304197
0.703600 0.901726 0.307943
0.790454 0.905836 0.311627
0.876079 0.909895 0.315260
0.925174 0.912286 0.317350
0.925174 0.912286 0.317350
0.264771 0.097959 0.275095
0.356472 0.101799 0.279910
0.445079 0.105511 0.284596
0.531524 0.109132 0.289191
0.616312 0.112683 0.293717
0.699763 0.116179 0.298186
0.782094 0.119629 0.302607
0.825258 0.121439 0.305103
0.825258 0.121439 0.305103
0.272055 0.206839 0.291340
0.363883 0.209501 0.296014
0.452520 0.212028 0.300554
0.538947 0.214462 0.305001
0.623689 0.216825 0.309376
0.707074 0.219129 0.313695
0.789326 0.221385 0.317966
0.838215 0.222596 0.320596
0.838215 0.222596 0.320596
0.276719 0.310484 0.307584
0.368932 0.313239 0.312281
0.457821 0.315854 0.316839
0.544434 0.318373 0.321302
0.629325 0.320820 0.325692
0.712834 0.323209 0.330023
0.795193 0.325549 0.334307
0.851614 0.327131 0.337257
0.851614 0.327131 0.337257
0.280695 0.409121 0.323179
0.373309 0.411933 0.327897
0.462453 0.414599 0.332469
0.549253 0.417168 0.336943
0.634841 0.419925 0.341172
0.720856 0.423514 0.344761
0.805644 0.427052 0.348299
0.864701 0.429516 0.350764
0.864701 0.429516 0.350764
0.284229 0.504688 0.338376
0.378803 0.508216 0.342672
0.470688 0.512050 0.346506
0.560057 0.515779 0.350235
0.647555 0.519430 0.353886
0.733570 0.523019 0.357475
0.818358 0.526557 0.361013
0.877415 0.529021 0.363478
0.877415 0.529021 0.363478
0.295522 0.601355 0.351089
0.391214 0.605348 0.355082
0.483099 0.609182 0.358916
0.572467 0.612911 0.362646
0.659966 0.616562 0.366297
0.746398 0.620387 0.369930
0.832142 0.624473 0.373571
0.889965 0.627244 0.376027
0.889965 0.627244 0.376027
0.307699 0.696660 0.363266
0.403391 0.700653 0.367259
0.496089 0.704917 0.371176
0.586443 0.709187 0.375008
0.674896 0.713377 0.378760
0.761842 0.717505 0.382450
0.847544 0.721581 0.386088
0.902355 0.724219 0.388418
0.902355 0.724219 0.388418
0.322078 0.791646 0.375485
0.418714 0.796171 0.379578
0.511523 0.800536 0.383511
0.601799 0.804795 0.387339
0.690192 0.808976 0.391088
0.777089 0.813094 0.394774
0.862750 0.817161 0.398409
0.914551 0.819669 0.400614
0.914551 0.819669 0.400614
0.337625 0.886005 0.387669
0.434087 0.890517 0.391754
0.526789 0.894871 0.395682
0.616989 0.899121 0.399506
0.705323 0.903293 0.403251
0.792171 0.907403 0.406935
0.877792 0.911462 0.410568
0.926583 0.913841 0.412646
0.926583 0.913841 0.412646
0.265234 0.099255 0.366500
0.356970 0.103097 0.371278
0.445600 0.106808 0.375925
0.532061 0.110429 0.380482
0.616863 0.113981 0.384970
0.700324 0.117477 0.389401
0.782665 0.120926 0.393784
0.826587 0.122768 0.396284
0.826587 0.122768 0.396284
0.272462 0.207729 0.382591
0.364326 0.210392 0.387228
0.452987 0.212919 0.391730
0.539430 0.215353 0.396139
0.624185 0.217715 0.400477
0.707581 0.220019 0.404758
0.789843 0.222274 0.408992
0.839491 0.223516 0.411627
0.839491 0.223516 0.411627
0.277122 0.311399 0.398708
0.369374 0.314154 0.403369
0.458287 0.316769 0.407890
0.544917 0.319289 0.412316
0.629822 0.321735 0.416669
0.713342 0.324124 0.420964
0.795710 0.326464 0.425210
0.852891 0.328077 0.428166
0.852891 0.328077 0.428166
0.281093 0.410047 0.414178
0.373748 0.412860 0.418860
0.462917 0.415527 0.423396
0.549735 0.418096 0.427833
0.636162 0.421245 0.431792
0.722176 0.424835 0.435382
0.806965 0.428373 0.438920
0.866022 0.430837 0.441384
0.866022 0.430837 0.441384
0.284622 0.505622 0.429250
0.380124 0.509536 0.433292
0.472009 0.513370 0.437126
0.561377 0.517099 0.440855
0.648876 0.520750 0.444506
0.734890 0.524340 0.448095
0.819679 0.527878 0.451633
0.878735 0.530342 0.454098
0.878735 0.530342 0.454098
0.296842 0.602675 0.441709
0.392535 0.606668 0.445703
0.484419 0.610502 0.449537
0.573788 0.614232 0.453266
0.661286 0.617883 0.456917
0.748048 0.621894 0.460585
0.833788 0.625980 0.464226
0.891307 0.628738 0.466670
0.891307 0.628738 0.466670
0.309019 0.697980 0.453887
0.404852 0.702045 0.457894
0.497758 0.706422 0.461832
0.588104 0.710691 0.465663
0.676551 0.714882 0.469415
0.763492 0.719009 0.473105
0.849191 0.723085 0.476742
0.903698 0.725711 0.479060
0.903698 0.725711 0.479060
0.323775 0.793149 0.466141
0.420393 0.797673 0.470234
0.513191 0.802038 0.474166
0.603460 0.806297 0.477994
0.691847 0.810478 0.481743
0.778739 0.814596 0.485429
0.864396 0.818662 0.489064
0.915893 0.821158 0.491255
0.915893 0.821158 0.491255
0.339321 0.887506 0.478325
0.435765 0.892017 0.482409
0.528457 0.896371 0.486337
0.618650 0.900621 0.490160
0.706977 0.904793 0.493906
0.793821 0.908903 0.497590
0.879437 0.912962 0.501222
0.927925 0.915327 0.503287
0.927925 0.915327 0.503287
0.265653 0.100508 0.454891
0.357424 0.104350 0.459644
0.446077 0.108062 0.464267
0.532556 0.111684 0.468798
0.617370 0.115236 0.473260
0.700843 0.118732 0.477666
0.783192 0.122181 0.482025
0.827873 0.124054 0.484538
0.827873 0.124054 0.484538
0.272824 0.208576 0.470862
0.364726 0.211240 0.475474
0.453410 0.213767 0.479952
0.539871 0.216201 0.484336
0.624639 0.218563 0.488649
0.708046 0.220866 0.492905
0.790317 0.223121 0.497113
0.840724 0.224394 0.499762
0.840724 0.224394 0.499762
0.277482 0.312271 0.486896
0.369773 0.315027 0.491533
0.458710 0.317642 0.496029
0.545358 0.320162 0.500430
0.630277 0.322609 0.504759
0.713808 0.324997 0.509029
0.796186 0.327337 0.513251
0.854158 0.329253 0.516029
0.854158 0.329253 0.516029
0.281449 0.410931 0.502282
0.374145 0.413746 0.506940
0.463339 0.416413 0.511451
0.550175 0.418982 0.515865
0.637441 0.422525 0.519580
0.723456 0.426114 0.523169
0.808244 0.429652 0.526707
0.867301 0.432116 0.529172
0.867301 0.432116 0.529172
0.285711 0.506822 0.517087
0.381403 0.510815 0.521080
0.473288 0.514649 0.524914
0.562657 0.518379 0.528643
0.650155 0.522030 0.532294
0.736169 0.525619 0.535883
0.820958 0.529157 0.539421
0.880015 0.531621 0.541885
0.880015 0.531621 0.541885
0.298121 0.603955 0.529497
0.393814 0.607948 0.533490
0.485698 0.611782 0.537324
0.575067 0.615511 0.541053
0.662672 0.619221 0.544716
0.749658 0.623359 0.548408
0.835394 0.627445 0.552048
0.892609 0.630190 0.554480
0.892609 0.630190 0.554480
0.310299 0.699260 0.541674
0.406491 0.703509 0.545717
0.499386 0.707885 0.549655
0.589724 0.712155 0.553486
0.678165 0.716345 0.557238
0.765101 0.720472 0.560927
0.850795 0.724547 0.564564
0.904999 0.727160 0.566869
0.904999 0.727160 0.566869
0.325430 0.794611 0.553965
0.422031 0.799135 0.558057
0.514818 0.803499 0.561989
0.605079 0.807758 0.565816
0.693460 0.811938 0.569565
0.780348 0.816056 0.573251
0.866001 0.820122 0.576886
0.917194 0.822605 0.579064
0.917194 0.822605 0.579064
0.340975 0.888967 0.566149
0.437402 0.893477 0.570232
0.530083 0.897830 0.574159
0.620268 0.902080 0.577982
0.708590 0.906251 0.581728
0.795429 0.910361 0.585411
0.881041 0.914419 0.589043
0.929226 0.916772 0.591096
0.929226 0.916772 0.591096
0.266040 0.101729 0.541159
0.357847 0.105573 0.545894
0.446524 0.109286 0.550498
0.533019 0.112907 0.555011
0.617847 0.116460 0.559454
0.701331 0.119956 0.563841
0.783689 0.123405 0.568181
0.829128 0.125310 0.570713
0.829128 0.125310 0.570713
0.273156 0.209393 0.557028
0.365094 0.212057 0.561622
0.453802 0.214585 0.566081
0.540280 0.217018 0.570447
0.625062 0.219380 0.574741
0.708481 0.221683 0.578979
0.790761 0.223938 0.583168
0.841927 0.225242 0.585835
0.841927 0.225242 0.585835
0.277811 0.313112 0.572999
0.370141 0.315869 0.577619
0.459103 0.318485 0.582097
0.545769 0.321005 0.586480
0.630701 0.323452 0.590790
0.714244 0.325840 0.595042
0.796632 0.328180 0.599245
0.855408 0.330502 0.601788
0.855408 0.330502 0.601788
0.281774 0.411785 0.588323
0.374511 0.414601 0.592964
0.463731 0.417269 0.597458
0.551193 0.420123 0.601689
0.638691 0.423774 0.605340
0.724705 0.427364 0.608929
0.809494 0.430902 0.612467
0.868551 0.433366 0.614931
0.868551 0.433366 0.614931
0.286961 0.508072 0.602846
0.382653 0.512065 0.606839
0.474538 0.515899 0.610673
0.563906 0.519628 0.614402
0.651405 0.523279 0.618053
0.737419 0.526869 0.621643
0.822208 0.530407 0.625181
0.881264 0.532871 0.627645
0.881264 0.532871 0.627645
0.299371 0.605204 0.615257
0.395064 0.609197 0.619250
0.486948 0.613031 0.623084
0.576317 0.616761 0.626813
0.664257 0.620658 0.630510
0.751238 0.624796 0.634203
0.836970 0.628881 0.637842
0.893881 0.631614 0.640261
0.893881 0.631614 0.640261
0.311548 0.700509 0.627434
0.408100 0.704944 0.631513
0.500984 0.709319 0.635450
0.591315 0.713588 0.639281
0.679749 0.717778 0.643032
0.766681 0.721905 0.646721
0.852371 0.725980 0.650358
0.906270 0.728581 0.652651
0.906270 0.728581 0.652651
0.327056 0.796044 0.639761
0.423639 0.800567 0.643852
0.516415 0.804930 0.647784
0.606669 0.809189 0.651610
0.695044 0.813369 0.655359
0.781927 0.817487 0.659045
0.867576 0.821553 0.662679
0.918465 0.824023 0.664845
0.918465 0.824023 0.664845
0.342600 0.890397 0.651944
0.439010 0.894906 0.656027
0.531680 0.899259 0.659954
0.621858 0.903509 0.663777
0.710173 0.907680 0.667522
0.797008 0.911790 0.671205
0.882616 0.915848 0.674837
0.930496 0.918188 0.676877
0.930496 0.918188 0.676877
0.266403 0.102927 0.625794
0.358246 0.106771 0.630515
0.446946 0.110485 0.635105
0.533459 0.114107 0.639603
0.618301 0.117660 0.644032
0.701795 0.121157 0.648404
0.784163 0.124606 0.652729
0.830361 0.126542 0.655282
0.830361 0.126542 0.655282
0.273463 0.210185 0.641571
0.365439 0.212850 0.646151
0.454171 0.215378 0.650596
0.540666 0.217812 0.654947
0.625462 0.220174 0.659227
0.708892 0.222477 0.663450
0.791181 0.224731 0.667624
0.843107 0.226066 0.670312
0.843107 0.226066 0.670312
0.278116 0.313929 0.657494
0.370485 0.316688 0.662100
0.459472 0.319305 0.666565
0.546157 0.321825 0.670933
0.631103 0.324272 0.675228
0.714657 0.326660 0.679465
0.797578 0.329265 0.683510
0.856635 0.331729 0.685974
0.856635 0.331729 0.685974
0.282075 0.412616 0.672768
0.374854 0.415433 0.677396
0.464099 0.418102 0.681876
0.552419 0.421350 0.685875
0.639918 0.425001 0.689526
0.725932 0.428590 0.693115
0.810721 0.432128 0.696653
0.869777 0.434593 0.699117
0.869777 0.434593 0.699117
0.288187 0.509299 0.687032
0.383880 0.513292 0.691025
0.475764 0.517126 0.694859
0.565133 0.520855 0.698588
0.652631 0.524506 0.702239
0.738646 0.528095 0.705829
0.823435 0.531633 0.709367
0.882500 0.534164 0.711839
0.882500 0.534164 0.711839
0.300598 0.606431 0.699443
0.396290 0.610424 0.703436
0.488175 0.614258 0.707270
0.577544 0.617987 0.710999
0.665819 0.622071 0.714732
0.752795 0.626209 0.718424
0.838523 0.630294 0.722063
0.895130 0.633014 0.724469
0.895130 0.633014 0.724469
0.312943 0.701819 0.711636
0.409685 0.706355 0.715734
0.502559 0.710730 0.719671
0.592882 0.714999 0.723502
0.681310 0.719188 0.727253
0.768237 0.723315 0.730942
0.853923 0.727390 0.734579
0.907519 0.729978 0.736859
0.907519 0.729978 0.736859
0.328659 0.797454 0.723983
0.425224 0.801976 0.728073
0.517990 0.806339 0.732005
0.608236 0.810597 0.735831
0.696605 0.814777 0.739579
0.783483 0.818894 0.743265
0.869128 0.822960 0.746899
0.919713 0.825418 0.749053
0.919713 0.825418 0.749053
0.344201 0.891805 0.736166
0.440594 0.896313 0.740248
0.533254 0.900666 0.744175
0.623424 0.904915 0.747997
0.711733 0.909086 0.751742
0.798563 0.913195 0.755425
0.884168 0.917253 0.759057
0.931744 0.919581 0.761084
0.931744 0.919581 0.761084
0.266746 0.104105 0.709107
0.358626 0.107951 0.713817
0.447349 0.111665 0.718395
0.533879 0.115288 0.722882
0.618734 0.118841 0.727298
0.702240 0.122338 0.731658
0.784618 0.125788 0.735971
0.831574 0.127756 0.738547
0.831574 0.127756 0.738547
0.273751 0.210958 0.724799
0.365764 0.213624 0.729369
0.454520 0.216153 0.733802
0.541033 0.218587 0.738141
0.625843 0.220948 0.742409
0.709283 0.223251 0.746619
0.791582 0.225505 0.750781
0.844267 0.226872 0.753492
0.844267 0.226872 0.753492
0.278402 0.314728 0.740683
0.370811 0.317488 0.745278
0.459822 0.320105 0.749731
0.546525 0.322626 0.754088
0.631485 0.325073 0.758371
0.715051 0.327462 0.762596
0.798786 0.330473 0.766414
0.857843 0.332937 0.768879
0.857843 0.332937 0.768879
0.282357 0.413428 0.755917
0.375177 0.416246 0.760533
0.464449 0.418916 0.765002
0.553627 0.422558 0.768779
0.641126 0.426209 0.772430
0.727140 0.429799 0.776019
0.811929 0.433337 0.779557
0.870986 0.435801 0.782022
0.870986 0.435801 0.782022
0.289395 0.510507 0.769936
0.385088 0.514500 0.773929
0.476972 0.518334 0.777764
0.566341 0.522063 0.781493
0.653839 0.525714 0.785144
0.739854 0.529304 0.788733
0.824643 0.532842 0.792271
0.883731 0.535550 0.794766
0.883731 0.535550 0.794766
0.301806 0.607639 0.782347
0.397499 0.611632 0.786340
0.489383 0.615466 0.790174
0.578879 0.619265 0.793917
0.667362 0.623466 0.797671
0.754333 0.627603 0.801363
0.840057 0.631688 0.805003
0.896360 0.634395 0.807396
0.896360 0.634395 0.807396
0.314528 0.703212 0.794577
0.411253 0.707748 0.798675
0.504115 0.712123 0.802611
0.594431 0.716391 0.806441
0.682853 0.720580 0.810192
0.769775 0.724706 0.813881
0.855457 0.728781 0.817518
0.908749 0.731357 0.819785
0.908749 0.731357 0.819785
0.330242 0.798845 0.806924
0.426790 0.803366 0.811013
0.519546 0.807729 0.814944
0.609784 0.811987 0.818770
0.698147 0.816166 0.822518
0.785020 0.820283 0.826204
0.870661 0.824349 0.829838
0.920943 0.826794 0.831979
0.920943 0.826794 0.831979
0.345784 0.893194 0.819107
0.442160 0.897701 0.823188
0.534809 0.902054 0.827114
0.624971 0.906302 0.830936
0.713275 0.910473 0.834680
0.800100 0.914582 0.838363
0.885701 0.918640 0.841995
0.932974 0.920955 0.844010
0.932974 0.920955 0.844010
