assets/luts/cafe_mood.cube
# MoodFilm Filter — cafe_mood
TITLE "cafe_mood"
LUT_3D_SIZE 17
0.263799 0.095409 0.095409
0.310080 0.097340 0.097340
0.355418 0.099232 0.099232
0.400005 0.101092 0.101092
0.443967 0.102926 0.102926
0.487397 0.104739 0.104739
0.530364 0.106532 0.106532
0.572922 0.108307 0.108307
0.615112 0.110068 0.110068
0.656971 0.111815 0.111815
0.698527 0.113549 0.113549
0.739805 0.115271 0.115271
0.780826 0.116983 0.116983
0.821608 0.118685 0.118685
0.822542 0.118723 0.118723
0.822542 0.118723 0.118723
0.822542 0.118723 0.118723
0.268363 0.149624 0.102249
0.314617 0.150920 0.104101
0.359916 0.152175 0.105913
0.404455 0.153398 0.107693
0.448365 0.154594 0.109447
0.491739 0.155767 0.111179
0.534646 0.156919 0.112891
0.577141 0.158054 0.114585
0.619267 0.159172 0.116264
0.661060 0.160276 0.117930
0.702548 0.161366 0.119582
0.743757 0.162443 0.121222
0.784708 0.163509 0.122852
0.825419 0.164564 0.124471
0.828381 0.164425 0.124563
0.828381 0.164425 0.124563
0.828381 0.164425 0.124563
0.271150 0.205016 0.109170
0.317511 0.206359 0.111031
0.362894 0.207661 0.112852
0.407502 0.208931 0.114641
0.451471 0.210174 0.116403
0.494897 0.211393 0.118142
0.537850 0.212593 0.119861
0.580387 0.213775 0.121563
0.622551 0.214941 0.123249
0.664379 0.216092 0.124922
0.705901 0.217231 0.126581
0.747140 0.218357 0.128229
0.788120 0.219472 0.129866
0.828859 0.220577 0.131492
0.835560 0.220614 0.131742
0.835560 0.220614 0.131742
0.835560 0.220614 0.131742
0.273571 0.257628 0.115734
0.320039 0.258998 0.117603
0.365505 0.260326 0.119431
0.410181 0.261622 0.121225
0.454207 0.262890 0.122992
0.497682 0.264134 0.124736
0.540679 0.265359 0.126460
0.583255 0.266566 0.128166
0.625455 0.267756 0.129857
0.667316 0.268933 0.131534
0.708867 0.270096 0.133197
0.750135 0.271248 0.134849
0.791141 0.272388 0.136490
0.831904 0.273518 0.138120
0.842346 0.273720 0.138527
0.842346 0.273720 0.138527
0.842346 0.273720 0.138527
0.275767 0.308565 0.122085
0.322344 0.309955 0.123960
0.367893 0.311302 0.125793
0.412637 0.312615 0.127592
0.456720 0.313901 0.129363
0.500245 0.315163 0.131111
0.543285 0.316405 0.132839
0.585900 0.317629 0.134549
0.628135 0.318837 0.136243
0.670027 0.320030 0.137923
0.711608 0.321211 0.139589
0.752903 0.322379 0.141244
0.793934 0.323536 0.142888
0.834721 0.324683 0.144522
0.848904 0.325048 0.145086
0.848904 0.325048 0.145086
0.848904 0.325048 0.145086
0.277799 0.358308 0.128282
0.324487 0.359714 0.130164
0.370121 0.361076 0.132001
0.414934 0.362404 0.133804
0.459075 0.363703 0.135580
0.502648 0.364979 0.137331
0.545732 0.366234 0.139062
0.588385 0.367471 0.140775
0.630655 0.368692 0.142472
0.672579 0.369899 0.144155
0.714188 0.371092 0.145824
0.755510 0.372273 0.147481
0.796566 0.373443 0.149128
0.838324 0.375077 0.150857
0.855387 0.375789 0.151569
0.855387 0.375789 0.151569
0.855387 0.375789 0.151569
0.279701 0.407127 0.134361
0.326503 0.408547 0.136249
0.372224 0.409921 0.138091
0.417106 0.411261 0.139898
0.461305 0.412572 0.141677
0.504928 0.413859 0.143431
0.548055 0.415125 0.145165
0.590747 0.416373 0.146881
0.633051 0.417605 0.148581
0.675208 0.418918 0.150285
0.718048 0.420706 0.152072
0.760583 0.422481 0.153847
0.802836 0.424244 0.155610
0.844830 0.425996 0.157363
0.861893 0.426708 0.158075
0.861893 0.426708 0.158075
0.861893 0.426708 0.158075
0.281495 0.455194 0.140344
0.328414 0.456626 0.142237
0.374223 0.458012 0.144084
0.419176 0.459362 0.145895
0.463433 0.460683 0.147677
0.507107 0.461980 0.149434
0.550936 0.463561 0.151233
0.594890 0.465396 0.153067
0.638434 0.467213 0.154884
0.681608 0.469014 0.156686
0.724449 0.470802 0.158473
0.766983 0.472577 0.160248
0.809237 0.474340 0.162011
0.851231 0.476092 0.163763
0.868294 0.476804 0.164475
0.868294 0.476804 0.164475
0.868294 0.476804 0.164475
0.283195 0.502628 0.146245
0.330235 0.504072 0.148144
0.376134 0.505468 0.149995
0.422310 0.507340 0.151915
0.467880 0.509242 0.153817
0.512830 0.511117 0.155692
0.557249 0.512971 0.157546
0.601204 0.514805 0.159380
0.644747 0.516622 0.161197
0.687922 0.518423 0.162999
0.730762 0.520211 0.164786
0.773296 0.521986 0.166561
0.815550 0.523749 0.168324
0.857544 0.525501 0.170077
0.874607 0.526213 0.170789
0.874607 0.526213 0.170789
0.874607 0.526213 0.170789
0.286541 0.550237 0.152228
0.334995 0.552259 0.154250
0.382234 0.554230 0.156221
0.428548 0.556162 0.158153
0.474118 0.558064 0.160055
0.519068 0.559940 0.161930
0.563487 0.561793 0.163784
0.607442 0.563627 0.165618
0.650985 0.565444 0.167435
0.694160 0.567246 0.169237
0.737000 0.569033 0.171024
0.779534 0.570808 0.172799
0.821788 0.572571 0.174562
0.863782 0.574324 0.176315
0.880845 0.575036 0.177027
0.880845 0.575036 0.177027
0.880845 0.575036 0.177027
0.292714 0.598547 0.158400
0.341168 0.600569 0.160422
0.388406 0.602540 0.162393
0.434720 0.604472 0.164326
0.480291 0.606374 0.166227
0.525241 0.608250 0.168103
0.569659 0.610103 0.169957
0.613614 0.611937 0.171791
0.657158 0.613754 0.173608
0.700332 0.615556 0.175409
0.743172 0.617343 0.177197
0.785983 0.619275 0.179001
0.828715 0.621312 0.180815
0.871182 0.623338 0.182619
0.887115 0.624107 0.183296
0.887115 0.624107 0.183296
0.887115 0.624107 0.183296
0.298828 0.646403 0.164515
0.347282 0.648425 0.166537
0.394521 0.650396 0.168508
0.440835 0.652328 0.170440
0.486405 0.654230 0.172342
0.531355 0.656106 0.174218
0.575774 0.657959 0.176071
0.619729 0.659793 0.177905
0.663733 0.661865 0.179770
0.707393 0.663938 0.181623
0.750713 0.665998 0.183462
0.793722 0.668044 0.185287
0.836444 0.670079 0.187101
0.878902 0.672102 0.188904
0.893337 0.672808 0.189519
0.893337 0.672808 0.189519
0.893337 0.672808 0.189519
0.304891 0.693852 0.170577
0.353345 0.695874 0.172599
0.400583 0.697845 0.174570
0.446897 0.699777 0.176503
0.492621 0.701760 0.178420
0.538076 0.703906 0.180348
0.582989 0.706030 0.182252
0.627431 0.708135 0.184138
0.671453 0.710221 0.186005
0.715101 0.712292 0.187857
0.758409 0.714349 0.189695
0.801406 0.716393 0.191520
0.844119 0.718425 0.193333
0.886567 0.720446 0.195135
0.899506 0.721088 0.195688
0.899506 0.721088 0.195688
0.899506 0.721088 0.195688
0.310906 0.740932 0.176593
0.359718 0.743133 0.178650
0.407478 0.745374 0.180673
0.454297 0.747576 0.182657
0.500361 0.749746 0.184610
0.545795 0.751889 0.186536
0.590691 0.754011 0.188440
0.635116 0.756112 0.190325
0.679124 0.758197 0.192192
0.722759 0.760265 0.194043
0.766055 0.762320 0.195880
0.809042 0.764362 0.197704
0.851745 0.766391 0.199517
0.894184 0.768410 0.201318
0.905626 0.768989 0.201808
0.905626 0.768989 0.201808
0.905626 0.768989 0.201808
0.318557 0.788491 0.182727
0.367504 0.790780 0.184800
0.415226 0.793017 0.186821
0.462016 0.795216 0.188804
0.508055 0.797383 0.190756
0.553469 0.799524 0.192681
0.598347 0.801643 0.194584
0.642756 0.803742 0.196467
0.686750 0.805824 0.198333
0.730372 0.807891 0.200184
0.773657 0.809943 0.202020
0.816633 0.811983 0.203844
0.859326 0.814010 0.205656
0.901756 0.816027 0.207456
0.911702 0.816542 0.207884
0.911702 0.816542 0.207884
0.911702 0.816542 0.207884
0.326351 0.835821 0.188838
0.375248 0.838106 0.190909
0.422933 0.840340 0.192929
0.469693 0.842536 0.194910
0.515708 0.844701 0.196860
0.561102 0.846839 0.198784
0.605961 0.848956 0.200686
0.650355 0.851053 0.202569
0.694335 0.853133 0.204434
0.737944 0.855197 0.206284
0.781217 0.857247 0.208120
0.824183 0.859285 0.209943
0.866866 0.861310 0.211754
0.909287 0.863325 0.213554
0.917738 0.863777 0.213919
0.917738 0.863777 0.213919
0.917738 0.863777 0.213919
0.334106 0.882854 0.194912
0.382953 0.885136 0.196980
0.430601 0.887367 0.198998
0.477332 0.889560 0.200978
0.523323 0.891723 0.202927
0.568696 0.893859 0.204850
0.613538 0.895973 0.206751
0.657916 0.898068 0.208633
0.701882 0.900146 0.210497
0.745478 0.902208 0.212347
0.788740 0.904256 0.214182
0.831695 0.906292 0.216004
0.874368 0.908316 0.217815
0.916780 0.910328 0.219614
0.923735 0.910718 0.219917
0.923735 0.910718 0.219917
0.923735 0.910718 0.219917
0.263799 0.095409 0.095409
0.310080 0.097340 0.097340
0.355418 0.099232 0.099232
0.400005 0.101092 0.101092
0.443967 0.102926 0.102926
0.487397 0.104739 0.104739
0.530364 0.106532 0.106532
0.572922 0.108307 0.108307
0.615112 0.110068 0.110068
0.656971 0.111815 0.111815
0.698527 0.113549 0.113549
0.739805 0.115271 0.115271
0.780826 0.116983 0.116983
0.821608 0.118685 0.118685
0.822542 0.118723 0.118723
0.822542 0.118723 0.118723
0.822542 0.118723 0.118723
0.268363 0.149624 0.102249
0.314617 0.150920 0.104101
0.359916 0.152175 0.105913
0.404455 0.153398 0.107693
0.448365 0.154594 0.109447
0.491739 0.155767 0.111179
0.534646 0.156919 0.112891
0.577141 0.158054 0.114585
0.619267 0.159172 0.116264
0.661060 0.160276 0.117930
0.702548 0.161366 0.119582
0.743757 0.162443 0.121222
0.784708 0.163509 0.122852
0.825419 0.164564 0.124471
0.828381 0.164425 0.124563
0.828381 0.164425 0.124563
0.828381 0.164425 0.124563
0.271150 0.205016 0.109170
0.317511 0.206359 0.111031
0.362894 0.207661 0.112852
0.407502 0.208931 0.114641
0.451471 0.210174 0.116403
0.494897 0.211393 0.118142
0.537850 0.212593 0.119861
0.580387 0.213775 0.121563
0.622551 0.214941 0.123249
0.664379 0.216092 0.124922
0.705901 0.217231 0.126581
0.747140 0.218357 0.128229
0.788120 0.219472 0.129866
0.828859 0.220577 0.131492
0.835560 0.220614 0.131742
0.835560 0.220614 0.131742
0.835560 0.220614 0.131742
0.273571 0.257628 0.115734
0.320039 0.258998 0.117603
0.365505 0.260326 0.119431
0.410181 0.261622 0.121225
0.454207 0.262890 0.122992
0.497682 0.264134 0.124736
0.540679 0.265359 0.126460
0.583255 0.266566 0.128166
0.625455 0.267756 0.129857
0.667316 0.268933 0.131534
0.708867 0.270096 0.133197
0.750135 0.271248 0.134849
0.791141 0.272388 0.136490
0.831904 0.273518 0.138120
0.842346 0.273720 0.138527
0.842346 0.273720 0.138527
0.842346 0.273720 0.138527
0.275767 0.308565 0.122085
0.322344 0.309955 0.123960
0.367893 0.311302 0.125793
0.412637 0.312615 0.127592
0.456720 0.313901 0.129363
0.500245 0.315163 0.131111
0.543285 0.316405 0.132839
0.585900 0.317629 0.134549
0.628135 0.318837 0.136243
0.670027 0.320030 0.137923
0.711608 0.321211 0.139589
0.752903 0.322379 0.141244
0.793934 0.323536 0.142888
0.834721 0.324683 0.144522
0.848904 0.325048 0.145086
0.848904 0.325048 0.145086
0.848904 0.325048 0.145086
0.277799 0.358308 0.128282
0.324487 0.359714 0.130164
0.370121 0.361076 0.132001
0.414934 0.362404 0.133804
0.459075 0.363703 0.135580
0.502648 0.364979 0.137331
0.545732 0.366234 0.139062
0.588385 0.367471 0.140775
0.630655 0.368692 0.142472
0.672579 0.369899 0.144155
0.714188 0.371092 0.145824
0.755510 0.372273 0.147481
0.796566 0.373443 0.149128
0.838324 0.375077 0.150857
0.855387 0.375789 0.151569
0.855387 0.375789 0.151569
0.855387 0.375789 0.151569
0.279701 0.407127 0.134361
0.326503 0.408547 0.136249
0.372224 0.409921 0.138091
0.417106 0.411261 0.139898
0.461305 0.412572 0.141677
0.504928 0.413859 0.143431
0.548055 0.415125 0.145165
0.590747 0.416373 0.146881
0.633051 0.417605 0.148581
0.675208 0.418918 0.150285
0.718048 0.420706 0.152072
0.760583 0.422481 0.153847
0.802836 0.424244 0.155610
0.844830 0.425996 0.157363
0.861893 0.426708 0.158075
0.861893 0.426708 0.158075
0.861893 0.426708 0.158075
0.281495 0.455194 0.140344
0.328414 0.456626 0.142237
0.374223 0.458012 0.144084
0.419176 0.459362 0.145895
0.463433 0.460683 0.147677
0.507107 0.461980 0.149434
0.550936 0.463561 0.151233
0.594890 0.465396 0.153067
0.638434 0.467213 0.154884
0.681608 0.469014 0.156686
0.724449 0.470802 0.158473
0.766983 0.472577 0.160248
0.809237 0.474340 0.162011
0.851231 0.476092 0.163763
0.868294 0.476804 0.164475
0.868294 0.476804 0.164475
0.868294 0.476804 0.164475
0.283195 0.502628 0.146245
0.330235 0.504072 0.148144
0.376134 0.505468 0.149995
0.422310 0.507340 0.151915
0.467880 0.509242 0.153817
0.512830 0.511117 0.155692
0.557249 0.512971 0.157546
0.601204 0.514805 0.159380
0.644747 0.516622 0.161197
0.687922 0.518423 0.162999
0.730762 0.520211 0.164786
0.773296 0.521986 0.166561
0.815550 0.523749 0.168324
0.857544 0.525501 0.170077
0.874607 0.526213 0.170789
0.874607 0.526213 0.170789
0.874607 0.526213 0.170789
0.286541 0.550237 0.152228
0.334995 0.552259 0.154250
0.382234 0.554230 0.156221
0.428548 0.556162 0.158153
0.474118 0.558064 0.160055
0.519068 0.559940 0.161930
0.563487 0.561793 0.163784
0.607442 0.563627 0.165618
0.650985 0.565444 0.167435
0.694160 0.567246 0.169237
0.737000 0.569033 0.171024
0.779534 0.570808 0.172799
0.821788 0.572571 0.174562
0.863782 0.574324 0.176315
0.880845 0.575036 0.177027
0.880845 0.575036 0.177027
0.880845 0.575036 0.177027
0.292714 0.598547 0.158400
0.341168 0.600569 0.160422
0.388406 0.602540 0.162393
0.434720 0.604472 0.164326
0.480291 0.606374 0.166227
0.525241 0.608250 0.168103
0.569659 0.610103 0.169957
0.613614 0.611937 0.171791
0.657158 0.613754 0.173608
0.700332 0.615556 0.175409
0.743172 0.617343 0.177197
0.785983 0.619275 0.179001
0.828715 0.621312 0.180815
0.871182 0.623338 0.182619
0.887115 0.624107 0.183296
0.887115 0.624107 0.183296
0.887115 0.624107 0.183296
0.298828 0.646403 0.164515
0.347282 0.648425 0.166537
0.394521 0.650396 0.168508
0.440835 0.652328 0.170440
0.486405 0.654230 0.172342
0.531355 0.656106 0.174218
0.575774 0.657959 0.176071
0.619729 0.659793 0.177905
0.663733 0.661865 0.179770
0.707393 0.663938 0.181623
0.750713 0.665998 0.183462
0.793722 0.668044 0.185287
0.836444 0.670079 0.187101
0.878902 0.672102 0.188904
0.893337 0.672808 0.189519
0.893337 0.672808 0.189519
0.893337 0.672808 0.189519
0.304891 0.693852 0.170577
0.353345 0.695874 0.172599
0.400583 0.697845 0.174570
0.446897 0.699777 0.176503
0.492621 0.701760 0.178420
0.538076 0.703906 0.180348
0.582989 0.706030 0.182252
0.627431 0.708135 0.184138
0.671453 0.710221 0.186005
0.715101 0.712292 0.187857
0.758409 0.714349 0.189695
0.801406 0.716393 0.191520
0.844119 0.718425 0.193333
0.886567 0.720446 0.195135
0.899506 0.721088 0.195688
0.899506 0.721088 0.195688
0.899506 0.721088 0.195688
0.310906 0.740932 0.176593
0.359718 0.743133 0.178650
0.407478 0.745374 0.180673
0.454297 0.747576 0.182657
0.500361 0.749746 0.184610
0.545795 0.751889 0.186536
0.590691 0.754011 0.188440
0.635116 0.756112 0.190325
0.679124 0.758197 0.192192
0.722759 0.760265 0.194043
0.766055 0.762320 0.195880
0.809042 0.764362 0.197704
0.851745 0.766391 0.199517
0.894184 0.768410 0.201318
0.905626 0.768989 0.201808
0.905626 0.768989 0.201808
0.905626 0.768989 0.201808
0.318557 0.788491 0.182727
0.367504 0.790780 0.184800
0.415226 0.793017 0.186821
0.462016 0.795216 0.188804
0.508055 0.797383 0.190756
0.553469 0.799524 0.192681
0.598347 0.801643 0.194584
0.642756 0.803742 0.196467
0.686750 0.805824 0.198333
0.730372 0.807891 0.200184
0.773657 0.809943 0.202020
0.816633 0.811983 0.203844
0.859326 0.814010 0.205656
0.901756 0.816027 0.207456
0.911702 0.816542 0.207884
0.911702 0.816542 0.207884
0.911702 0.816542 0.207884
0.326351 0.835821 0.188838
0.375248 0.838106 0.190909
0.422933 0.840340 0.192929
0.469693 0.842536 0.194910
0.515708 0.844701 0.196860
0.561102 0.846839 0.198784
0.605961 0.848956 0.200686
0.650355 0.851053 0.202569
0.694335 0.853133 0.204434
0.737944 0.855197 0.206284
0.781217 0.857247 0.208120
0.824183 0.859285 0.209943
0.866866 0.861310 0.211754
0.909287 0.863325 0.213554
0.917738 0.863777 0.213919
0.917738 0.863777 0.213919
0.917738 0.863777 0.213919
0.334106 0.882854 0.194912
0.382953 0.885136 0.196980
0.430601 0.887367 0.198998
0.477332 0.889560 0.200978
0.523323 0.891723 0.202927
0.568696 0.893859 0.204850
0.613538 0.895973 0.206751
0.657916 0.898068 0.208633
0.701882 0.900146 0.210497
0.745478 0.902208 0.212347
0.788740 0.904256 0.214182
0.831695 0.906292 0.216004
0.874368 0.908316 0.217815
0.916780 0.910328 0.219614
0.923735 0.910718 0.219917
0.923735 0.910718 0.219917
0.923735 0.910718 0.219917
0.263799 0.095409 0.095409
0.310080 0.097340 0.097340
0.355418 0.099232 0.099232
0.400005 0.101092 0.101092
0.443967 0.102926 0.102926
0.487397 0.104739 0.104739
0.530364 0.106532 0.106532
0.572922 0.108307 0.108307
0.615112 0.110068 0.110068
0.656971 0.111815 0.111815
0.698527 0.113549 0.113549
0.739805 0.115271 0.115271
0.780826 0.116983 0.116983
0.821608 0.118685 0.118685
0.822542 0.118723 0.118723
0.822542 0.118723 0.118723
0.822542 0.118723 0.118723
0.268363 0.149624 0.102249
0.314617 0.150920 0.104101
0.359916 0.152175 0.105913
0.404455 0.153398 0.107693
0.448365 0.154594 0.109447
0.491739 0.155767 0.111179
0.534646 0.156919 0.112891
0.577141 0.158054 0.114585
0.619267 0.159172 0.116264
0.661060 0.160276 0.117930
0.702548 0.161366 0.119582
0.743757 0.162443 0.121222
0.784708 0.163509 0.122852
0.825419 0.164564 0.124471
0.828381 0.164425 0.124563
0.828381 0.164425 0.124563
0.828381 0.164425 0.124563
0.271150 0.205016 0.109170
0.317511 0.206359 0.111031
0.362894 0.207661 0.112852
0.407502 0.208931 0.114641
0.451471 0.210174 0.116403
0.494897 0.211393 0.118142
0.537850 0.212593 0.119861
0.580387 0.213775 0.121563
0.622551 0.214941 0.123249
0.664379 0.216092 0.124922
0.705901 0.217231 0.126581
0.747140 0.218357 0.128229
0.788120 0.219472 0.129866
0.828859 0.220577 0.131492
0.835560 0.220614 0.131742
0.835560 0.220614 0.131742
0.835560 0.220614 0.131742
0.273571 0.257628 0.115734
0.320039 0.258998 0.117603
0.365505 0.260326 0.119431
0.410181 0.261622 0.121225
0.454207 0.262890 0.122992
0.497682 0.264134 0.124736
0.540679 0.265359 0.126460
0.583255 0.266566 0.128166
0.625455 0.267756 0.129857
0.667316 0.268933 0.131534
0.708867 0.270096 0.133197
0.750135 0.271248 0.134849
0.791141 0.272388 0.136490
0.831904 0.273518 0.138120
0.842346 0.273720 0.138527
0.842346 0.273720 0.138527
0.842346 0.273720 0.138527
0.275767 0.308565 0.122085
0.322344 0.309955 0.123960
0.367893 0.311302 0.125793
0.412637 0.312615 0.127592
0.456720 0.313901 0.129363
0.500245 0.315163 0.131111
0.543285 0.316405 0.132839
0.585900 0.317629 0.134549
0.628135 0.318837 0.136243
0.670027 0.320030 0.137923
0.711608 0.321211 0.139589
0.752903 0.322379 0.141244
0.793934 0.323536 0.142888
0.834721 0.324683 0.144522
0.848904 0.325048 0.145086
0.848904 0.325048 0.145086
0.848904 0.325048 0.145086
0.277799 0.358308 0.128282
0.324487 0.359714 0.130164
0.370121 0.361076 0.132001
0.414934 0.362404 0.133804
0.459075 0.363703 0.135580
0.502648 0.364979 0.137331
0.545732 0.366234 0.139062
0.588385 0.367471 0.140775
0.630655 0.368692 0.142472
0.672579 0.369899 0.144155
0.714188 0.371092 0.145824
0.755510 0.372273 0.147481
0.796566 0.373443 0.149128
0.838324 0.375077 0.150857
0.855387 0.375789 0.151569
0.855387 0.375789 0.151569
0.855387 0.375789 0.151569
0.279701 0.407127 0.134361
0.326503 0.408547 0.136249
0.372224 0.409921 0.138091
0.417106 0.411261 0.139898
0.461305 0.412572 0.141677
0.504928 0.413859 0.143431
0.548055 0.415125 0.145165
0.590747 0.416373 0.146881
0.633051 0.417605 0.148581
0.675208 0.418918 0.150285
0.718048 0.420706 0.152072
0.760583 0.422481 0.153847
0.802836 0.424244 0.155610
0.844830 0.425996 0.157363
0.861893 0.426708 0.158075
0.861893 0.426708 0.158075
0.861893 0.426708 0.158075
0.281495 0.455194 0.140344
0.328414 0.456626 0.142237
0.374223 0.458012 0.144084
0.419176 0.459362 0.145895
0.463433 0.460683 0.147677
0.507107 0.461980 0.149434
0.550936 0.463561 0.151233
0.594890 0.465396 0.153067
0.638434 0.467213 0.154884
0.681608 0.469014 0.156686
0.724449 0.470802 0.158473
0.766983 0.472577 0.160248
0.809237 0.474340 0.162011
0.851231 0.476092 0.163763
0.868294 0.476804 0.164475
0.868294 0.476804 0.164475
0.868294 0.476804 0.164475
0.283195 0.502628 0.146245
0.330235 0.504072 0.148144
0.376134 0.505468 0.149995
0.422310 0.507340 0.151915
0.467880 0.509242 0.153817
0.512830 0.511117 0.155692
0.557249 0.512971 0.157546
0.601204 0.514805 0.159380
0.644747 0.516622 0.161197
0.687922 0.518423 0.162999
0.730762 0.520211 0.164786
0.773296 0.521986 0.166561
0.815550 0.523749 0.168324
0.857544 0.525501 0.170077
0.874607 0.526213 0.170789
0.874607 0.526213 0.170789
0.874607 0.526213 0.170789
0.286541 0.550237 0.152228
0.334995 0.552259 0.154250
0.382234 0.554230 0.156221
0.428548 0.556162 0.158153
0.474118 0.558064 0.160055
0.519068 0.559940 0.161930
0.563487 0.561793 0.163784
0.607442 0.563627 0.165618
0.650985 0.565444 0.167435
0.694160 0.567246 0.169237
0.737000 0.569033 0.171024
0.779534 0.570808 0.172799
0.821788 0.572571 0.174562
0.863782 0.574324 0.176315
0.880845 0.575036 0.177027
0.880845 0.575036 0.177027
0.880845 0.575036 0.177027
0.292714 0.598547 0.158400
0.341168 0.600569 0.160422
0.388406 0.602540 0.162393
0.434720 0.604472 0.164326
0.480291 0.606374 0.166227
0.525241 0.608250 0.168103
0.569659 0.610103 0.169957
0.613614 0.611937 0.171791
0.657158 0.613754 0.173608
0.700332 0.615556 0.175409
0.743172 0.617343 0.177197
0.785983 0.619275 0.179001
0.828715 0.621312 0.180815
0.871182 0.623338 0.182619
0.887115 0.624107 0.183296
0.887115 0.624107 0.183296
0.887115 0.624107 0.183296
0.298828 0.646403 0.164515
0.347282 0.648425 0.166537
0.394521 0.650396 0.168508
0.440835 0.652328 0.170440
0.486405 0.654230 0.172342
0.531355 0.656106 0.174218
0.575774 0.657959 0.176071
0.619729 0.659793 0.177905
0.663733 0.661865 0.179770
0.707393 0.663938 0.181623
0.750713 0.665998 0.183462
0.793722 0.668044 0.185287
0.836444 0.670079 0.187101
0.878902 0.672102 0.188904
0.893337 0.672808 0.189519
0.893337 0.672808 0.189519
0.893337 0.672808 0.189519
0.304891 0.693852 0.170577
0.353345 0.695874 0.172599
0.400583 0.697845 0.174570
0.446897 0.699777 0.176503
0.492621 0.701760 0.178420
0.538076 0.703906 0.180348
0.582989 0.706030 0.182252
0.627431 0.708135 0.184138
0.671453 0.710221 0.186005
0.715101 0.712292 0.187857
0.758409 0.714349 0.189695
0.801406 0.716393 0.191520
0.844119 0.718425 0.193333
0.886567 0.720446 0.195135
0.899506 0.721088 0.195688
0.899506 0.721088 0.195688
0.899506 0.721088 0.195688
0.310906 0.740932 0.176593
0.359718 0.743133 0.178650
0.407478 0.745374 0.180673
0.454297 0.747576 0.182657
0.500361 0.749746 0.184610
0.545795 0.751889 0.186536
0.590691 0.754011 0.188440
0.635116 0.756112 0.190325
0.679124 0.758197 0.192192
0.722759 0.760265 0.194043
0.766055 0.762320 0.195880
0.809042 0.764362 0.197704
0.851745 0.766391 0.199517
0.894184 0.768410 0.201318
0.905626 0.768989 0.201808
0.905626 0.768989 0.201808
0.905626 0.768989 0.201808
0.318557 0.788491 0.182727
0.367504 0.790780 0.184800
0.415226 0.793017 0.186821
0.462016 0.795216 0.188804
0.508055 0.797383 0.190756
0.553469 0.799524 0.192681
0.598347 0.801643 0.194584
0.642756 0.803742 0.196467
0.686750 0.805824 0.198333
0.730372 0.807891 0.200184
0.773657 0.809943 0.202020
0.816633 0.811983 0.203844
0.859326 0.814010 0.205656
0.901756 0.816027 0.207456
0.911702 0.816542 0.207884
0.911702 0.816542 0.207884
0.911702 0.816542 0.207884
0.326351 0.835821 0.188838
0.375248 0.838106 0.190909
0.422933 0.840340 0.192929
0.469693 0.842536 0.194910
0.515708 0.844701 0.196860
0.561102 0.846839 0.198784
0.605961 0.848956 0.200686
0.650355 0.851053 0.202569
0.694335 0.853133 0.204434
0.737944 0.855197 0.206284
0.781217 0.857247 0.208120
0.824183 0.859285 0.209943
0.866866 0.861310 0.211754
0.909287 0.863325 0.213554
0.917738 0.863777 0.213919
0.917738 0.863777 0.213919
0.917738 0.863777 0.213919
0.334106 0.882854 0.194912
0.382953 0.885136 0.196980
0.430601 0.887367 0.198998
0.477332 0.889560 0.200978
0.523323 0.891723 0.202927
0.568696 0.893859 0.204850
0.613538 0.895973 0.206751
0.657916 0.898068 0.208633
0.701882 0.900146 0.210497
0.745478 0.902208 0.212347
0.788740 0.904256 0.214182
0.831695 0.906292 0.216004
0.874368 0.908316 0.217815
0.916780 0.910328 0.219614
0.923735 0.910718 0.219917
0.923735 0.910718 0.219917
0.923735 0.910718 0.219917
0.263901 0.095840 0.126017
0.310199 0.097781 0.128538
0.355552 0.099681 0.131018
0.400152 0.101550 0.133466
0.444127 0.103394 0.135886
0.487569 0.105214 0.138283
0.530548 0.107016 0.140660
0.573117 0.108800 0.143019
0.615318 0.110570 0.145361
0.657188 0.112325 0.147689
0.698755 0.114067 0.150003
0.740043 0.115798 0.152305
0.781074 0.117519 0.154595
0.821866 0.119229 0.156874
0.823102 0.119284 0.157160
0.823102 0.119284 0.157160
0.823102 0.119284 0.157160
0.268458 0.149900 0.133929
0.314729 0.151205 0.136368
