assets/luts/cafe_mood.cube
# MoodFilm Filter — cafe_mood
TITLE "cafe_mood"
LUT_3D_SIZE 5
0.263799 0.095409 0.095409
0.443967 0.102926 0.102926
0.615112 0.110068 0.110068
0.780826 0.116983 0.116983
0.822542 0.118723 0.118723
0.275767 0.308565 0.122085
0.456720 0.313901 0.129363
0.628135 0.318837 0.136243
0.793934 0.323536 0.142888
0.848904 0.325048 0.145086
0.283195 0.502628 0.146245
0.467880 0.509242 0.153817
0.644747 0.516622 0.161197
0.815550 0.523749 0.168324
0.874607 0.526213 0.170789
0.304891 0.693852 0.170577
0.492621 0.701760 0.178420
0.671453 0.710221 0.186005
0.844119 0.718425 0.193333
0.899506 0.721088 0.195688
0.334106 0.882854 0.194912
0.523323 0.891723 0.202927
0.701882 0.900146 0.210497
0.874368 0.908316 0.217815
0.923735 0.910718 0.219917
0.264233 0.096588 0.178536
0.444484 0.104139 0.188190
0.615688 0.111313 0.197461
0.781451 0.118259 0.206500
0.823858 0.120039 0.209016
0.276243 0.309498 0.211528
0.457284 0.314867 0.220927
0.628758 0.319834 0.229921
0.794607 0.324565 0.238676
0.850268 0.326116 0.241644
0.283768 0.503686 0.242798
0.469300 0.510661 0.251231
0.646167 0.518041 0.258612
0.816970 0.525169 0.265739
0.876027 0.527633 0.268203
0.306310 0.695271 0.267992
0.494353 0.703344 0.275866
0.673173 0.711805 0.283451
0.845830 0.720009 0.290779
0.900945 0.722661 0.293122
0.335862 0.884436 0.292359
0.525054 0.893303 0.300373
0.703600 0.901726 0.307943
0.876079 0.909895 0.315260
0.925174 0.912286 0.317350
0.265234 0.099255 0.366500
0.445600 0.106808 0.375925
0.616863 0.113981 0.384970
0.782665 0.120926 0.393784
0.826587 0.122768 0.396284
0.277122 0.311399 0.398708
0.458287 0.316769 0.407890
0.629822 0.321735 0.416669
0.795710 0.326464 0.425210
0.852891 0.328077 0.428166
0.284622 0.505622 0.429250
0.472009 0.513370 0.437126
0.648876 0.520750 0.444506
0.819679 0.527878 0.451633
0.878735 0.530342 0.454098
0.309019 0.697980 0.453887
0.497758 0.706422 0.461832
0.676551 0.714882 0.469415
0.849191 0.723085 0.476742
0.903698 0.725711 0.479060
0.339321 0.887506 0.478325
0.528457 0.896371 0.486337
0.706977 0.904793 0.493906
0.879437 0.912962 0.501222
0.927925 0.915327 0.503287
0.266040 0.101729 0.541159
0.446524 0.109286 0.550498
0.617847 0.116460 0.559454
0.783689 0.123405 0.568181
0.829128 0.125310 0.570713
0.277811 0.313112 0.572999
0.459103 0.318485 0.582097
0.630701 0.323452 0.590790
0.796632 0.328180 0.599245
0.855408 0.330502 0.601788
0.286961 0.508072 0.602846
0.474538 0.515899 0.610673
0.651405 0.523279 0.618053
0.822208 0.530407 0.625181
0.881264 0.532871 0.627645
0.311548 0.700509 0.627434
0.500984 0.709319 0.635450
0.679749 0.717778 0.643032
0.852371 0.725980 0.650358
0.906270 0.728581 0.652651
0.342600 0.890397 0.651944
0.531680 0.899259 0.659954
0.710173 0.907680 0.667522
0.882616 0.915848 0.674837
0.930496 0.918188 0.676877
0.266746 0.104105 0.709107
0.447349 0.111665 0.718395
0.618734 0.118841 0.727298
0.784618 0.125788 0.735971
0.831574 0.127756 0.738547
0.278402 0.314728 0.740683
0.459822 0.320105 0.749731
0.631485 0.325073 0.758371
0.798786 0.330473 0.766414
0.857843 0.332937 0.768879
0.289395 0.510507 0.769936
0.476972 0.518334 0.777764
0.653839 0.525714 0.785144
0.824643 0.532842 0.792271
0.883731 0.535550 0.794766
0.314528 0.703212 0.794577
0.504115 0.712123 0.802611
0.682853 0.720580 0.810192
0.855457 0.728781 0.817518
0.908749 0.731357 0.819785
0.345784 0.893194 0.819107
0.534809 0.902054 0.827114
0.713275 0.910473 0.834680
0.885701 0.918640 0.841995
0.932974 0.920955 0.844010
