assets/luts/cloud.cube
TITLE "cloud"
LUT_3D_SIZE 33
0.032919 0.033073 0.245592
0.230847 0.033926 0.148852
0.255930 0.037124 0.083589
0.280640 0.040275 0.072065
0.305020 0.043384 0.068858
0.329106 0.046455 0.068464
0.352924 0.049492 0.069347
0.376500 0.052498 0.070910
0.399853 0.055476 0.072872
0.423000 0.058427 0.075087
0.445955 0.061354 0.077467
0.468732 0.064258 0.079962
0.491343 0.067141 0.082536
0.513796 0.070004 0.085167
0.536101 0.072849 0.087839
0.558266 0.075675 0.090540
0.580299 0.078484 0.093263
0.602206 0.081277 0.096001
0.623992 0.084055 0.098749
0.645664 0.086819 0.101504
0.667226 0.089568 0.104264
0.688683 0.092304 0.107026
0.710040 0.095027 0.109788
0.731300 0.097738 0.112550
0.752466 0.100437 0.115309
0.773544 0.103124 0.118066
0.794534 0.105801 0.120820
0.815441 0.108467 0.123570
0.836268 0.111122 0.126316
0.857016 0.113768 0.129057
0.863963 0.133286 0.149546
0.867135 0.159763 0.177403
0.870293 0.186126 0.205171
0.034943 0.247252 0.106453
0.131403 0.203261 0.092642
0.227810 0.156301 0.078620
0.262654 0.125130 0.070677
0.291870 0.111718 0.068554
0.318780 0.105041 0.068623
0.344447 0.101629 0.069744
0.369325 0.100040 0.071442
0.393643 0.099570 0.073489
0.417533 0.099833 0.075758
0.441078 0.100601 0.078176
0.464333 0.101730 0.080696
0.487339 0.103126 0.083289
0.510125 0.104722 0.085933
0.532714 0.106473 0.088614
0.555123 0.108345 0.091322
0.577368 0.110314 0.094050
0.599461 0.112359 0.096791
0.621412 0.114468 0.099542
0.643231 0.116627 0.102299
0.664925 0.118828 0.105059
0.686501 0.121065 0.107821
0.707964 0.123330 0.110584
0.729322 0.125619 0.113345
0.750578 0.127928 0.116104
0.771736 0.130254 0.118860
0.792802 0.132594 0.121613
0.813778 0.134946 0.124361
0.834669 0.137307 0.127106
0.854376 0.140760 0.131061
0.857857 0.164463 0.157578
0.861463 0.189440 0.185410
0.865026 0.214400 0.213152
0.038024 0.272975 0.077355
0.096901 0.249096 0.074378
0.201968 0.249096 0.074378
0.262654 0.214827 0.070677
0.291870 0.183776 0.068554
0.318780 0.166695 0.068623
0.344447 0.156402 0.069744
0.369325 0.149913 0.071442
0.393643 0.145768 0.073489
0.417533 0.143166 0.075758
0.441078 0.141635 0.078176
0.464333 0.140875 0.080696
0.487339 0.140687 0.083289
0.510125 0.140936 0.085933
0.532714 0.141525 0.088614
0.555123 0.142383 0.091322
0.577368 0.143458 0.094050
0.599461 0.144710 0.096791
0.621412 0.146107 0.099542
0.643231 0.147626 0.102299
0.664925 0.149246 0.105059
0.686501 0.150952 0.107821
0.707964 0.152732 0.110584
0.729322 0.154574 0.113345
0.750578 0.156471 0.116104
0.771736 0.158414 0.118860
0.792802 0.160398 0.121613
0.813778 0.162417 0.124361
0.834669 0.164467 0.127106
0.854376 0.167548 0.131061
0.857857 0.189612 0.157578
0.861463 0.213022 0.185410
0.865026 0.236516 0.213152
0.041062 0.298332 0.070315
0.085612 0.282061 0.069470
0.164745 0.282061 0.069470
0.243879 0.282061 0.069470
0.291870 0.255833 0.068554
0.318780 0.228350 0.068623
0.344447 0.211176 0.069744
0.369325 0.199786 0.071442
0.393643 0.191966 0.073489
0.417533 0.186500 0.075758
0.441078 0.182669 0.078176
0.464333 0.180019 0.080696
0.487339 0.178248 0.083289
0.510125 0.177150 0.085933
0.532714 0.176577 0.088614
0.555123 0.176421 0.091322
0.577368 0.176603 0.094050
0.599461 0.177061 0.096791
0.621412 0.177747 0.099542
0.643231 0.178625 0.102299
0.664925 0.179664 0.105059
0.686501 0.180840 0.107821
0.707964 0.182134 0.110584
0.729322 0.183530 0.113345
0.750578 0.185013 0.116104
0.771736 0.186574 0.118860
0.792802 0.188201 0.121613
0.813778 0.189888 0.124361
0.834669 0.191627 0.127106
0.854376 0.194336 0.131061
0.857857 0.214761 0.157578
0.861463 0.236604 0.185410
0.865026 0.258633 0.213152
0.044061 0.323363 0.068492
0.081028 0.311081 0.068407
0.146444 0.311081 0.068407
0.211860 0.311081 0.068407
0.277276 0.311081 0.068407
0.318780 0.290004 0.068623
0.344447 0.265949 0.069744
0.369325 0.249660 0.071442
0.393643 0.238164 0.073489
0.417533 0.229834 0.075758
0.441078 0.223704 0.078176
0.464333 0.219164 0.080696
0.487339 0.215810 0.083289
0.510125 0.213364 0.085933
0.532714 0.211629 0.088614
0.555123 0.210459 0.091322
0.577368 0.209748 0.094050
0.599461 0.209412 0.096791
0.621412 0.209387 0.099542
0.643231 0.209624 0.102299
0.664925 0.210082 0.105059
0.686501 0.210728 0.107821
0.707964 0.211537 0.110584
0.729322 0.212485 0.113345
0.750578 0.213556 0.116104
0.771736 0.214734 0.118860
0.792802 0.216005 0.121613
0.813778 0.217360 0.124361
0.834669 0.218788 0.127106
0.854376 0.221123 0.131061
0.857857 0.239910 0.157578
0.861463 0.260186 0.185410
0.865026 0.280749 0.213152
0.047025 0.348102 0.068696
0.079283 0.338270 0.068963
0.136188 0.338270 0.068963
0.193092 0.338270 0.068963
0.249996 0.338270 0.068963
0.306900 0.338270 0.068963
0.344447 0.320722 0.069744
0.369325 0.299533 0.071442
0.393643 0.284362 0.073489
0.417533 0.273167 0.075758
0.441078 0.264738 0.078176
0.464333 0.258308 0.080696
0.487339 0.253371 0.083289
0.510125 0.249578 0.085933
0.532714 0.246681 0.088614
0.555123 0.244497 0.091322
0.577368 0.242892 0.094050
0.599461 0.241762 0.096791
0.621412 0.241027 0.099542
0.643231 0.240623 0.102299
0.664925 0.240499 0.105059
0.686501 0.240616 0.107821
0.707964 0.240939 0.110584
0.729322 0.241441 0.113345
0.750578 0.242099 0.116104
0.771736 0.242894 0.118860
0.792802 0.243809 0.121613
0.813778 0.244831 0.124361
0.834669 0.245948 0.127106
0.854376 0.247911 0.131061
0.857857 0.265059 0.157578
0.861463 0.283768 0.185410
0.865026 0.302866 0.213152
0.049957 0.372576 0.069886
0.078999 0.364399 0.070343
0.130091 0.364399 0.070343
0.181183 0.364399 0.070343
0.232275 0.364399 0.070343
0.283367 0.364399 0.070343
0.334459 0.364399 0.070343
0.369325 0.349406 0.071442
0.393643 0.330560 0.073489
0.417533 0.316501 0.075758
0.441078 0.305772 0.078176
0.464333 0.297453 0.080696
0.487339 0.290933 0.083289
0.510125 0.285792 0.085933
0.532714 0.281733 0.088614
0.555123 0.278536 0.091322
0.577368 0.276037 0.094050
0.599461 0.274113 0.096791
0.621412 0.272667 0.099542
0.643231 0.271622 0.102299
0.664925 0.270917 0.105059
0.686501 0.270504 0.107821
0.707964 0.270341 0.110584
0.729322 0.270396 0.113345
0.750578 0.270641 0.116104
0.771736 0.271053 0.118860
0.792802 0.271613 0.121613
0.813778 0.272302 0.124361
0.834669 0.273108 0.127106
0.854376 0.274699 0.131061
0.857857 0.290208 0.157578
0.861463 0.307350 0.185410
0.865026 0.324983 0.213152
0.052860 0.396808 0.071626
0.079558 0.389821 0.072195
0.126420 0.389821 0.072195
0.173281 0.389821 0.072195
0.220142 0.389821 0.072195
0.267003 0.389821 0.072195
0.313865 0.389821 0.072195
0.360726 0.389821 0.072195
0.393643 0.376758 0.073489
0.417533 0.359835 0.075758
0.441078 0.346806 0.078176
0.464333 0.336597 0.080696
0.487339 0.328494 0.083289
0.510125 0.322007 0.085933
0.532714 0.316785 0.088614
0.555123 0.312574 0.091322
0.577368 0.309182 0.094050
0.599461 0.306464 0.096791
0.621412 0.304307 0.099542
0.643231 0.302621 0.102299
0.664925 0.301335 0.105059
0.686501 0.300391 0.107821
0.707964 0.299743 0.110584
0.729322 0.299352 0.113345
0.750578 0.299184 0.116104
0.771736 0.299213 0.118860
0.792802 0.299416 0.121613
0.813778 0.299774 0.124361
0.834669 0.300268 0.127106
0.854376 0.301487 0.131061
0.857857 0.315356 0.157578
0.861463 0.330932 0.185410
0.865026 0.347099 0.213152
0.055736 0.420816 0.073699
0.080647 0.414726 0.074339
0.124284 0.414726 0.074339
0.167921 0.414726 0.074339
0.211558 0.414726 0.074339
0.255195 0.414726 0.074339
0.298832 0.414726 0.074339
0.342468 0.414726 0.074339
0.386105 0.414726 0.074339
0.417533 0.403168 0.075758
0.441078 0.387841 0.078176
0.464333 0.375742 0.080696
0.487339 0.366056 0.083289
0.510125 0.358221 0.085933
0.532714 0.351837 0.088614
0.555123 0.346612 0.091322
0.577368 0.342327 0.094050
0.599461 0.338815 0.096791
0.621412 0.335947 0.099542
0.643231 0.333620 0.102299
0.664925 0.331753 0.105059
0.686501 0.330279 0.107821
0.707964 0.329146 0.110584
0.729322 0.328307 0.113345
0.750578 0.327727 0.116104
0.771736 0.327373 0.118860
0.792802 0.327220 0.121613
0.813778 0.327245 0.124361
0.834669 0.327428 0.127106
0.854376 0.328275 0.131061
0.857857 0.340505 0.157578
0.861463 0.354514 0.185410
0.865026 0.369216 0.213152
0.058588 0.444618 0.075985
0.082088 0.439228 0.076672
0.123181 0.439228 0.076672
0.164274 0.439228 0.076672
0.205367 0.439228 0.076672
0.246460 0.439228 0.076672
0.287553 0.439228 0.076672
0.328646 0.439228 0.076672
0.369739 0.439228 0.076672
0.410832 0.439228 0.076672
0.441078 0.428875 0.078176
0.464333 0.414886 0.080696
0.487339 0.403617 0.083289
0.510125 0.394435 0.085933
0.532714 0.386889 0.088614
0.555123 0.380650 0.091322
0.577368 0.375471 0.094050
0.599461 0.371166 0.096791
0.621412 0.367586 0.099542
0.643231 0.364619 0.102299
0.664925 0.362170 0.105059
0.686501 0.360167 0.107821
0.707964 0.358548 0.110584
0.729322 0.357263 0.113345
0.750578 0.356269 0.116104
0.771736 0.355533 0.118860
0.792802 0.355024 0.121613
0.813778 0.354716 0.124361
0.834669 0.354589 0.127106
0.854376 0.355063 0.131061
0.857857 0.365654 0.157578
0.861463 0.378096 0.185410
0.865026 0.391332 0.213152
0.061416 0.468228 0.078414
0.083772 0.463398 0.079134
0.122803 0.463398 0.079134
0.161834 0.463398 0.079134
0.200865 0.463398 0.079134
0.239896 0.463398 0.079134
0.278927 0.463398 0.079134
0.317958 0.463398 0.079134
0.356989 0.463398 0.079134
0.396020 0.463398 0.079134
0.435052 0.463398 0.079134
0.464333 0.454031 0.080696
0.487339 0.441179 0.083289
0.510125 0.430649 0.085933
0.532714 0.421941 0.088614
0.555123 0.414688 0.091322
0.577368 0.408616 0.094050
0.599461 0.403516 0.096791
0.621412 0.399226 0.099542
0.643231 0.395618 0.102299
0.664925 0.392588 0.105059
0.686501 0.390055 0.107821
0.707964 0.387950 0.110584
0.729322 0.386218 0.113345
0.750578 0.384812 0.116104
0.771736 0.383693 0.118860
0.792802 0.382827 0.121613
0.813778 0.382188 0.124361
0.834669 0.381749 0.127106
0.854376 0.381851 0.131061
0.857857 0.390803 0.157578
0.861463 0.401678 0.185410
0.865026 0.413449 0.213152
0.064223 0.491659 0.080942
0.085630 0.487286 0.081684
0.122954 0.487286 0.081684
0.160277 0.487286 0.081684
0.197600 0.487286 0.081684
0.234923 0.487286 0.081684
0.272247 0.487286 0.081684
0.309570 0.487286 0.081684
0.346893 0.487286 0.081684
0.384216 0.487286 0.081684
0.421540 0.487286 0.081684
0.458863 0.487286 0.081684
0.487339 0.478740 0.083289
0.510125 0.466863 0.085933
0.532714 0.456993 0.088614
0.555123 0.448726 0.091322
0.577368 0.441761 0.094050
0.599461 0.435867 0.096791
0.621412 0.430866 0.099542
0.643231 0.426617 0.102299
0.664925 0.423006 0.105059
0.686501 0.419943 0.107821
0.707964 0.417353 0.110584
0.729322 0.415174 0.113345
0.750578 0.413355 0.116104
0.771736 0.411853 0.118860
0.792802 0.410631 0.121613
0.813778 0.409659 0.124361
0.834669 0.408909 0.127106
0.854376 0.408639 0.131061
0.857857 0.415952 0.157578
0.861463 0.425260 0.185410
0.865026 0.435566 0.213152
0.067010 0.514922 0.083541
0.087617 0.510930 0.084299
0.123500 0.510930 0.084299
0.159384 0.510930 0.084299
0.195267 0.510930 0.084299
0.231151 0.510930 0.084299
0.267034 0.510930 0.084299
0.302917 0.510930 0.084299
0.338801 0.510930 0.084299
0.374684 0.510930 0.084299
0.410567 0.510930 0.084299
0.446451 0.510930 0.084299
0.482334 0.510930 0.084299
0.510125 0.503077 0.085933
0.532714 0.492045 0.088614
0.555123 0.482764 0.091322
0.577368 0.474905 0.094050
0.599461 0.468218 0.096791
0.621412 0.462506 0.099542
0.643231 0.457616 0.102299
0.664925 0.453424 0.105059
0.686501 0.449831 0.107821
0.707964 0.446755 0.110584
0.729322 0.444129 0.113345
0.750578 0.441898 0.116104
0.771736 0.440013 0.118860
0.792802 0.438435 0.121613
0.813778 0.437130 0.124361
0.834669 0.436069 0.127106
0.854376 0.435427 0.131061
0.857857 0.441101 0.157578
0.861463 0.448842 0.185410
0.865026 0.457682 0.213152
0.069778 0.538026 0.086189
0.089700 0.534357 0.086959
0.124351 0.534357 0.086959
0.159002 0.534357 0.086959
0.193653 0.534357 0.086959
0.228305 0.534357 0.086959
0.262956 0.534357 0.086959
0.297607 0.534357 0.086959
0.332259 0.534357 0.086959
0.366910 0.534357 0.086959
0.401561 0.534357 0.086959
0.436212 0.534357 0.086959
0.470864 0.534357 0.086959
0.505515 0.534357 0.086959
0.532714 0.527097 0.088614
0.555123 0.516802 0.091322
0.577368 0.508050 0.094050
0.599461 0.500569 0.096791
0.621412 0.494146 0.099542
0.643231 0.488615 0.102299
0.664925 0.483841 0.105059
0.686501 0.479718 0.107821
0.707964 0.476157 0.110584
0.729322 0.473085 0.113345
0.750578 0.470440 0.116104
0.771736 0.468173 0.118860
0.792802 0.466239 0.121613
0.813778 0.464601 0.124361
0.834669 0.463229 0.127106
0.854376 0.462214 0.131061
0.857857 0.466250 0.157578
0.861463 0.472424 0.185410
0.865026 0.479799 0.213152
0.072528 0.560981 0.088873
0.091855 0.557587 0.089651
0.125439 0.557587 0.089651
0.159023 0.557587 0.089651
0.192606 0.557587 0.089651
0.226190 0.557587 0.089651
0.259774 0.557587 0.089651
0.293357 0.557587 0.089651
0.326941 0.557587 0.089651
0.360525 0.557587 0.089651
0.394108 0.557587 0.089651
0.427692 0.557587 0.089651
0.461276 0.557587 0.089651
0.494859 0.557587 0.089651
0.528443 0.557587 0.089651
0.555123 0.550840 0.091322
0.577368 0.541195 0.094050
0.599461 0.532919 0.096791
0.621412 0.525786 0.099542
0.643231 0.519613 0.102299
0.664925 0.514259 0.105059
0.686501 0.509606 0.107821
0.707964 0.505559 0.110584
0.729322 0.502040 0.113345
0.750578 0.498983 0.116104
0.771736 0.496333 0.118860
0.792802 0.494042 0.121613
0.813778 0.492073 0.124361
0.834669 0.490390 0.127106
0.854376 0.489002 0.131061
0.857857 0.491399 0.157578
0.861463 0.496006 0.185410
0.865026 0.501915 0.213152
0.075261 0.583795 0.091584
0.094068 0.580639 0.092368
0.126716 0.580639 0.092368
0.159365 0.580639 0.092368
0.192013 0.580639 0.092368
0.224662 0.580639 0.092368
0.257310 0.580639 0.092368
0.289959 0.580639 0.092368
0.322607 0.580639 0.092368
0.355256 0.580639 0.092368
0.387904 0.580639 0.092368
0.420553 0.580639 0.092368
0.453201 0.580639 0.092368
0.485850 0.580639 0.092368
0.518498 0.580639 0.092368
0.551147 0.580639 0.092368
0.577368 0.574340 0.094050
0.599461 0.565270 0.096791
0.621412 0.557425 0.099542
0.643231 0.550612 0.102299
0.664925 0.544677 0.105059
0.686501 0.539494 0.107821
0.707964 0.534962 0.110584
0.729322 0.530996 0.113345
0.750578 0.527526 0.116104
0.771736 0.524492 0.118860
0.792802 0.521846 0.121613
0.813778 0.519544 0.124361
0.834669 0.517550 0.127106
0.854376 0.515790 0.131061
0.857857 0.516548 0.157578
0.861463 0.519588 0.185410
0.865026 0.524032 0.213152
0.077978 0.606474 0.094313
0.096324 0.603527 0.095101
0.128145 0.603527 0.095101
0.159967 0.603527 0.095101
0.191789 0.603527 0.095101
0.223611 0.603527 0.095101
0.255432 0.603527 0.095101
0.287254 0.603527 0.095101
0.319076 0.603527 0.095101
0.350897 0.603527 0.095101
0.382719 0.603527 0.095101
0.414541 0.603527 0.095101
0.446363 0.603527 0.095101
0.478184 0.603527 0.095101
0.510006 0.603527 0.095101
0.541828 0.603527 0.095101
0.573650 0.603527 0.095101
0.599461 0.597621 0.096791
0.621412 0.589065 0.099542
0.643231 0.581611 0.102299
0.664925 0.575095 0.105059
0.686501 0.569382 0.107821
0.707964 0.564364 0.110584
0.729322 0.559951 0.113345
0.750578 0.556068 0.116104
0.771736 0.552652 0.118860
0.792802 0.549650 0.121613
0.813778 0.547015 0.124361
0.834669 0.544710 0.127106
0.854376 0.542578 0.131061
0.857857 0.541697 0.157578
0.861463 0.543170 0.185410
0.865026 0.546149 0.213152
0.080680 0.629026 0.097055
0.098614 0.626262 0.097847
0.129699 0.626262 0.097847
0.160784 0.626262 0.097847
0.191869 0.626262 0.097847
0.222953 0.626262 0.097847
0.254038 0.626262 0.097847
0.285123 0.626262 0.097847
0.316207 0.626262 0.097847
0.347292 0.626262 0.097847
0.378377 0.626262 0.097847
0.409462 0.626262 0.097847
0.440546 0.626262 0.097847
0.471631 0.626262 0.097847
0.502716 0.626262 0.097847
0.533801 0.626262 0.097847
0.564885 0.626262 0.097847
0.595970 0.626262 0.097847
0.621412 0.620705 0.099542
0.643231 0.612610 0.102299
0.664925 0.605512 0.105059
0.686501 0.599270 0.107821
0.707964 0.593766 0.110584
0.729322 0.588907 0.113345
0.750578 0.584611 0.116104
0.771736 0.580812 0.118860
0.792802 0.577454 0.121613
0.813778 0.574487 0.124361
0.834669 0.571870 0.127106
0.854376 0.569366 0.131061
0.857857 0.566846 0.157578
0.861463 0.566752 0.185410
0.865026 0.568265 0.213152
0.083367 0.651456 0.099806
0.100932 0.648855 0.100600
0.131355 0.648855 0.100600
0.161778 0.648855 0.100600
0.192201 0.648855 0.100600
0.222624 0.648855 0.100600
0.253047 0.648855 0.100600
0.283470 0.648855 0.100600
0.313893 0.648855 0.100600
0.344316 0.648855 0.100600
0.374739 0.648855 0.100600
0.405162 0.648855 0.100600
0.435585 0.648855 0.100600
0.466008 0.648855 0.100600
0.496431 0.648855 0.100600
0.526854 0.648855 0.100600
0.557278 0.648855 0.100600
0.587701 0.648855 0.100600
0.618124 0.648855 0.100600
0.643231 0.643609 0.102299
0.664925 0.635930 0.105059
0.686501 0.629157 0.107821
0.707964 0.623169 0.110584
0.729322 0.617862 0.113345
0.750578 0.613154 0.116104
0.771736 0.608972 0.118860
0.792802 0.605257 0.121613
0.813778 0.601958 0.124361
0.834669 0.599030 0.127106
0.854376 0.596154 0.131061
0.857857 0.591995 0.157578
0.861463 0.590334 0.185410
0.865026 0.590382 0.213152
0.086041 0.673770 0.102564
0.103272 0.671314 0.103358
0.133097 0.671314 0.103358
0.162922 0.671314 0.103358
0.192747 0.671314 0.103358
0.222572 0.671314 0.103358
0.252397 0.671314 0.103358
0.282222 0.671314 0.103358
0.312047 0.671314 0.103358
0.341872 0.671314 0.103358
0.371697 0.671314 0.103358
0.401522 0.671314 0.103358
0.431347 0.671314 0.103358
0.461173 0.671314 0.103358
0.490998 0.671314 0.103358
0.520823 0.671314 0.103358
0.550648 0.671314 0.103358
0.580473 0.671314 0.103358
0.610298 0.671314 0.103358
0.640123 0.671314 0.103358
0.664925 0.666348 0.105059
0.686501 0.659045 0.107821
0.707964 0.652571 0.110584
0.729322 0.646818 0.113345
0.750578 0.641696 0.116104
0.771736 0.637132 0.118860
0.792802 0.633061 0.121613
0.813778 0.629429 0.124361
0.834669 0.626191 0.127106
0.854376 0.622942 0.131061
0.857857 0.617144 0.157578
0.861463 0.613916 0.185410
0.865026 0.612498 0.213152
0.088701 0.695972 0.105324
0.105628 0.693647 0.106120
0.134909 0.693647 0.106120
0.164191 0.693647 0.106120
0.193473 0.693647 0.106120
0.222754 0.693647 0.106120
0.252036 0.693647 0.106120
0.281318 0.693647 0.106120
0.310599 0.693647 0.106120
0.339881 0.693647 0.106120
0.369163 0.693647 0.106120
0.398444 0.693647 0.106120
0.427726 0.693647 0.106120
0.457008 0.693647 0.106120
0.486289 0.693647 0.106120
0.515571 0.693647 0.106120
0.544853 0.693647 0.106120
0.574134 0.693647 0.106120
0.603416 0.693647 0.106120
0.632698 0.693647 0.106120
0.661979 0.693647 0.106120
0.686501 0.688933 0.107821
0.707964 0.681973 0.110584
0.729322 0.675773 0.113345
0.750578 0.670239 0.116104
0.771736 0.665292 0.118860
0.792802 0.660865 0.121613
0.813778 0.656901 0.124361
0.834669 0.653351 0.127106
0.854376 0.649730 0.131061
0.857857 0.642293 0.157578
0.861463 0.637498 0.185410
0.865026 0.634615 0.213152
0.091348 0.718068 0.108087
0.107997 0.715860 0.108882
0.136783 0.715860 0.108882
0.165568 0.715860 0.108882
0.194353 0.715860 0.108882
0.223138 0.715860 0.108882
0.251924 0.715860 0.108882
0.280709 0.715860 0.108882
0.309494 0.715860 0.108882
0.338279 0.715860 0.108882
0.367065 0.715860 0.108882
0.395850 0.715860 0.108882
0.424635 0.715860 0.108882
0.453420 0.715860 0.108882
0.482205 0.715860 0.108882
0.510991 0.715860 0.108882
0.539776 0.715860 0.108882
0.568561 0.715860 0.108882
0.597346 0.715860 0.108882
0.626132 0.715860 0.108882
0.654917 0.715860 0.108882
0.683702 0.715860 0.108882
0.707964 0.711376 0.110584
0.729322 0.704729 0.113345
0.750578 0.698782 0.116104
0.771736 0.693452 0.118860
0.792802 0.688669 0.121613
0.813778 0.684372 0.124361
0.834669 0.680511 0.127106
0.854376 0.676517 0.131061
0.857857 0.667442 0.157578
0.861463 0.661080 0.185410
0.865026 0.656732 0.213152
0.093983 0.740062 0.110849
0.110377 0.737961 0.111644
0.138707 0.737961 0.111644
0.167037 0.737961 0.111644
0.195366 0.737961 0.111644
0.223696 0.737961 0.111644
0.252025 0.737961 0.111644
0.280355 0.737961 0.111644
0.308685 0.737961 0.111644
0.337014 0.737961 0.111644
0.365344 0.737961 0.111644
0.393674 0.737961 0.111644
0.422003 0.737961 0.111644
0.450333 0.737961 0.111644
0.478662 0.737961 0.111644
0.506992 0.737961 0.111644
0.535322 0.737961 0.111644
0.563651 0.737961 0.111644
0.591981 0.737961 0.111644
0.620311 0.737961 0.111644
0.648640 0.737961 0.111644
0.676970 0.737961 0.111644
0.705299 0.737961 0.111644
0.729322 0.733684 0.113345
0.750578 0.727324 0.116104
0.771736 0.721612 0.118860
0.792802 0.716472 0.121613
0.813778 0.711843 0.124361
0.834669 0.707671 0.127106
0.854376 0.703305 0.131061
0.857857 0.692591 0.157578
0.861463 0.684662 0.185410
0.865026 0.678848 0.213152
0.096606 0.761958 0.113610
0.112765 0.759954 0.114404
0.140675 0.759954 0.114404
0.168585 0.759954 0.114404
0.196494 0.759954 0.114404
0.224404 0.759954 0.114404
0.252314 0.759954 0.114404
0.280224 0.759954 0.114404
0.308133 0.759954 0.114404
0.336043 0.759954 0.114404
0.363953 0.759954 0.114404
0.391862 0.759954 0.114404
0.419772 0.759954 0.114404
0.447682 0.759954 0.114404
0.475591 0.759954 0.114404
0.503501 0.759954 0.114404
0.531411 0.759954 0.114404
0.559320 0.759954 0.114404
0.587230 0.759954 0.114404
0.615140 0.759954 0.114404
0.643049 0.759954 0.114404
0.670959 0.759954 0.114404
0.698869 0.759954 0.114404
0.726778 0.759954 0.114404
0.750578 0.755867 0.116104
0.771736 0.749772 0.118860
0.792802 0.744276 0.121613
0.813778 0.739315 0.124361
0.834669 0.734831 0.127106
0.854376 0.730093 0.131061
0.857857 0.717740 0.157578
0.861463 0.708244 0.185410
0.865026 0.700965 0.213152
0.099218 0.783759 0.116368
0.115160 0.781843 0.117162
0.142681 0.781843 0.117162
0.170202 0.781843 0.117162
0.197723 0.781843 0.117162
0.225244 0.781843 0.117162
0.252765 0.781843 0.117162
0.280286 0.781843 0.117162
0.307807 0.781843 0.117162
0.335329 0.781843 0.117162
0.362850 0.781843 0.117162
0.390371 0.781843 0.117162
0.417892 0.781843 0.117162
0.445413 0.781843 0.117162
0.472934 0.781843 0.117162
0.500455 0.781843 0.117162
0.527977 0.781843 0.117162
0.555498 0.781843 0.117162
0.583019 0.781843 0.117162
0.610540 0.781843 0.117162
0.638061 0.781843 0.117162
0.665582 0.781843 0.117162
0.693103 0.781843 0.117162
0.720625 0.781843 0.117162
0.748146 0.781843 0.117162
0.771736 0.777931 0.118860
0.792802 0.772080 0.121613
0.813778 0.766786 0.124361
0.834669 0.761992 0.127106
0.854376 0.756881 0.131061
0.857857 0.742889 0.157578
0.861463 0.731826 0.185410
0.865026 0.723081 0.213152
0.101819 0.805468 0.119124
0.117558 0.803634 0.119917
0.144719 0.803634 0.119917
0.171879 0.803634 0.119917
0.199039 0.803634 0.119917
0.226200 0.803634 0.119917
0.253360 0.803634 0.119917
0.280520 0.803634 0.119917
0.307681 0.803634 0.119917
0.334841 0.803634 0.119917
0.362001 0.803634 0.119917
0.389162 0.803634 0.119917
0.416322 0.803634 0.119917
0.443482 0.803634 0.119917
0.470643 0.803634 0.119917
0.497803 0.803634 0.119917
0.524964 0.803634 0.119917
0.552124 0.803634 0.119917
0.579284 0.803634 0.119917
0.606445 0.803634 0.119917
0.633605 0.803634 0.119917
0.660765 0.803634 0.119917
0.687926 0.803634 0.119917
0.715086 0.803634 0.119917
0.742246 0.803634 0.119917
0.769407 0.803634 0.119917
0.792802 0.799883 0.121613
0.813778 0.794257 0.124361
0.834669 0.789152 0.127106
0.854376 0.783669 0.131061
0.857857 0.768038 0.157578
0.861463 0.755408 0.185410
0.865026 0.745198 0.213152
0.104409 0.827090 0.121877
0.119960 0.825331 0.122669
0.146784 0.825331 0.122669
0.173609 0.825331 0.122669
0.200433 0.825331 0.122669
0.227257 0.825331 0.122669
0.254081 0.825331 0.122669
0.280906 0.825331 0.122669
0.307730 0.825331 0.122669
0.334554 0.825331 0.122669
0.361378 0.825331 0.122669
0.388203 0.825331 0.122669
0.415027 0.825331 0.122669
0.441851 0.825331 0.122669
0.468676 0.825331 0.122669
0.495500 0.825331 0.122669
0.522324 0.825331 0.122669
0.549148 0.825331 0.122669
0.575973 0.825331 0.122669
0.602797 0.825331 0.122669
0.629621 0.825331 0.122669
0.656445 0.825331 0.122669
0.683270 0.825331 0.122669
0.710094 0.825331 0.122669
0.736918 0.825331 0.122669
0.763743 0.825331 0.122669
0.790567 0.825331 0.122669
0.813778 0.821729 0.124361
0.834669 0.816312 0.127106
