assets/luts/cloud.cube
TITLE "cloud"
LUT_3D_SIZE 9
0.032919 0.033073 0.245592
0.305020 0.043384 0.068858
0.399853 0.055476 0.072872
0.491343 0.067141 0.082536
0.580299 0.078484 0.093263
0.667226 0.089568 0.104264
0.752466 0.100437 0.115309
0.836268 0.111122 0.126316
0.870293 0.186126 0.205171
0.044061 0.323363 0.068492
0.277276 0.311081 0.068407
0.393643 0.238164 0.073489
0.487339 0.215810 0.083289
0.577368 0.209748 0.094050
0.664925 0.210082 0.105059
0.750578 0.213556 0.116104
0.834669 0.218788 0.127106
0.865026 0.280749 0.213152
0.055736 0.420816 0.073699
0.211558 0.414726 0.074339
0.386105 0.414726 0.074339
0.487339 0.366056 0.083289
0.577368 0.342327 0.094050
0.664925 0.331753 0.105059
0.750578 0.327727 0.116104
0.834669 0.327428 0.127106
0.865026 0.369216 0.213152
0.067010 0.514922 0.083541
0.195267 0.510930 0.084299
0.338801 0.510930 0.084299
0.482334 0.510930 0.084299
0.577368 0.474905 0.094050
0.664925 0.453424 0.105059
0.750578 0.441898 0.116104
0.834669 0.436069 0.127106
0.865026 0.457682 0.213152
0.077978 0.606474 0.094313
0.191789 0.603527 0.095101
0.319076 0.603527 0.095101
0.446363 0.603527 0.095101
0.573650 0.603527 0.095101
0.664925 0.575095 0.105059
0.750578 0.556068 0.116104
0.834669 0.544710 0.127106
0.865026 0.546149 0.213152
0.088701 0.695972 0.105324
0.193473 0.693647 0.106120
0.310599 0.693647 0.106120
0.427726 0.693647 0.106120
0.544853 0.693647 0.106120
0.661979 0.693647 0.106120
0.750578 0.670239 0.116104
0.834669 0.653351 0.127106
0.865026 0.634615 0.213152
0.099218 0.783759 0.116368
0.197723 0.781843 0.117162
0.307807 0.781843 0.117162
0.417892 0.781843 0.117162
0.527977 0.781843 0.117162
0.638061 0.781843 0.117162
0.748146 0.781843 0.117162
0.834669 0.761992 0.127106
0.865026 0.723081 0.213152
0.109559 0.870081 0.127369
0.203417 0.868456 0.128158
0.308281 0.868456 0.128158
0.413145 0.868456 0.128158
0.518010 0.868456 0.128158
0.622874 0.868456 0.128158
0.727738 0.868456 0.128158
0.832602 0.868456 0.128158
0.865026 0.811548 0.213152
0.191061 0.898203 0.215811
0.268981 0.897736 0.218628
0.353828 0.897736 0.218628
0.438674 0.897736 0.218628
0.523520 0.897736 0.218628
0.608367 0.897736 0.218628
0.693213 0.897736 0.218628
0.778059 0.897736 0.218628
0.862906 0.897736 0.218628
0.045108 0.045648 0.354530
0.275115 0.045648 0.354530
0.399853 0.055476 0.274856
0.491343 0.067141 0.245250
0.580299 0.078484 0.236277
0.667226 0.089568 0.235237
0.752466 0.100437 0.238054
0.836268 0.111122 0.243018
0.870293 0.186126 0.301663
0.045108 0.308588 0.354530
0.214521 0.238164 0.271356
0.344583 0.216875 0.245504
0.451285 0.209952 0.236342
0.549042 0.209897 0.235217
0.641677 0.213166 0.237989
0.730906 0.218277 0.242927
0.783786 0.273480 0.300285
0.873148 0.298625 0.326889
0.055736 0.420816 0.270258
0.196904 0.369229 0.245504
0.338801 0.362853 0.242853
0.448857 0.342327 0.236009
0.546987 0.331753 0.235339
0.639910 0.327727 0.238353
0.729362 0.327428 0.243433
0.779275 0.369216 0.307878
0.874245 0.387119 0.328436
0.067010 0.514922 0.243823
0.191921 0.477527 0.236342
0.319076 0.472211 0.235709
0.446363 0.472211 0.235709
0.546987 0.453424 0.235339
0.639910 0.441898 0.238353
0.729362 0.436069 0.243433
0.779275 0.457682 0.307878
0.874245 0.474163 0.328436
0.077978 0.606474 0.235928
0.192922 0.577291 0.235217
0.310599 0.572812 0.235504
0.427726 0.572812 0.235504
0.544853 0.572812 0.235504
0.639910 0.556068 0.238353
0.729362 0.544710 0.243433
0.779275 0.546149 0.307878
0.874245 0.561208 0.328436
0.088701 0.695972 0.235377
0.196810 0.672116 0.237989
0.307807 0.668274 0.238767
0.417892 0.668274 0.238767
0.527977 0.668274 0.238767
0.638061 0.668274 0.238767
0.729362 0.653351 0.243433
0.779275 0.634615 0.307878
0.874245 0.648253 0.328436
0.099218 0.783759 0.238455
0.202291 0.763626 0.242927
0.308281 0.760272 0.243997
0.413145 0.760272 0.243997
0.518010 0.760272 0.243997
0.622874 0.760272 0.243997
0.727738 0.760272 0.243997
0.779275 0.723081 0.307878
0.874245 0.735298 0.328436
0.109559 0.870081 0.243573
0.257530 0.816395 0.300285
0.353828 0.810204 0.312353
0.438674 0.810204 0.312353
0.523520 0.810204 0.312353
0.608367 0.810204 0.312353
0.693213 0.810204 0.312353
0.778059 0.810204 0.312353
0.874245 0.822343 0.328436
0.191061 0.898203 0.309956
0.282219 0.908260 0.326889
0.369486 0.910615 0.330119
0.453811 0.910615 0.330119
0.538137 0.910615 0.330119
0.622463 0.910615 0.330119
0.706788 0.910615 0.330119
0.791114 0.910615 0.330119
0.875439 0.910615 0.330119
0.056743 0.057650 0.458515
0.211099 0.057650 0.458515
0.384924 0.057650 0.458515
0.491343 0.067141 0.407964
0.580299 0.078484 0.379291
0.667226 0.089568 0.366210
0.752466 0.100437 0.360798
0.836268 0.111122 0.359721
0.870293 0.186126 0.398154
0.056743 0.234109 0.458515
0.196068 0.215810 0.405042
0.338801 0.214776 0.401408
0.451285 0.209952 0.379595
0.549042 0.209897 0.366346
0.641677 0.213166 0.360844
0.730906 0.218277 0.359714
0.783786 0.273480 0.397173
0.873148 0.298625 0.420142
0.056743 0.413436 0.458515
0.196068 0.366056 0.405042
0.320347 0.342327 0.377969
0.430335 0.332362 0.366346
0.530460 0.327904 0.360844
0.625183 0.327347 0.359714
0.696076 0.363966 0.397173
0.788729 0.385716 0.420142
0.885530 0.401470 0.436963
0.067010 0.514922 0.404106
0.191921 0.477527 0.379595
0.311629 0.454826 0.366346
0.427726 0.451978 0.364888
0.529243 0.441898 0.360602
0.624055 0.436069 0.359761
0.693523 0.457682 0.402604
0.789871 0.474163 0.421640
0.886612 0.489381 0.438424
0.077978 0.606474 0.377544
0.192922 0.577291 0.366346
0.308026 0.557379 0.360844
0.417892 0.554704 0.360372
0.527977 0.554704 0.360372
0.624055 0.544710 0.359761
0.693523 0.546149 0.402604
0.789871 0.561208 0.421640
0.886612 0.575924 0.438424
0.088701 0.695972 0.365430
0.196810 0.672116 0.360844
0.308014 0.654556 0.359714
0.413145 0.652089 0.359835
0.518010 0.652089 0.359835
0.622874 0.652089 0.359835
0.693523 0.634615 0.402604
0.789871 0.648253 0.421640
0.886612 0.662468 0.438424
0.099218 0.783759 0.360541
0.202291 0.763626 0.359714
0.345239 0.725910 0.397173
0.438674 0.722672 0.406079
0.523520 0.722672 0.406079
0.608367 0.722672 0.406079
0.693213 0.722672 0.406079
0.789871 0.735298 0.421640
0.886612 0.749011 0.438424
0.109559 0.870081 0.359777
0.257530 0.816395 0.397173
0.366637 0.821170 0.420142
0.453811 0.823620 0.423270
0.538137 0.823620 0.423270
0.622463 0.823620 0.423270
0.706788 0.823620 0.423270
0.791114 0.823620 0.423270
0.886612 0.835555 0.438424
0.191061 0.898203 0.404100
0.282219 0.908260 0.420142
0.381955 0.920986 0.436963
0.468575 0.923309 0.440013
0.552418 0.923309 0.440013
0.636261 0.923309 0.440013
0.720104 0.923309 0.440013
0.803947 0.923309 0.440013
0.887790 0.923309 0.440013
0.067987 0.069250 0.559011
0.195144 0.069250 0.559011
0.338340 0.069250 0.559011
0.481535 0.069250 0.559011
0.580299 0.078484 0.522305
0.667226 0.089568 0.497182
0.752466 0.100437 0.483542
0.836268 0.111122 0.476424
0.870293 0.186126 0.494645
0.067987 0.214615 0.559011
0.191836 0.209748 0.519928
0.319076 0.209578 0.516924
0.446363 0.209578 0.516924
0.549042 0.209897 0.497475
0.641677 0.213166 0.483700
0.730906 0.218277 0.476501
0.783786 0.273480 0.494061
0.873148 0.298625 0.513395
0.067987 0.362344 0.559011
0.191836 0.342327 0.519928
0.311112 0.331753 0.495899
0.427726 0.331143 0.494272
0.530460 0.327904 0.483700
0.625183 0.327347 0.476501
0.696076 0.363966 0.494061
0.788729 0.385716 0.513395
0.885530 0.401470 0.529676
0.067987 0.510072 0.559011
0.191836 0.474905 0.519928
0.311112 0.453424 0.495899
0.418575 0.441898 0.482850
0.519460 0.436416 0.476501
0.608367 0.454452 0.494061
0.704311 0.472807 0.513395
0.801601 0.488056 0.529676
0.897747 0.502965 0.545596
0.077978 0.606474 0.519160
0.192922 0.577291 0.497475
0.308026 0.557379 0.483700
0.413737 0.545486 0.476501
0.518010 0.543905 0.475673
0.607771 0.546149 0.497330
0.705497 0.561208 0.514843
0.802724 0.575924 0.531090
0.898815 0.590339 0.546981
0.088701 0.695972 0.495483
0.196810 0.672116 0.483700
0.308014 0.654556 0.476501
0.432948 0.635424 0.494061
0.523520 0.635140 0.499804
0.608367 0.635140 0.499804
0.705497 0.648253 0.514843
0.802724 0.662468 0.531090
0.898815 0.676415 0.546981
0.099218 0.783759 0.482627
0.202291 0.763626 0.476501
0.345239 0.725910 0.494061
0.451056 0.734079 0.513395
0.538137 0.736625 0.516420
0.622463 0.736625 0.516420
0.706788 0.736625 0.516420
0.802724 0.749011 0.531090
0.898815 0.762491 0.546981
0.109559 0.870081 0.475981
0.257530 0.816395 0.494061
0.366637 0.821170 0.513395
0.465884 0.834400 0.529676
0.552418 0.836812 0.532631
0.636261 0.836812 0.532631
0.720104 0.836812 0.532631
0.803947 0.836812 0.532631
0.898815 0.848567 0.546981
0.191061 0.898203 0.498245
0.282219 0.908260 0.513395
0.381955 0.920986 0.529676
0.480380 0.933545 0.545596
0.566407 0.935839 0.548489
0.649800 0.935839 0.548489
0.733193 0.935839 0.548489
0.816586 0.935839 0.548489
0.899978 0.935839 0.548489
0.078931 0.080541 0.656829
0.191785 0.080541 0.656829
0.318874 0.080541 0.656829
0.445962 0.080541 0.656829
0.573050 0.080541 0.656829
0.667226 0.089568 0.628155
0.752466 0.100437 0.606286
0.836268 0.111122 0.593126
0.870293 0.186126 0.591137
0.078931 0.209555 0.656829
0.193174 0.210082 0.626179
0.310599 0.210309 0.623656
0.427726 0.210309 0.623656
0.544853 0.210309 0.623656
0.641677 0.213166 0.606556
0.730906 0.218277 0.593288
0.783786 0.273480 0.590950
0.873148 0.298625 0.606648
0.078931 0.340666 0.656829
0.193174 0.331753 0.626179
0.307908 0.327727 0.605099
0.417892 0.327566 0.603582
0.527977 0.327566 0.603582
0.625183 0.327347 0.593288
0.696076 0.363966 0.590950
0.788729 0.385716 0.606648
0.885530 0.401470 0.622388
0.078931 0.471777 0.656829
0.193174 0.453424 0.626179
0.307908 0.441898 0.605099
0.413440 0.436069 0.592416
0.518010 0.435721 0.591511
0.608367 0.454452 0.590950
0.704311 0.472807 0.606648
0.801601 0.488056 0.622388
0.897747 0.502965 0.637805
0.078931 0.602889 0.656829
0.193174 0.575095 0.626179
0.307908 0.556068 0.605099
0.413440 0.544710 0.592416
0.522019 0.546149 0.592056
0.619892 0.559897 0.606648
0.717672 0.574642 0.622388
0.814274 0.589081 0.637805
0.909815 0.603251 0.652936
0.088701 0.695972 0.625536
0.196810 0.672116 0.606556
0.308014 0.654556 0.593288
0.432948 0.635424 0.590950
0.535474 0.646988 0.606648
0.622463 0.649630 0.609570
0.718836 0.662468 0.623757
0.815380 0.676415 0.639147
0.910871 0.690124 0.654255
0.099218 0.783759 0.604713
0.202291 0.763626 0.593288
0.345239 0.725910 0.590950
0.451056 0.734079 0.606648
0.549813 0.747814 0.622388
0.636261 0.750315 0.625248
0.720104 0.750315 0.625248
0.815380 0.762491 0.639147
0.910871 0.775762 0.654255
0.109559 0.870081 0.592186
0.257530 0.816395 0.590950
0.366637 0.821170 0.606648
0.465884 0.834400 0.622388
0.563853 0.847429 0.637805
0.649800 0.849806 0.640609
0.733193 0.849806 0.640609
0.816586 0.849806 0.640609
0.910871 0.861400 0.654255
0.191061 0.898203 0.592390
0.282219 0.908260 0.606648
0.381955 0.920986 0.622388
0.480380 0.933545 0.637805
0.577630 0.945953 0.652936
0.663109 0.948221 0.655692
0.746080 0.948221 0.655692
0.829050 0.948221 0.655692
0.912021 0.948221 0.655692
0.089634 0.091583 0.752485
0.193525 0.091583 0.752485
0.310519 0.091583 0.752485
0.427513 0.091583 0.752485
0.544507 0.091583 0.752485
0.661502 0.091583 0.752485
0.752466 0.100437 0.729031
0.836268 0.111122 0.709829
0.870293 0.186126 0.687628
0.089634 0.210350 0.752485
0.197240 0.213556 0.727348
0.307807 0.213996 0.725187
0.417892 0.213996 0.725187
0.527977 0.213996 0.725187
0.638061 0.213996 0.725187
0.730906 0.218277 0.710075
0.783786 0.273480 0.687838
0.873148 0.298625 0.699901
0.089634 0.331047 0.752485
0.197240 0.327727 0.727348
0.308133 0.327428 0.708744
0.413145 0.327537 0.707349
0.518010 0.327537 0.707349
0.622874 0.327537 0.707349
0.696076 0.363966 0.687838
0.788729 0.385716 0.699901
0.885530 0.401470 0.715101
0.089634 0.451745 0.752485
0.197240 0.441898 0.727348
0.308133 0.436069 0.708744
0.436267 0.457682 0.686782
0.523520 0.460075 0.687256
0.608367 0.460075 0.687256
0.704311 0.472807 0.699901
0.801601 0.488056 0.715101
0.897747 0.502965 0.730014
0.089634 0.572443 0.752485
0.197240 0.556068 0.727348
0.308133 0.544710 0.708744
0.436267 0.546149 0.686782
0.536749 0.561208 0.701251
0.622463 0.562635 0.702721
0.717672 0.574642 0.715101
0.814274 0.589081 0.730014
0.909815 0.603251 0.744673
0.089634 0.693141 0.752485
0.197240 0.670239 0.727348
0.308133 0.653351 0.708744
0.436267 0.634615 0.686782
0.536749 0.648253 0.701251
0.634948 0.662468 0.716424
0.730800 0.675197 0.730014
0.826769 0.688927 0.744673
0.921749 0.702443 0.759106
0.099218 0.783759 0.726799
0.202291 0.763626 0.710075
0.345239 0.725910 0.687838
0.451056 0.734079 0.699901
0.549813 0.747814 0.715101
0.647327 0.761313 0.730014
0.733193 0.763773 0.732729
0.827861 0.775762 0.745952
0.922794 0.788848 0.760366
0.109559 0.870081 0.708390
0.257530 0.816395 0.687838
0.366637 0.821170 0.699901
0.465884 0.834400 0.715101
0.563853 0.847429 0.730014
0.660676 0.860278 0.744673
0.746080 0.862624 0.747345
0.829050 0.862624 0.747345
0.922794 0.874073 0.760366
0.191061 0.898203 0.686534
0.282219 0.908260 0.699901
0.381955 0.920986 0.715101
0.480380 0.933545 0.730014
0.577630 0.945953 0.744673
0.673816 0.958225 0.759106
0.758785 0.960469 0.761739
0.841359 0.960469 0.761739
0.923932 0.960469 0.761739
0.100134 0.102416 0.846336
0.197805 0.102416 0.846336
0.307794 0.102416 0.846336
0.417783 0.102416 0.846336
0.527772 0.102416 0.846336
0.637761 0.102416 0.846336
0.747750 0.102416 0.846336
0.836268 0.111122 0.826532
0.870293 0.186126 0.784119
0.100134 0.214071 0.846336
0.202826 0.218788 0.825072
0.308281 0.219354 0.823188
0.413145 0.219354 0.823188
0.518010 0.219354 0.823188
0.622874 0.219354 0.823188
0.727738 0.219354 0.823188
0.783786 0.273480 0.784726
0.873148 0.298625 0.793153
0.100134 0.327542 0.846336
0.202826 0.327428 0.825072
0.350516 0.369216 0.781507
0.438674 0.372543 0.780981
0.523520 0.372543 0.780981
0.608367 0.372543 0.780981
0.693213 0.372543 0.780981
0.788729 0.385716 0.793153
0.885530 0.401470 0.807813
0.100134 0.441013 0.846336
0.202826 0.436069 0.825072
0.350516 0.457682 0.781507
0.452375 0.474163 0.794454
0.538137 0.475640 0.795871
0.622463 0.475640 0.795871
0.706788 0.475640 0.795871
0.801601 0.488056 0.807813
0.897747 0.502965 0.822223
0.100134 0.554484 0.846336
0.202826 0.544710 0.825072
0.350516 0.546149 0.781507
0.452375 0.561208 0.794454
0.551060 0.575924 0.809091
0.636261 0.577321 0.810482
0.720104 0.577321 0.810482
0.814274 0.589081 0.822223
0.909815 0.603251 0.836411
0.100134 0.667954 0.846336
0.202826 0.653351 0.825072
0.350516 0.634615 0.781507
0.452375 0.648253 0.794454
0.551060 0.662468 0.809091
0.648511 0.676415 0.823480
0.733193 0.677741 0.824849
0.826769 0.688927 0.836411
0.921749 0.702443 0.850400
0.100134 0.781425 0.846336
0.202826 0.761992 0.825072
0.350516 0.723081 0.781507
0.452375 0.735298 0.794454
0.551060 0.749011 0.809091
0.648511 0.762491 0.823480
0.744851 0.775762 0.837649
0.839105 0.787703 0.850400
0.933561 0.800635 0.864209
0.109559 0.870081 0.824594
0.257530 0.816395 0.784726
0.366637 0.821170 0.793153
0.465884 0.834400 0.807813
0.563853 0.847429 0.822223
0.660676 0.860278 0.836411
0.756460 0.872964 0.850400
0.841359 0.875282 0.852954
0.934595 0.886601 0.865416
0.191061 0.898203 0.780679
0.282219 0.908260 0.793153
0.381955 0.920986 0.807813
0.480380 0.933545 0.822223
0.577630 0.945953 0.836411
0.673816 0.958225 0.850400
0.769031 0.970373 0.864209
0.853525 0.972595 0.866732
0.935722 0.972595 0.866732
0.110462 0.113070 0.938638
0.203517 0.113070 0.938638
0.308308 0.113070 0.938638
0.413099 0.113070 0.938638
0.517890 0.113070 0.938638
0.622682 0.113070 0.938638
0.727473 0.113070 0.938638
0.832264 0.113070 0.938638
0.870293 0.186126 0.880611
0.110462 0.219449 0.938638
0.264764 0.280749 0.876233
0.353828 0.285011 0.874707
0.438674 0.285011 0.874707
0.523520 0.285011 0.874707
0.608367 0.285011 0.874707
0.693213 0.285011 0.874707
0.778059 0.285011 0.874707
0.873148 0.298625 0.886406
0.110462 0.327558 0.938638
0.264764 0.369216 0.876233
0.368001 0.387119 0.887658
0.453811 0.388645 0.889021
0.538137 0.388645 0.889021
0.622463 0.388645 0.889021
0.706788 0.388645 0.889021
0.791114 0.388645 0.889021
0.885530 0.401470 0.900526
0.110462 0.435666 0.938638
0.264764 0.457682 0.876233
0.368001 0.474163 0.887658
0.467172 0.489381 0.901758
0.552418 0.490824 0.903100
0.636261 0.490824 0.903100
0.720104 0.490824 0.903100
0.803947 0.490824 0.903100
0.897747 0.502965 0.914432
0.110462 0.543775 0.938638
0.264764 0.546149 0.876233
0.368001 0.561208 0.887658
0.467172 0.575924 0.901758
0.565076 0.590339 0.915646
0.649800 0.591708 0.916969
0.733193 0.591708 0.916969
0.816586 0.591708 0.916969
0.909815 0.603251 0.928148
0.110462 0.651883 0.938638
0.264764 0.634615 0.876233
0.368001 0.648253 0.887658
0.467172 0.662468 0.901758
0.565076 0.676415 0.915646
0.661840 0.690124 0.929347
0.746080 0.691429 0.930653
0.829050 0.691429 0.930653
0.921749 0.702443 0.941693
0.110462 0.759992 0.938638
0.264764 0.723081 0.876233
0.368001 0.735298 0.887658
0.467172 0.749011 0.901758
0.565076 0.762491 0.915646
0.661840 0.775762 0.929347
0.757573 0.788848 0.942877
0.841359 0.790095 0.944168
0.933561 0.800635 0.955083
0.110462 0.868100 0.938638
0.264764 0.811548 0.876233
0.368001 0.822343 0.887658
0.467172 0.835555 0.901758
0.565076 0.848567 0.915646
0.661840 0.861400 0.929347
0.757573 0.874073 0.942877
0.852362 0.886601 0.956254
0.945260 0.897909 0.968331
0.191061 0.898203 0.874824
0.282219 0.908260 0.886406
0.381955 0.920986 0.900526
0.480380 0.933545 0.914432
0.577630 0.945953 0.928148
0.673816 0.958225 0.941693
0.769031 0.970373 0.955083
0.863355 0.982406 0.968331
0.947401 0.984609 0.970754
0.192690 0.197902 0.960906
0.268061 0.197902 0.960906
0.352937 0.197902 0.960906
0.437814 0.197902 0.960906
0.522691 0.197902 0.960906
0.607568 0.197902 0.960906
0.692444 0.197902 0.960906
0.777321 0.197902 0.960906
0.862198 0.197902 0.960906
0.192690 0.284064 0.960906
0.282475 0.298889 0.973164
0.368373 0.300468 0.974480
0.452735 0.300468 0.974480
0.537096 0.300468 0.974480
0.621458 0.300468 0.974480
0.705820 0.300468 0.974480
0.790182 0.300468 0.974480
0.874543 0.300468 0.974480
0.192690 0.371628 0.960906
0.282475 0.385971 0.973164
0.382197 0.401719 0.986779
0.467523 0.403210 0.988077
0.551400 0.403210 0.988077
0.635277 0.403210 0.988077
0.719153 0.403210 0.988077
0.803030 0.403210 0.988077
0.886907 0.403210 0.988077
0.192690 0.459191 0.960906
0.282475 0.473054 0.973164
0.382197 0.488297 0.986779
0.480609 0.503201 0.997200
0.565409 0.504616 0.997200
0.648833 0.504616 0.997200
0.732257 0.504616 0.997200
0.815682 0.504616 0.997200
0.899106 0.504616 0.997200
0.192690 0.546755 0.960906
0.282475 0.560136 0.973164
0.382197 0.574875 0.986779
0.480609 0.589310 0.997200
0.577848 0.603476 0.997200
0.662158 0.604823 0.997200
0.745158 0.604823 0.997200
0.828158 0.604823 0.997200
0.911159 0.604823 0.997200
0.192690 0.634318 0.960906
0.282475 0.647218 0.973164
0.382197 0.661454 0.986779
0.480609 0.675419 0.997200
0.577848 0.689145 0.997200
0.674024 0.702657 0.997200
0.757876 0.703944 0.997200
0.840477 0.703944 0.997200
0.923078 0.703944 0.997200
0.192690 0.721882 0.960906
0.282475 0.734301 0.973164
0.382197 0.748032 0.986779
0.480609 0.761527 0.997200
0.577848 0.774813 0.997200
0.674024 0.787912 0.997200
0.769231 0.800840 0.997200
0.852653 0.802073 0.997200
0.934877 0.802073 0.997200
0.192690 0.809446 0.960906
0.282475 0.821383 0.973164
0.382197 0.834610 0.986779
0.480609 0.847636 0.997200
0.577848 0.860482 0.997200
0.674024 0.873166 0.997200
0.769231 0.885703 0.997200
0.863547 0.898106 0.997200
0.946564 0.899290 0.997200
0.192690 0.897009 0.960906
0.282475 0.908465 0.973164
0.382197 0.921189 0.986779
0.480609 0.933745 0.997200
0.577848 0.946150 0.997200
0.674024 0.958420 0.997200
0.769231 0.970566 0.997200
0.863547 0.982598 0.997200
0.957040 0.994525 0.997200
