assets/luts/cloud.cube
TITLE "cloud"
LUT_3D_SIZE 5
0.032919 0.033073 0.245592
0.399853 0.055476 0.072872
0.580299 0.078484 0.093263
0.752466 0.100437 0.115309
0.870293 0.186126 0.205171
0.055736 0.420816 0.073699
0.386105 0.414726 0.074339
0.577368 0.342327 0.094050
0.750578 0.327727 0.116104
0.865026 0.369216 0.213152
0.077978 0.606474 0.094313
0.319076 0.603527 0.095101
0.573650 0.603527 0.095101
0.750578 0.556068 0.116104
0.865026 0.546149 0.213152
0.099218 0.783759 0.116368
0.307807 0.781843 0.117162
0.527977 0.781843 0.117162
0.748146 0.781843 0.117162
0.865026 0.723081 0.213152
0.191061 0.898203 0.215811
0.353828 0.897736 0.218628
0.523520 0.897736 0.218628
0.693213 0.897736 0.218628
0.862906 0.897736 0.218628
0.056743 0.057650 0.458515
0.384924 0.057650 0.458515
0.580299 0.078484 0.379291
0.752466 0.100437 0.360798
0.870293 0.186126 0.398154
0.056743 0.413436 0.458515
0.320347 0.342327 0.377969
0.530460 0.327904 0.360844
0.696076 0.363966 0.397173
0.885530 0.401470 0.436963
0.077978 0.606474 0.377544
0.308026 0.557379 0.360844
0.527977 0.554704 0.360372
0.693523 0.546149 0.402604
0.886612 0.575924 0.438424
0.099218 0.783759 0.360541
0.345239 0.725910 0.397173
0.523520 0.722672 0.406079
0.693213 0.722672 0.406079
0.886612 0.749011 0.438424
0.191061 0.898203 0.404100
0.381955 0.920986 0.436963
0.552418 0.923309 0.440013
0.720104 0.923309 0.440013
0.887790 0.923309 0.440013
0.078931 0.080541 0.656829
0.318874 0.080541 0.656829
0.573050 0.080541 0.656829
0.752466 0.100437 0.606286
0.870293 0.186126 0.591137
0.078931 0.340666 0.656829
0.307908 0.327727 0.605099
0.527977 0.327566 0.603582
0.696076 0.363966 0.590950
0.885530 0.401470 0.622388
0.078931 0.602889 0.656829
0.307908 0.556068 0.605099
0.522019 0.546149 0.592056
0.717672 0.574642 0.622388
0.909815 0.603251 0.652936
0.099218 0.783759 0.604713
0.345239 0.725910 0.590950
0.549813 0.747814 0.622388
0.720104 0.750315 0.625248
0.910871 0.775762 0.654255
0.191061 0.898203 0.592390
0.381955 0.920986 0.622388
0.577630 0.945953 0.652936
0.746080 0.948221 0.655692
0.912021 0.948221 0.655692
0.100134 0.102416 0.846336
0.307794 0.102416 0.846336
0.527772 0.102416 0.846336
0.747750 0.102416 0.846336
0.870293 0.186126 0.784119
0.100134 0.327542 0.846336
0.350516 0.369216 0.781507
0.523520 0.372543 0.780981
0.693213 0.372543 0.780981
0.885530 0.401470 0.807813
0.100134 0.554484 0.846336
0.350516 0.546149 0.781507
0.551060 0.575924 0.809091
0.720104 0.577321 0.810482
0.909815 0.603251 0.836411
0.100134 0.781425 0.846336
0.350516 0.723081 0.781507
0.551060 0.749011 0.809091
0.744851 0.775762 0.837649
0.933561 0.800635 0.864209
0.191061 0.898203 0.780679
0.381955 0.920986 0.807813
0.577630 0.945953 0.836411
0.769031 0.970373 0.864209
0.935722 0.972595 0.866732
0.192690 0.197902 0.960906
0.352937 0.197902 0.960906
0.522691 0.197902 0.960906
0.692444 0.197902 0.960906
0.862198 0.197902 0.960906
0.192690 0.371628 0.960906
0.382197 0.401719 0.986779
0.551400 0.403210 0.988077
0.719153 0.403210 0.988077
0.886907 0.403210 0.988077
0.192690 0.546755 0.960906
0.382197 0.574875 0.986779
0.577848 0.603476 0.997200
0.745158 0.604823 0.997200
0.911159 0.604823 0.997200
0.192690 0.721882 0.960906
0.382197 0.748032 0.986779
0.577848 0.774813 0.997200
0.769231 0.800840 0.997200
0.934877 0.802073 0.997200
0.192690 0.897009 0.960906
0.382197 0.921189 0.986779
0.577848 0.946150 0.997200
0.769231 0.970566 0.997200
0.957040 0.994525 0.997200
