assets/luts/cream.cube
TITLE "cream"
LUT_3D_SIZE 5
0.190931 0.035220 0.011006
0.422976 0.033395 0.025121
0.641896 0.046925 0.038438
0.853318 0.060623 0.051298
0.986797 0.129392 0.114490
0.080911 0.374283 0.023678
0.422976 0.362354 0.025121
0.641896 0.313199 0.038438
0.853318 0.302206 0.051298
0.986797 0.332746 0.114490
0.086963 0.585757 0.037056
0.367909 0.585757 0.037056
0.641896 0.579474 0.038438
0.853318 0.543789 0.051298
0.986797 0.536100 0.114490
0.098292 0.789680 0.049957
0.351531 0.789680 0.049957
0.604770 0.789680 0.049957
0.853318 0.785372 0.051298
0.986797 0.739453 0.114490
0.166901 0.939228 0.114490
0.378389 0.939228 0.114490
0.589877 0.939228 0.114490
0.801364 0.939228 0.114490
0.986797 0.939228 0.114490
0.081183 0.031056 0.319276
0.420931 0.033623 0.299341
0.640810 0.047167 0.261274
0.852572 0.060863 0.253692
0.987085 0.129796 0.285227
0.080878 0.360597 0.299341
0.367135 0.314978 0.262922
0.604072 0.302552 0.253917
0.802156 0.333674 0.285738
1.000000 0.351727 0.302295
0.088230 0.578494 0.261274
0.352149 0.548131 0.254253
0.604072 0.545561 0.253917
0.802156 0.536949 0.285738
1.000000 0.553527 0.302295
0.099796 0.784687 0.253692
0.371445 0.745046 0.277617
0.589669 0.745046 0.277617
0.802156 0.740223 0.285738
1.000000 0.755327 0.302295
0.169804 0.941163 0.287266
0.397958 0.953575 0.302295
0.607830 0.953575 0.302295
0.817702 0.953575 0.302295
1.000000 0.953575 0.302295
0.086178 0.044389 0.513711
0.370402 0.044389 0.513711
0.640810 0.047167 0.503028
0.852572 0.060863 0.473252
0.987085 0.129796 0.470250
0.087230 0.314978 0.507839
0.352149 0.303116 0.477216
0.601646 0.302138 0.473252
0.803894 0.335709 0.472427
1.000000 0.353673 0.487579
0.088230 0.578494 0.503028
0.350721 0.543412 0.473252
0.590751 0.536949 0.470717
0.819854 0.555809 0.488027
1.000000 0.571768 0.502663
0.099796 0.784687 0.473252
0.381443 0.741912 0.472427
0.608167 0.755626 0.486233
0.819854 0.757416 0.488027
1.000000 0.772088 0.502663
0.169804 0.941163 0.472117
0.402145 0.956694 0.489368
0.626639 0.968882 0.502663
0.834971 0.968882 0.502663
1.000000 0.968882 0.502663
0.097334 0.058102 0.700179
0.352149 0.058102 0.700179
0.606964 0.058102 0.700179
0.852572 0.060863 0.692811
0.987085 0.129796 0.655272
0.098613 0.302552 0.696193
0.371445 0.325386 0.659508
0.589669 0.325386 0.659508
0.803894 0.335709 0.657249
1.000000 0.353673 0.671079
0.098613 0.545561 0.696193
0.379346 0.536949 0.655697
0.608167 0.553853 0.669846
0.821540 0.557595 0.672992
1.000000 0.573502 0.686422
0.099796 0.784687 0.692811
0.381443 0.741912 0.657249
0.612024 0.759053 0.672992
0.837070 0.774124 0.686822
1.000000 0.788453 0.699962
0.169804 0.941163 0.656967
0.402145 0.956694 0.672719
0.630373 0.971950 0.688019
0.851847 0.983954 0.699962
1.000000 0.983954 0.699962
0.153222 0.115555 0.850454
0.371445 0.115555 0.850454
0.589669 0.115555 0.850454
0.807892 0.115555 0.850454
0.987085 0.129796 0.840295
0.167941 0.333674 0.840676
0.398324 0.352081 0.853458
0.608167 0.352081 0.853458
0.818010 0.352081 0.853458
1.000000 0.353673 0.854579
0.167941 0.536949 0.840676
0.400511 0.555809 0.854952
0.626964 0.572084 0.867490
0.835271 0.572084 0.867490
1.000000 0.573502 0.868591
0.167941 0.740223 0.840676
0.400511 0.757416 0.854952
0.628914 0.774124 0.868958
0.852141 0.788738 0.881297
1.000000 0.790019 0.882382
0.169804 0.941163 0.841818
0.402145 0.956694 0.856070
0.630373 0.971950 0.870057
0.855221 0.986980 0.883827
1.000000 0.998829 0.894678
