assets/luts/cream.cube
TITLE "cream"
LUT_3D_SIZE 9
0.190931 0.035220 0.011006
0.309271 0.027567 0.018204
0.422976 0.033395 0.025121
0.533590 0.040079 0.031849
0.641896 0.046925 0.038438
0.748367 0.053788 0.044914
0.853318 0.060623 0.051298
0.956976 0.067416 0.057604
0.986797 0.129392 0.114490
0.089948 0.264175 0.016712
0.309271 0.242390 0.018204
0.422976 0.197874 0.025121
0.533590 0.184378 0.031849
0.641896 0.180062 0.038438
0.748367 0.179706 0.044914
0.853318 0.181415 0.051298
0.956976 0.184337 0.057604
0.986797 0.231069 0.114490
0.080911 0.374283 0.023678
0.258876 0.374283 0.023678
0.422976 0.362354 0.025121
0.533590 0.328677 0.031849
0.641896 0.313199 0.038438
0.748367 0.305623 0.044914
0.853318 0.302206 0.051298
0.956976 0.301257 0.057604
0.986797 0.332746 0.114490
0.082592 0.481193 0.030441
0.236008 0.481193 0.030441
0.389425 0.481193 0.030441
0.533590 0.472976 0.031849
0.641896 0.446337 0.038438
0.748367 0.431540 0.044914
0.853318 0.422998 0.051298
0.956976 0.418178 0.057604
0.986797 0.434423 0.114490
0.086963 0.585757 0.037056
0.227436 0.585757 0.037056
0.367909 0.585757 0.037056
0.508382 0.585757 0.037056
0.641896 0.579474 0.038438
0.748367 0.557457 0.044914
0.853318 0.543789 0.051298
0.956976 0.535099 0.057604
0.986797 0.536100 0.114490
0.092379 0.688477 0.043554
0.224696 0.688477 0.043554
0.357012 0.688477 0.043554
0.489328 0.688477 0.043554
0.621645 0.688477 0.043554
0.748367 0.683374 0.044914
0.853318 0.664581 0.051298
0.956976 0.652019 0.057604
0.986797 0.637776 0.114490
0.098292 0.789680 0.049957
0.224912 0.789680 0.049957
0.351531 0.789680 0.049957
0.478151 0.789680 0.049957
0.604770 0.789680 0.049957
0.731390 0.789680 0.049957
0.853318 0.785372 0.051298
0.956976 0.768940 0.057604
0.986797 0.739453 0.114490
0.104468 0.889598 0.056278
0.226834 0.889598 0.056278
0.349199 0.889598 0.056278
0.471564 0.889598 0.056278
0.593930 0.889598 0.056278
0.716295 0.889598 0.056278
0.838661 0.889598 0.056278
0.956976 0.885860 0.057604
0.986797 0.841130 0.114490
0.166901 0.939228 0.114490
0.272645 0.939228 0.114490
0.378389 0.939228 0.114490
0.484133 0.939228 0.114490
0.589877 0.939228 0.114490
0.695621 0.939228 0.114490
0.801364 0.939228 0.114490
0.907108 0.939228 0.114490
0.986797 0.939228 0.114490
0.094804 0.026328 0.215802
0.305587 0.027731 0.180632
0.420931 0.033623 0.150568
0.532173 0.040318 0.142214
0.640810 0.047167 0.140397
0.747483 0.054030 0.141414
0.852572 0.060863 0.143912
0.956466 0.067664 0.147299
0.987085 0.129796 0.192715
0.085353 0.239494 0.180632
0.256981 0.201717 0.153729
0.387859 0.185676 0.143125
0.507088 0.180408 0.140463
0.620547 0.179593 0.141075
0.730437 0.181048 0.143347
0.837818 0.183814 0.146575
0.907859 0.232037 0.193248
0.993651 0.240224 0.200756
0.080878 0.360597 0.150568
0.238298 0.338008 0.144425
0.387859 0.332349 0.143125
0.507088 0.314978 0.140463
0.620547 0.306484 0.141075
0.730437 0.302552 0.143347
0.837818 0.301285 0.146575
0.907859 0.333674 0.193248
0.993651 0.341532 0.200756
0.083516 0.471719 0.142214
0.228290 0.454326 0.140668
0.370402 0.454326 0.140668
0.507088 0.449548 0.140463
0.620547 0.433375 0.141075
0.730437 0.424057 0.143347
0.837818 0.418756 0.146575
0.907859 0.435312 0.193248
0.993651 0.442841 0.200756
0.088230 0.578494 0.140397
0.224886 0.564357 0.140773
0.358293 0.564357 0.140773
0.491700 0.564357 0.140773
0.620547 0.560265 0.141075
0.730437 0.545561 0.143347
0.837818 0.536227 0.146575
0.907859 0.536949 0.193248
0.993651 0.544150 0.200756
0.093802 0.682569 0.141414
0.224742 0.670638 0.142771
0.352149 0.670638 0.142771
0.479557 0.670638 0.142771
0.606964 0.670638 0.142771
0.730437 0.667066 0.143347
0.837818 0.653698 0.146575
0.907859 0.638586 0.193248
0.993651 0.645458 0.200756
0.099796 0.784687 0.143912
0.226446 0.774340 0.145835
0.349414 0.774340 0.145835
0.472381 0.774340 0.145835
0.595349 0.774340 0.145835
0.718317 0.774340 0.145835
0.837818 0.771169 0.146575
0.907859 0.740223 0.193248
0.993651 0.746767 0.200756
0.106030 0.885392 0.147299
0.262334 0.849961 0.182145
0.371445 0.849961 0.182145
0.480557 0.849961 0.182145
0.589669 0.849961 0.182145
0.698781 0.849961 0.182145
0.807892 0.849961 0.182145
0.907859 0.841860 0.193248
0.993651 0.848075 0.200756
0.169804 0.941163 0.194840
0.282085 0.945818 0.200756
0.387446 0.945818 0.200756
0.492807 0.945818 0.200756
0.598168 0.945818 0.200756
0.703529 0.945818 0.200756
0.808890 0.945818 0.200756
0.914251 0.945818 0.200756
0.993651 0.945818 0.200756
0.081183 0.031056 0.319276
0.265301 0.031056 0.319276
0.420931 0.033623 0.299341
0.532173 0.040318 0.273072
0.640810 0.047167 0.261274
0.747483 0.054030 0.255809
0.852572 0.060863 0.253692
0.956466 0.067664 0.253603
0.987085 0.129796 0.285227
0.080868 0.201717 0.307828
0.238298 0.187791 0.281123
0.382621 0.184119 0.273072
0.502665 0.179999 0.261274
0.616747 0.179737 0.255809
0.727109 0.181500 0.253692
0.834975 0.184483 0.253603
0.909507 0.234158 0.287604
0.995219 0.242299 0.294775
0.080878 0.360597 0.299341
0.233069 0.327919 0.273072
0.367135 0.314978 0.262922
0.488581 0.306484 0.256545
0.604072 0.302552 0.253917
0.715648 0.301285 0.253474
0.802156 0.333674 0.285738
0.916327 0.344068 0.295272
1.000000 0.351727 0.302295
0.083516 0.471719 0.273072
0.226375 0.445662 0.261274
0.358293 0.436081 0.257504
0.488581 0.433375 0.256545
0.604072 0.424057 0.253917
0.715648 0.418756 0.253474
0.802156 0.435312 0.285738
0.916327 0.445273 0.295272
1.000000 0.452627 0.302295
0.088230 0.578494 0.261274
0.224538 0.556861 0.255809
0.352149 0.548131 0.254253
0.479557 0.548131 0.254253
0.604072 0.545561 0.253917
0.715648 0.536227 0.253474
0.802156 0.536949 0.285738
0.916327 0.546478 0.295272
1.000000 0.553527 0.302295
0.093802 0.682569 0.255809
0.225258 0.664049 0.253692
0.349414 0.656102 0.253432
0.472381 0.656102 0.253432
0.595349 0.656102 0.253432
0.715648 0.653698 0.253474
0.802156 0.638586 0.285738
0.916327 0.647683 0.295272
1.000000 0.654427 0.302295
0.099796 0.784687 0.253692
0.227521 0.768573 0.253603
0.371445 0.745046 0.277617
0.480557 0.745046 0.277617
0.589669 0.745046 0.277617
0.698781 0.745046 0.277617
0.802156 0.740223 0.285738
0.916327 0.748888 0.295272
1.000000 0.755327 0.302295
0.106030 0.885392 0.253603
0.275830 0.843463 0.287604
0.387820 0.848364 0.293279
0.493166 0.848364 0.293279
0.598511 0.848364 0.293279
0.703857 0.848364 0.293279
0.809202 0.848364 0.293279
0.916327 0.850094 0.295272
1.000000 0.856227 0.302295
0.169804 0.941163 0.287266
0.286547 0.948967 0.296759
0.397958 0.953575 0.302295
0.502894 0.953575 0.302295
0.607830 0.953575 0.302295
0.712766 0.953575 0.302295
0.817702 0.953575 0.302295
0.922638 0.953575 0.302295
1.000000 0.953575 0.302295
0.082072 0.037574 0.417820
0.238298 0.037574 0.417820
0.394523 0.037574 0.417820
0.532173 0.040318 0.403930
0.640810 0.047167 0.382151
0.747483 0.054030 0.370203
0.852572 0.060863 0.363472
0.956466 0.067664 0.359908
0.987085 0.129796 0.377738
0.082779 0.185676 0.410070
0.228290 0.181035 0.389363
0.370402 0.181035 0.389363
0.502665 0.179999 0.382151
0.616747 0.179737 0.370203
0.727109 0.181500 0.363472
0.834975 0.184483 0.359908
0.909507 0.234158 0.380015
0.995219 0.242299 0.386891
0.082779 0.332349 0.410070
0.227182 0.314978 0.385381
0.358293 0.307805 0.374235
0.486011 0.305445 0.370203
0.601646 0.302138 0.363472
0.713484 0.301301 0.359908
0.803894 0.335709 0.380015
0.917954 0.346049 0.389112
1.000000 0.353673 0.395829
0.083516 0.471719 0.403930
0.226375 0.445662 0.382151
0.355275 0.431153 0.370203
0.477707 0.424057 0.364486
0.593478 0.418756 0.360372
0.696454 0.435312 0.378227
0.811073 0.445273 0.387368
0.924690 0.455005 0.396296
1.000000 0.462207 0.402900
0.088230 0.578494 0.382151
0.224538 0.556861 0.370203
0.350721 0.543412 0.363472
0.472381 0.537864 0.361028
0.593478 0.536227 0.360372
0.696454 0.536949 0.378227
0.811073 0.546478 0.387368
0.924690 0.555809 0.396296
1.000000 0.562726 0.402900
0.093802 0.682569 0.370203
0.225258 0.664049 0.363472
0.349012 0.651755 0.359908
0.480557 0.640131 0.373090
0.589669 0.640131 0.373090
0.696454 0.638586 0.378227
0.811073 0.647683 0.387368
0.924690 0.656613 0.396296
1.000000 0.663244 0.402900
0.099796 0.784687 0.363472
0.227521 0.768573 0.359908
0.381443 0.741912 0.380015
0.493166 0.747070 0.385457
0.598511 0.747070 0.385457
0.703857 0.747070 0.385457
0.811073 0.748888 0.387368
0.924690 0.757416 0.396296
1.000000 0.763762 0.402900
0.106030 0.885392 0.359908
0.275830 0.843463 0.380015
0.392103 0.851675 0.389112
0.503246 0.856512 0.394427
0.608167 0.856512 0.394427
0.713089 0.856512 0.394427
0.818010 0.856512 0.394427
0.924690 0.858220 0.396296
1.000000 0.864280 0.402900
0.169804 0.941163 0.379691
0.286547 0.948967 0.388796
0.402145 0.956694 0.397692
0.512774 0.961260 0.402900
0.617313 0.961260 0.402900
0.721852 0.961260 0.402900
0.826391 0.961260 0.402900
0.930930 0.961260 0.402900
1.000000 0.961260 0.402900
0.086178 0.044389 0.513711
0.228290 0.044389 0.513711
0.370402 0.044389 0.513711
0.512513 0.044389 0.513711
0.640810 0.047167 0.503028
0.747483 0.054030 0.484597
0.852572 0.060863 0.473252
0.956466 0.067664 0.466212
0.987085 0.129796 0.470250
0.087230 0.180408 0.507839
0.224886 0.179530 0.490966
0.358293 0.179530 0.490966
0.491700 0.179530 0.490966
0.616747 0.179737 0.484597
0.727109 0.181500 0.473252
0.834975 0.184483 0.466212
0.909507 0.234158 0.472427
0.995219 0.242299 0.479008
0.087230 0.314978 0.507839
0.224648 0.306484 0.487486
0.352149 0.303116 0.477216
0.479557 0.303116 0.477216
0.601646 0.302138 0.473252
0.713484 0.301301 0.466212
0.803894 0.335709 0.472427
0.917954 0.346049 0.481136
1.000000 0.353673 0.487579
0.087230 0.449548 0.507839
0.224648 0.433375 0.487486
0.351343 0.424057 0.475055
0.472381 0.419626 0.468625
0.591993 0.418119 0.466212
0.698281 0.437260 0.472427
0.812783 0.447174 0.481136
0.926298 0.456866 0.489665
1.000000 0.464041 0.495988
0.088230 0.578494 0.503028
0.224538 0.556861 0.484597
0.350721 0.543412 0.473252
0.470503 0.534937 0.466212
0.590751 0.536949 0.470717
0.705820 0.546478 0.479465
0.819854 0.555809 0.488027
0.932960 0.564967 0.496427
1.000000 0.571768 0.502663
0.093802 0.682569 0.484597
0.225258 0.664049 0.473252
0.349012 0.651755 0.466212
0.487055 0.640361 0.472427
0.598511 0.645777 0.477634
0.705820 0.647683 0.479465
0.819854 0.656613 0.488027
0.932960 0.665395 0.496427
1.000000 0.671928 0.502663
0.099796 0.784687 0.473252
0.227521 0.768573 0.466212
0.381443 0.741912 0.472427
0.497273 0.750550 0.481136
0.608167 0.755626 0.486233
0.713089 0.755626 0.486233
0.819854 0.757416 0.488027
0.932960 0.765823 0.496427
1.000000 0.772088 0.502663
0.106030 0.885392 0.466212
0.275830 0.843463 0.472427
0.392103 0.851675 0.481136
0.507266 0.859782 0.489665
0.617644 0.864562 0.494666
0.722170 0.864562 0.494666
0.826695 0.864562 0.494666
0.932960 0.866251 0.496427
1.000000 0.872248 0.502663
0.169804 0.941163 0.472117
0.286547 0.948967 0.480833
0.402145 0.956694 0.489368
0.516721 0.964353 0.497745
0.626639 0.968882 0.502663
0.730805 0.968882 0.502663
0.834971 0.968882 0.502663
0.939137 0.968882 0.502663
1.000000 0.968882 0.502663
0.091479 0.051254 0.607697
0.224886 0.051254 0.607697
0.358293 0.051254 0.607697
0.491700 0.051254 0.607697
0.625107 0.051254 0.607697
0.747483 0.054030 0.598991
0.852572 0.060863 0.583032
0.956466 0.067664 0.572517
0.987085 0.129796 0.562761
0.092682 0.179593 0.602957
0.224742 0.180609 0.588698
0.352149 0.180609 0.588698
0.479557 0.180609 0.588698
0.606964 0.180609 0.588698
0.727109 0.181500 0.583032
0.834975 0.184483 0.572517
0.909507 0.234158 0.564838
0.995219 0.242299 0.571125
0.092682 0.306484 0.602957
0.224978 0.302552 0.585624
0.349414 0.301387 0.576222
0.472381 0.301387 0.576222
0.595349 0.301387 0.576222
0.713484 0.301301 0.572517
0.803894 0.335709 0.564838
0.917954 0.346049 0.573160
1.000000 0.353673 0.579329
0.092682 0.433375 0.602957
0.224978 0.424057 0.585624
0.349139 0.418756 0.574169
0.480557 0.430301 0.564036
0.589669 0.430301 0.564036
0.698281 0.437260 0.564838
0.812783 0.447174 0.573160
0.926298 0.456866 0.581329
1.000000 0.464041 0.587395
0.092682 0.560265 0.602957
0.224978 0.545561 0.585624
0.349139 0.536227 0.574169
0.485048 0.536949 0.563207
0.598511 0.544483 0.569811
0.707613 0.548299 0.573160
0.821540 0.557595 0.581329
0.934551 0.566722 0.589362
1.000000 0.573502 0.595337
0.093802 0.682569 0.598991
0.225258 0.664049 0.583032
0.349012 0.651755 0.572517
0.487055 0.640361 0.564838
0.602443 0.649424 0.573160
0.715018 0.656613 0.579758
0.828515 0.665395 0.587817
0.941148 0.674049 0.595754
1.000000 0.680493 0.601662
0.099796 0.784687 0.583032
0.227521 0.768573 0.572517
0.381443 0.741912 0.564838
0.497273 0.750550 0.573160
0.612024 0.759053 0.581329
0.722170 0.764057 0.586126
0.828515 0.765823 0.587817
0.941148 0.774124 0.595754
1.000000 0.780315 0.601662
0.106030 0.885392 0.572517
0.275830 0.843463 0.564838
0.392103 0.851675 0.573160
0.507266 0.859782 0.581329
0.621435 0.867796 0.589362
0.731118 0.872527 0.594087
0.835271 0.872527 0.594087
0.941148 0.874198 0.595754
1.000000 0.880137 0.601662
0.169804 0.941163 0.564542
0.286547 0.948967 0.572870
0.402145 0.956694 0.581044
0.516721 0.964353 0.589082
0.630373 0.971950 0.597000
0.739638 0.976445 0.601662
0.843453 0.976445 0.601662
0.947268 0.976445 0.601662
1.000000 0.976445 0.601662
0.097334 0.058102 0.700179
0.224742 0.058102 0.700179
0.352149 0.058102 0.700179
0.479557 0.058102 0.700179
0.606964 0.058102 0.700179
0.734372 0.058102 0.700179
0.852572 0.060863 0.692811
0.956466 0.067664 0.678821
0.987085 0.129796 0.655272
0.098613 0.181048 0.696193
0.226446 0.183149 0.683819
0.349414 0.183149 0.683819
0.472381 0.183149 0.683819
0.595349 0.183149 0.683819
0.718317 0.183149 0.683819
0.834975 0.184483 0.678821
0.909507 0.234158 0.657249
0.995219 0.242299 0.663242
0.098613 0.302552 0.696193
0.226969 0.301285 0.681068
0.371445 0.325386 0.659508
0.480557 0.325386 0.659508
0.589669 0.325386 0.659508
0.698781 0.325386 0.659508
0.803894 0.335709 0.657249
0.917954 0.346049 0.665184
1.000000 0.353673 0.671079
0.098613 0.424057 0.696193
0.226969 0.418756 0.681068
0.379346 0.435312 0.655697
0.493166 0.443189 0.661989
0.598511 0.443189 0.661989
0.703857 0.443189 0.661989
0.812783 0.447174 0.665184
0.926298 0.456866 0.672992
1.000000 0.464041 0.678801
0.098613 0.545561 0.696193
0.226969 0.536227 0.681068
0.379346 0.536949 0.655697
0.495313 0.546478 0.663659
0.608167 0.553853 0.669846
0.713089 0.553853 0.669846
0.821540 0.557595 0.672992
0.934551 0.566722 0.680688
1.000000 0.573502 0.686422
0.098613 0.667066 0.696193
0.226969 0.653698 0.681068
0.379346 0.638586 0.655697
0.495313 0.647683 0.663659
0.610183 0.656613 0.671490
0.722170 0.663552 0.677585
0.830179 0.667080 0.680688
0.942724 0.675710 0.688285
1.000000 0.682138 0.693951
0.099796 0.784687 0.692811
0.227521 0.768573 0.678821
0.381443 0.741912 0.657249
0.497273 0.750550 0.665184
0.612024 0.759053 0.672992
0.725807 0.767438 0.680688
0.837070 0.774124 0.686822
0.949260 0.782328 0.694346
1.000000 0.788453 0.699962
0.106030 0.885392 0.678821
0.275830 0.843463 0.657249
0.392103 0.851675 0.665184
0.507266 0.859782 0.672992
0.621435 0.867796 0.680688
0.734705 0.875728 0.688285
0.843750 0.880413 0.692764
0.949260 0.882069 0.694346
1.000000 0.887955 0.699962
0.169804 0.941163 0.656967
0.286547 0.948967 0.664907
0.402145 0.956694 0.672719
0.516721 0.964353 0.680419
0.630373 0.971950 0.688019
0.743183 0.979491 0.695531
0.851847 0.983954 0.699962
0.955329 0.983954 0.699962
1.000000 0.983954 0.699962
0.103478 0.064911 0.791416
0.226446 0.064911 0.791416
0.349414 0.064911 0.791416
0.472381 0.064911 0.791416
0.595349 0.064911 0.791416
0.718317 0.064911 0.791416
0.841285 0.064911 0.791416
0.956466 0.067664 0.785126
0.987085 0.129796 0.747784
0.104799 0.183814 0.787966
0.262334 0.220470 0.754981
0.371445 0.220470 0.754981
0.480557 0.220470 0.754981
0.589669 0.220470 0.754981
0.698781 0.220470 0.754981
0.807892 0.220470 0.754981
0.909507 0.234158 0.749661
0.995219 0.242299 0.755358
0.104799 0.301285 0.787966
0.273643 0.333674 0.748187
0.387820 0.341896 0.754166
0.493166 0.341896 0.754166
0.598511 0.341896 0.754166
0.703857 0.341896 0.754166
0.809202 0.341896 0.754166
0.917954 0.346049 0.757208
1.000000 0.353673 0.762829
0.104799 0.418756 0.787966
0.273643 0.435312 0.748187
0.390060 0.445273 0.755755
0.503246 0.452967 0.761652
0.608167 0.452967 0.761652
0.713089 0.452967 0.761652
0.818010 0.452967 0.761652
0.926298 0.456866 0.764655
1.000000 0.464041 0.770208
0.104799 0.536227 0.787966
0.273643 0.536949 0.748187
0.390060 0.546478 0.755755
0.505347 0.555809 0.763221
0.617644 0.563047 0.769045
0.722170 0.563047 0.769045
0.826695 0.563047 0.769045
0.934551 0.566722 0.772014
1.000000 0.573502 0.777506
0.104799 0.653698 0.787966
0.273643 0.638586 0.748187
0.390060 0.647683 0.755755
0.505347 0.656613 0.763221
0.619625 0.665395 0.770596
0.731118 0.672231 0.776356
0.835271 0.672231 0.776356
0.942724 0.675710 0.779293
1.000000 0.682138 0.784732
0.104799 0.771169 0.787966
0.273643 0.740223 0.748187
0.390060 0.748888 0.755755
0.505347 0.757416 0.763221
0.619625 0.765823 0.770596
0.732992 0.774124 0.777890
0.843750 0.780603 0.783592
0.950823 0.783906 0.786501
1.000000 0.790019 0.791890
0.106030 0.885392 0.785126
0.275830 0.843463 0.749661
0.392103 0.851675 0.757208
0.507266 0.859782 0.764655
0.621435 0.867796 0.772014
0.734705 0.875728 0.779293
0.847157 0.883585 0.786501
0.957305 0.889871 0.792266
1.000000 0.895709 0.797619
0.169804 0.941163 0.749393
0.286547 0.948967 0.756944
0.402145 0.956694 0.764395
0.516721 0.964353 0.771756
0.630373 0.971950 0.779038
0.743183 0.979491 0.786249
0.855221 0.986980 0.793394
0.963326 0.991415 0.797619
1.000000 0.991415 0.797619
0.153222 0.115555 0.850454
0.262334 0.115555 0.850454
0.371445 0.115555 0.850454
0.480557 0.115555 0.850454
0.589669 0.115555 0.850454
0.698781 0.115555 0.850454
0.807892 0.115555 0.850454
0.917004 0.115555 0.850454
0.987085 0.129796 0.840295
0.167941 0.232037 0.840676
0.282475 0.240602 0.846343
0.387820 0.240602 0.846343
0.493166 0.240602 0.846343
0.598511 0.240602 0.846343
0.703857 0.240602 0.846343
0.809202 0.240602 0.846343
0.914548 0.240602 0.846343
0.995219 0.242299 0.847475
0.167941 0.333674 0.840676
0.284807 0.344068 0.847852
0.398324 0.352081 0.853458
0.503246 0.352081 0.853458
0.608167 0.352081 0.853458
0.713089 0.352081 0.853458
0.818010 0.352081 0.853458
0.922932 0.352081 0.853458
1.000000 0.353673 0.854579
0.167941 0.435312 0.840676
0.284807 0.445273 0.847852
0.400511 0.455005 0.854952
0.513119 0.462541 0.860505
0.617644 0.462541 0.860505
0.722170 0.462541 0.860505
0.826695 0.462541 0.860505
0.931221 0.462541 0.860505
1.000000 0.464041 0.861615
0.167941 0.536949 0.840676
0.284807 0.546478 0.847852
0.400511 0.555809 0.854952
0.515180 0.564967 0.861985
0.626964 0.572084 0.867490
0.731118 0.572084 0.867490
0.835271 0.572084 0.867490
0.939425 0.572084 0.867490
1.000000 0.573502 0.868591
0.167941 0.638586 0.840676
0.284807 0.647683 0.847852
0.400511 0.656613 0.854952
0.515180 0.665395 0.861985
0.628914 0.674049 0.868958
0.739947 0.680792 0.874419
0.843750 0.680792 0.874419
0.947553 0.680792 0.874419
1.000000 0.682138 0.875512
0.167941 0.740223 0.840676
0.284807 0.748888 0.847852
0.400511 0.757416 0.854952
0.515180 0.765823 0.861985
0.628914 0.774124 0.868958
0.741798 0.782328 0.875876
0.852141 0.788738 0.881297
0.955611 0.788738 0.881297
1.000000 0.790019 0.882382
0.167941 0.841860 0.840676
0.284807 0.850094 0.847852
0.400511 0.858220 0.854952
0.515180 0.866251 0.861985
0.628914 0.874198 0.868958
0.741798 0.882069 0.875876
0.853902 0.889871 0.882744
0.963606 0.895980 0.888128
1.000000 0.897203 0.889206
0.169804 0.941163 0.841818
0.286547 0.948967 0.848981
0.402145 0.956694 0.856070
0.516721 0.964353 0.863093
0.630373 0.971950 0.870057
0.743183 0.979491 0.876967
0.855221 0.986980 0.883827
0.966546 0.994422 0.890642
1.000000 0.998829 0.894678
