assets/luts/cream.cube
TITLE "cream"
LUT_3D_SIZE 33
0.190931 0.035220 0.011006
0.221097 0.027503 0.012841
0.250837 0.026260 0.014650
0.280212 0.026603 0.016437
0.309271 0.027567 0.018204
0.338050 0.028833 0.019955
0.366579 0.030266 0.021690
0.394881 0.031799 0.023412
0.422976 0.033395 0.025121
0.450881 0.035033 0.026818
0.478610 0.036698 0.028505
0.506176 0.038382 0.030182
0.533590 0.040079 0.031849
0.560860 0.041784 0.033508
0.587997 0.043495 0.035159
0.615006 0.045209 0.036802
0.641896 0.046925 0.038438
0.668671 0.048642 0.040066
0.695338 0.050359 0.041688
0.721902 0.052074 0.043304
0.748367 0.053788 0.044914
0.774737 0.055501 0.046518
0.801017 0.057211 0.048117
0.827209 0.058918 0.049710
0.853318 0.060623 0.051298
0.879347 0.062326 0.052881
0.905297 0.064025 0.054460
0.931173 0.065722 0.056034
0.956976 0.067416 0.057604
0.982665 0.072728 0.062480
0.984719 0.100892 0.088337
0.986767 0.128988 0.114119
0.986797 0.129392 0.114490
0.172144 0.178504 0.011293
0.221097 0.122622 0.012841
0.250837 0.098432 0.014650
0.280212 0.087261 0.016437
0.309271 0.081272 0.018204
0.338050 0.077868 0.019955
0.366579 0.075935 0.021690
0.394881 0.074920 0.023412
0.422976 0.074515 0.025121
0.450881 0.074535 0.026818
0.478610 0.074862 0.028505
0.506176 0.075420 0.030182
0.533590 0.076153 0.031849
0.560860 0.077024 0.033508
0.587997 0.078003 0.035159
0.615006 0.079071 0.036802
0.641896 0.080210 0.038438
0.668671 0.081408 0.040066
0.695338 0.082655 0.041688
0.721902 0.083944 0.043304
0.748367 0.085268 0.044914
0.774737 0.086621 0.046518
0.801017 0.088000 0.048117
0.827209 0.089401 0.049710
0.853318 0.090821 0.051298
0.879347 0.092258 0.052881
0.905297 0.093709 0.054460
0.931173 0.095172 0.056034
0.956976 0.096646 0.057604
0.982665 0.101628 0.062480
0.984719 0.128006 0.088337
0.986767 0.154431 0.114119
0.986797 0.154812 0.114490
0.117417 0.207441 0.013123
0.211186 0.207441 0.013123
0.250837 0.170603 0.014650
0.280212 0.147918 0.016437
0.309271 0.134978 0.018204
0.338050 0.126903 0.019955
0.366579 0.121605 0.021690
0.394881 0.118042 0.023412
0.422976 0.115635 0.025121
0.450881 0.114037 0.026818
0.478610 0.113027 0.028505
0.506176 0.112458 0.030182
0.533590 0.112228 0.031849
0.560860 0.112264 0.033508
0.587997 0.112512 0.035159
0.615006 0.112932 0.036802
0.641896 0.113494 0.038438
0.668671 0.114173 0.040066
0.695338 0.114952 0.041688
0.721902 0.115814 0.043304
0.748367 0.116747 0.044914
0.774737 0.117742 0.046518
0.801017 0.118790 0.048117
0.827209 0.119884 0.049710
0.853318 0.121019 0.051298
0.879347 0.122190 0.052881
0.905297 0.123392 0.054460
0.931173 0.124622 0.056034
0.956976 0.125876 0.057604
0.982665 0.130529 0.062480
0.984719 0.155121 0.088337
0.986767 0.179873 0.114119
0.986797 0.180231 0.114490
0.098721 0.235979 0.014929
0.171428 0.235979 0.014929
0.244134 0.235979 0.014929
0.280212 0.208576 0.016437
0.309271 0.188684 0.018204
0.338050 0.175938 0.019955
0.366579 0.167274 0.021690
0.394881 0.161163 0.023412
0.422976 0.156755 0.025121
0.450881 0.153539 0.026818
0.478610 0.151192 0.028505
0.506176 0.149496 0.030182
0.533590 0.148303 0.031849
0.560860 0.147504 0.033508
0.587997 0.147020 0.035159
0.615006 0.146794 0.036802
0.641896 0.146778 0.038438
0.668671 0.146939 0.040066
0.695338 0.147248 0.041688
0.721902 0.147683 0.043304
0.748367 0.148226 0.044914
0.774737 0.148862 0.046518
0.801017 0.149579 0.048117
0.827209 0.150367 0.049710
0.853318 0.151217 0.051298
0.879347 0.152122 0.052881
0.905297 0.153075 0.054460
0.931173 0.154071 0.056034
0.956976 0.155107 0.057604
0.982665 0.159429 0.062480
0.984719 0.182235 0.088337
0.986767 0.205316 0.114119
0.986797 0.205650 0.114490
0.089948 0.264175 0.016712
0.151686 0.264175 0.016712
0.213423 0.264175 0.016712
0.275160 0.264175 0.016712
0.309271 0.242390 0.018204
0.338050 0.224973 0.019955
0.366579 0.212944 0.021690
0.394881 0.204284 0.023412
0.422976 0.197874 0.025121
0.450881 0.193041 0.026818
0.478610 0.189357 0.028505
0.506176 0.186535 0.030182
0.533590 0.184378 0.031849
0.560860 0.182744 0.033508
0.587997 0.181529 0.035159
0.615006 0.180655 0.036802
0.641896 0.180062 0.038438
0.668671 0.179705 0.040066
0.695338 0.179545 0.041688
0.721902 0.179553 0.043304
0.748367 0.179706 0.044914
0.774737 0.179983 0.046518
0.801017 0.180369 0.048117
0.827209 0.180850 0.049710
0.853318 0.181415 0.051298
0.879347 0.182054 0.052881
0.905297 0.182758 0.054460
0.931173 0.183521 0.056034
0.956976 0.184337 0.057604
0.982665 0.188330 0.062480
0.984719 0.209349 0.088337
0.986767 0.230758 0.114119
0.986797 0.231069 0.114490
0.085305 0.292073 0.018477
0.140284 0.292073 0.018477
0.195264 0.292073 0.018477
0.250243 0.292073 0.018477
0.305223 0.292073 0.018477
0.338050 0.274008 0.019955
0.366579 0.258613 0.021690
0.394881 0.247406 0.023412
0.422976 0.238994 0.025121
0.450881 0.232543 0.026818
0.478610 0.227521 0.028505
0.506176 0.223573 0.030182
0.533590 0.220452 0.031849
0.560860 0.217984 0.033508
0.587997 0.216037 0.035159
0.615006 0.214516 0.036802
0.641896 0.213347 0.038438
0.668671 0.212470 0.040066
0.695338 0.211841 0.041688
0.721902 0.211423 0.043304
0.748367 0.211185 0.044914
0.774737 0.211104 0.046518
0.801017 0.211159 0.048117
0.827209 0.211333 0.049710
0.853318 0.211613 0.051298
0.879347 0.211985 0.052881
0.905297 0.212441 0.054460
0.931173 0.212971 0.056034
0.956976 0.213567 0.057604
0.982665 0.217230 0.062480
0.984719 0.236464 0.088337
0.986767 0.256201 0.114119
0.986797 0.256488 0.114490
0.082770 0.319706 0.020225
0.133151 0.319706 0.020225
0.183532 0.319706 0.020225
0.233913 0.319706 0.020225
0.284294 0.319706 0.020225
0.334675 0.319706 0.020225
0.366579 0.304283 0.021690
0.394881 0.290527 0.023412
0.422976 0.280114 0.025121
0.450881 0.272046 0.026818
0.478610 0.265686 0.028505
0.506176 0.260611 0.030182
0.533590 0.256527 0.031849
0.560860 0.253223 0.033508
0.587997 0.250546 0.035159
0.615006 0.248378 0.036802
0.641896 0.246631 0.038438
0.668671 0.245236 0.040066
0.695338 0.244138 0.041688
0.721902 0.243292 0.043304
0.748367 0.242664 0.044914
0.774737 0.242224 0.046518
0.801017 0.241948 0.048117
0.827209 0.241816 0.049710
0.853318 0.241811 0.051298
0.879347 0.241917 0.052881
0.905297 0.242124 0.054460
0.931173 0.242420 0.056034
0.956976 0.242797 0.057604
0.982665 0.246130 0.062480
0.984719 0.263578 0.088337
0.986767 0.281643 0.114119
0.986797 0.281908 0.114490
0.081456 0.347102 0.021958
0.128494 0.347102 0.021958
0.175533 0.347102 0.021958
0.222571 0.347102 0.021958
0.269609 0.347102 0.021958
0.316647 0.347102 0.021958
0.363685 0.347102 0.021958
0.394881 0.333649 0.023412
0.422976 0.321234 0.025121
0.450881 0.311548 0.026818
0.478610 0.303851 0.028505
0.506176 0.297649 0.030182
0.533590 0.292602 0.031849
0.560860 0.288463 0.033508
0.587997 0.285054 0.035159
0.615006 0.282239 0.036802
0.641896 0.279915 0.038438
0.668671 0.278001 0.040066
0.695338 0.276434 0.041688
0.721902 0.275162 0.043304
0.748367 0.274143 0.044914
0.774737 0.273345 0.046518
0.801017 0.272738 0.048117
0.827209 0.272299 0.049710
0.853318 0.272008 0.051298
0.879347 0.271849 0.052881
0.905297 0.271807 0.054460
0.931173 0.271870 0.056034
0.956976 0.272027 0.057604
0.982665 0.275031 0.062480
0.984719 0.290692 0.088337
0.986767 0.307086 0.114119
0.986797 0.307327 0.114490
0.080911 0.374283 0.023678
0.125402 0.374283 0.023678
0.169893 0.374283 0.023678
0.214384 0.374283 0.023678
0.258876 0.374283 0.023678
0.303367 0.374283 0.023678
0.347858 0.374283 0.023678
0.392349 0.374283 0.023678
0.422976 0.362354 0.025121
0.450881 0.351050 0.026818
0.478610 0.342015 0.028505
0.506176 0.334688 0.030182
0.533590 0.328677 0.031849
0.560860 0.323703 0.033508
0.587997 0.319563 0.035159
0.615006 0.316101 0.036802
0.641896 0.313199 0.038438
0.668671 0.310767 0.040066
0.695338 0.308730 0.041688
0.721902 0.307031 0.043304
0.748367 0.305623 0.044914
0.774737 0.304465 0.046518
0.801017 0.303528 0.048117
0.827209 0.302782 0.049710
0.853318 0.302206 0.051298
0.879347 0.301781 0.052881
0.905297 0.301490 0.054460
0.931173 0.301320 0.056034
0.956976 0.301257 0.057604
0.982665 0.303931 0.062480
0.984719 0.317807 0.088337
0.986767 0.332528 0.114119
0.986797 0.332746 0.114490
0.080880 0.401268 0.025385
0.123361 0.401268 0.025385
0.165842 0.401268 0.025385
0.208322 0.401268 0.025385
0.250803 0.401268 0.025385
0.293284 0.401268 0.025385
0.335764 0.401268 0.025385
0.378245 0.401268 0.025385
0.420726 0.401268 0.025385
0.450881 0.390552 0.026818
0.478610 0.380180 0.028505
0.506176 0.371726 0.030182
0.533590 0.364751 0.031849
0.560860 0.358943 0.033508
0.587997 0.354071 0.035159
0.615006 0.349962 0.036802
0.641896 0.346484 0.038438
0.668671 0.343533 0.040066
0.695338 0.341027 0.041688
0.721902 0.338901 0.043304
0.748367 0.337102 0.044914
0.774737 0.335586 0.046518
0.801017 0.334317 0.048117
0.827209 0.333265 0.049710
0.853318 0.332404 0.051298
0.879347 0.331713 0.052881
0.905297 0.331174 0.054460
0.931173 0.330770 0.056034
0.956976 0.330488 0.057604
0.982665 0.332831 0.062480
0.984719 0.344921 0.088337
0.986767 0.357971 0.114119
0.986797 0.358165 0.114490
0.081211 0.428072 0.027081
0.122060 0.428072 0.027081
0.162909 0.428072 0.027081
0.203759 0.428072 0.027081
0.244608 0.428072 0.027081
0.285458 0.428072 0.027081
0.326307 0.428072 0.027081
0.367157 0.428072 0.027081
0.408006 0.428072 0.027081
0.448855 0.428072 0.027081
0.478610 0.418345 0.028505
0.506176 0.408764 0.030182
0.533590 0.400826 0.031849
0.560860 0.394183 0.033508
0.587997 0.388580 0.035159
0.615006 0.383824 0.036802
0.641896 0.379768 0.038438
0.668671 0.376298 0.040066
0.695338 0.373323 0.041688
0.721902 0.370771 0.043304
0.748367 0.368581 0.044914
0.774737 0.366707 0.046518
0.801017 0.365107 0.048117
0.827209 0.363748 0.049710
0.853318 0.362602 0.051298
0.879347 0.361645 0.052881
0.905297 0.360857 0.054460
0.931173 0.360219 0.056034
0.956976 0.359718 0.057604
0.982665 0.361732 0.062480
0.984719 0.372036 0.088337
0.986767 0.383413 0.114119
0.986797 0.383584 0.114490
0.081803 0.454710 0.028766
0.121300 0.454710 0.028766
0.160796 0.454710 0.028766
0.200293 0.454710 0.028766
0.239789 0.454710 0.028766
0.279286 0.454710 0.028766
0.318782 0.454710 0.028766
0.358279 0.454710 0.028766
0.397776 0.454710 0.028766
0.437272 0.454710 0.028766
0.476769 0.454710 0.028766
0.506176 0.445802 0.030182
0.533590 0.436901 0.031849
0.560860 0.429423 0.033508
0.587997 0.423088 0.035159
0.615006 0.417685 0.036802
0.641896 0.413052 0.038438
0.668671 0.409064 0.040066
0.695338 0.405620 0.041688
0.721902 0.402640 0.043304
0.748367 0.400061 0.044914
0.774737 0.397827 0.046518
0.801017 0.395896 0.048117
0.827209 0.394231 0.049710
0.853318 0.392800 0.051298
0.879347 0.391577 0.052881
0.905297 0.390540 0.054460
0.931173 0.389669 0.056034
0.956976 0.388948 0.057604
0.982665 0.390632 0.062480
0.984719 0.399150 0.088337
0.986767 0.408856 0.114119
0.986797 0.409004 0.114490
0.082592 0.481193 0.030441
0.120946 0.481193 0.030441
0.159300 0.481193 0.030441
0.197654 0.481193 0.030441
0.236008 0.481193 0.030441
0.274363 0.481193 0.030441
0.312717 0.481193 0.030441
0.351071 0.481193 0.030441
0.389425 0.481193 0.030441
0.427779 0.481193 0.030441
0.466133 0.481193 0.030441
0.504488 0.481193 0.030441
0.533590 0.472976 0.031849
0.560860 0.464663 0.033508
0.587997 0.457596 0.035159
0.615006 0.451546 0.036802
0.641896 0.446337 0.038438
0.668671 0.441829 0.040066
0.695338 0.437916 0.041688
0.721902 0.434510 0.043304
0.748367 0.431540 0.044914
0.774737 0.428948 0.046518
0.801017 0.426686 0.048117
0.827209 0.424714 0.049710
0.853318 0.422998 0.051298
0.879347 0.421509 0.052881
0.905297 0.420223 0.054460
0.931173 0.419119 0.056034
0.956976 0.418178 0.057604
0.982665 0.419533 0.062480
0.984719 0.426264 0.088337
0.986767 0.434298 0.114119
0.986797 0.434423 0.114490
0.083531 0.507530 0.032107
0.120906 0.507530 0.032107
0.158281 0.507530 0.032107
0.195656 0.507530 0.032107
0.233031 0.507530 0.032107
0.270406 0.507530 0.032107
0.307781 0.507530 0.032107
0.345156 0.507530 0.032107
0.382531 0.507530 0.032107
0.419906 0.507530 0.032107
0.457281 0.507530 0.032107
0.494656 0.507530 0.032107
0.532031 0.507530 0.032107
0.560860 0.499903 0.033508
0.587997 0.492105 0.035159
0.615006 0.485408 0.036802
0.641896 0.479621 0.038438
0.668671 0.474595 0.040066
0.695338 0.470213 0.041688
0.721902 0.466380 0.043304
0.748367 0.463019 0.044914
0.774737 0.460069 0.046518
0.801017 0.457476 0.048117
0.827209 0.455197 0.049710
0.853318 0.453196 0.051298
0.879347 0.451441 0.052881
0.905297 0.449906 0.054460
0.931173 0.448568 0.056034
0.956976 0.447408 0.057604
0.982665 0.448433 0.062480
0.984719 0.453379 0.088337
0.986767 0.459741 0.114119
0.986797 0.459842 0.114490
0.084587 0.533731 0.033765
0.121112 0.533731 0.033765
0.157637 0.533731 0.033765
0.194162 0.533731 0.033765
0.230687 0.533731 0.033765
0.267212 0.533731 0.033765
0.303737 0.533731 0.033765
0.340262 0.533731 0.033765
0.376787 0.533731 0.033765
0.413312 0.533731 0.033765
0.449837 0.533731 0.033765
0.486362 0.533731 0.033765
0.522887 0.533731 0.033765
0.559412 0.533731 0.033765
0.587997 0.526613 0.035159
0.615006 0.519269 0.036802
0.641896 0.512905 0.038438
0.668671 0.507361 0.040066
0.695338 0.502509 0.041688
0.721902 0.498249 0.043304
0.748367 0.494499 0.044914
0.774737 0.491189 0.046518
0.801017 0.488265 0.048117
0.827209 0.485680 0.049710
0.853318 0.483393 0.051298
0.879347 0.481373 0.052881
0.905297 0.479589 0.054460
0.931173 0.478018 0.056034
0.956976 0.476638 0.057604
0.982665 0.477333 0.062480
0.984719 0.480493 0.088337
0.986767 0.485183 0.114119
0.986797 0.485261 0.114490
0.085737 0.559805 0.035414
0.121516 0.559805 0.035414
0.157295 0.559805 0.035414
0.193074 0.559805 0.035414
0.228854 0.559805 0.035414
0.264633 0.559805 0.035414
0.300412 0.559805 0.035414
0.336191 0.559805 0.035414
0.371970 0.559805 0.035414
0.407749 0.559805 0.035414
0.443528 0.559805 0.035414
0.479307 0.559805 0.035414
0.515086 0.559805 0.035414
0.550865 0.559805 0.035414
0.586644 0.559805 0.035414
0.615006 0.553131 0.036802
0.641896 0.546189 0.038438
0.668671 0.540126 0.040066
0.695338 0.534806 0.041688
0.721902 0.530119 0.043304
0.748367 0.525978 0.044914
0.774737 0.522310 0.046518
0.801017 0.519055 0.048117
0.827209 0.516163 0.049710
0.853318 0.513591 0.051298
0.879347 0.511305 0.052881
0.905297 0.509272 0.054460
0.931173 0.507468 0.056034
0.956976 0.505868 0.057604
0.982665 0.506234 0.062480
0.984719 0.507608 0.088337
0.986767 0.510626 0.114119
0.986797 0.510680 0.114490
0.086963 0.585757 0.037056
0.122081 0.585757 0.037056
0.157199 0.585757 0.037056
0.192317 0.585757 0.037056
0.227436 0.585757 0.037056
0.262554 0.585757 0.037056
0.297672 0.585757 0.037056
0.332791 0.585757 0.037056
0.367909 0.585757 0.037056
0.403027 0.585757 0.037056
0.438145 0.585757 0.037056
0.473264 0.585757 0.037056
0.508382 0.585757 0.037056
0.543500 0.585757 0.037056
0.578619 0.585757 0.037056
0.613737 0.585757 0.037056
0.641896 0.579474 0.038438
0.668671 0.572892 0.040066
0.695338 0.567102 0.041688
0.721902 0.561989 0.043304
0.748367 0.557457 0.044914
0.774737 0.553430 0.046518
0.801017 0.549844 0.048117
0.827209 0.546646 0.049710
0.853318 0.543789 0.051298
0.879347 0.541237 0.052881
0.905297 0.538955 0.054460
0.931173 0.536918 0.056034
0.956976 0.535099 0.057604
0.982665 0.535134 0.062480
0.984719 0.534722 0.088337
0.986767 0.536068 0.114119
0.986797 0.536100 0.114490
0.088249 0.611595 0.038691
0.122777 0.611595 0.038691
0.157305 0.611595 0.038691
0.191834 0.611595 0.038691
0.226362 0.611595 0.038691
0.260890 0.611595 0.038691
0.295418 0.611595 0.038691
0.329946 0.611595 0.038691
0.364474 0.611595 0.038691
0.399003 0.611595 0.038691
0.433531 0.611595 0.038691
0.468059 0.611595 0.038691
0.502587 0.611595 0.038691
0.537115 0.611595 0.038691
0.571644 0.611595 0.038691
0.606172 0.611595 0.038691
0.640700 0.611595 0.038691
0.668671 0.605657 0.040066
0.695338 0.599399 0.041688
0.721902 0.593858 0.043304
0.748367 0.588936 0.044914
0.774737 0.584551 0.046518
0.801017 0.580634 0.048117
0.827209 0.577129 0.049710
0.853318 0.573987 0.051298
0.879347 0.571169 0.052881
0.905297 0.568639 0.054460
0.931173 0.566367 0.056034
0.956976 0.564329 0.057604
0.982665 0.564035 0.062480
0.984719 0.561836 0.088337
0.986767 0.561511 0.114119
0.986797 0.561519 0.114490
0.089586 0.637324 0.040318
0.123583 0.637324 0.040318
0.157581 0.637324 0.040318
0.191578 0.637324 0.040318
0.225575 0.637324 0.040318
0.259573 0.637324 0.040318
0.293570 0.637324 0.040318
0.327567 0.637324 0.040318
0.361565 0.637324 0.040318
0.395562 0.637324 0.040318
0.429559 0.637324 0.040318
0.463557 0.637324 0.040318
0.497554 0.637324 0.040318
0.531551 0.637324 0.040318
0.565549 0.637324 0.040318
0.599546 0.637324 0.040318
0.633543 0.637324 0.040318
0.667541 0.637324 0.040318
0.695338 0.631695 0.041688
0.721902 0.625728 0.043304
0.748367 0.620416 0.044914
0.774737 0.615672 0.046518
0.801017 0.611424 0.048117
0.827209 0.607612 0.049710
0.853318 0.604185 0.051298
0.879347 0.601100 0.052881
0.905297 0.598322 0.054460
0.931173 0.595817 0.056034
0.956976 0.593559 0.057604
0.982665 0.592935 0.062480
0.984719 0.588951 0.088337
0.986767 0.586953 0.114119
0.986797 0.586938 0.114490
0.090965 0.662950 0.041940
0.124482 0.662950 0.041940
0.157998 0.662950 0.041940
0.191515 0.662950 0.041940
0.225032 0.662950 0.041940
0.258549 0.662950 0.041940
0.292065 0.662950 0.041940
0.325582 0.662950 0.041940
0.359099 0.662950 0.041940
0.392615 0.662950 0.041940
0.426132 0.662950 0.041940
0.459649 0.662950 0.041940
0.493166 0.662950 0.041940
0.526682 0.662950 0.041940
0.560199 0.662950 0.041940
0.593716 0.662950 0.041940
0.627232 0.662950 0.041940
0.660749 0.662950 0.041940
0.694266 0.662950 0.041940
0.721902 0.657598 0.043304
0.748367 0.651895 0.044914
0.774737 0.646792 0.046518
0.801017 0.642213 0.048117
0.827209 0.638095 0.049710
0.853318 0.634383 0.051298
0.879347 0.631032 0.052881
0.905297 0.628005 0.054460
0.931173 0.625267 0.056034
0.956976 0.622789 0.057604
0.982665 0.621835 0.062480
0.984719 0.616065 0.088337
0.986767 0.612396 0.114119
0.986797 0.612357 0.114490
0.092379 0.688477 0.043554
0.125458 0.688477 0.043554
0.158537 0.688477 0.043554
0.191616 0.688477 0.043554
0.224696 0.688477 0.043554
0.257775 0.688477 0.043554
0.290854 0.688477 0.043554
0.323933 0.688477 0.043554
0.357012 0.688477 0.043554
0.390091 0.688477 0.043554
0.423170 0.688477 0.043554
0.456249 0.688477 0.043554
0.489328 0.688477 0.043554
0.522407 0.688477 0.043554
0.555486 0.688477 0.043554
0.588565 0.688477 0.043554
0.621645 0.688477 0.043554
0.654724 0.688477 0.043554
0.687803 0.688477 0.043554
0.720882 0.688477 0.043554
0.748367 0.683374 0.044914
0.774737 0.677913 0.046518
0.801017 0.673003 0.048117
0.827209 0.668577 0.049710
0.853318 0.664581 0.051298
0.879347 0.660964 0.052881
0.905297 0.657688 0.054460
0.931173 0.654716 0.056034
0.956976 0.652019 0.057604
0.982665 0.650736 0.062480
0.984719 0.643180 0.088337
0.986767 0.637838 0.114119
0.986797 0.637776 0.114490
0.093823 0.713909 0.045163
0.126502 0.713909 0.045163
0.159180 0.713909 0.045163
0.191859 0.713909 0.045163
0.224537 0.713909 0.045163
0.257216 0.713909 0.045163
0.289894 0.713909 0.045163
0.322573 0.713909 0.045163
0.355251 0.713909 0.045163
0.387930 0.713909 0.045163
0.420609 0.713909 0.045163
0.453287 0.713909 0.045163
0.485966 0.713909 0.045163
0.518644 0.713909 0.045163
0.551323 0.713909 0.045163
0.584001 0.713909 0.045163
0.616680 0.713909 0.045163
0.649358 0.713909 0.045163
0.682037 0.713909 0.045163
0.714715 0.713909 0.045163
0.747394 0.713909 0.045163
0.774737 0.709033 0.046518
0.801017 0.703792 0.048117
0.827209 0.699060 0.049710
0.853318 0.694778 0.051298
0.879347 0.690896 0.052881
0.905297 0.687371 0.054460
0.931173 0.684166 0.056034
0.956976 0.681249 0.057604
0.982665 0.679636 0.062480
0.984719 0.670294 0.088337
0.986767 0.663281 0.114119
0.986797 0.663196 0.114490
0.095292 0.739252 0.046767
0.127603 0.739252 0.046767
0.159913 0.739252 0.046767
0.192223 0.739252 0.046767
0.224533 0.739252 0.046767
0.256844 0.739252 0.046767
0.289154 0.739252 0.046767
0.321464 0.739252 0.046767
0.353774 0.739252 0.046767
0.386084 0.739252 0.046767
0.418395 0.739252 0.046767
0.450705 0.739252 0.046767
0.483015 0.739252 0.046767
0.515325 0.739252 0.046767
0.547636 0.739252 0.046767
0.579946 0.739252 0.046767
0.612256 0.739252 0.046767
0.644566 0.739252 0.046767
0.676876 0.739252 0.046767
0.709187 0.739252 0.046767
0.741497 0.739252 0.046767
0.773807 0.739252 0.046767
0.801017 0.734582 0.048117
0.827209 0.729543 0.049710
0.853318 0.724976 0.051298
0.879347 0.720828 0.052881
0.905297 0.717054 0.054460
0.931173 0.713616 0.056034
0.956976 0.710480 0.057604
0.982665 0.708537 0.062480
0.984719 0.697408 0.088337
0.986767 0.688723 0.114119
0.986797 0.688615 0.114490
0.096783 0.764507 0.048364
0.128753 0.764507 0.048364
0.160723 0.764507 0.048364
0.192694 0.764507 0.048364
0.224664 0.764507 0.048364
0.256634 0.764507 0.048364
0.288604 0.764507 0.048364
0.320574 0.764507 0.048364
0.352544 0.764507 0.048364
0.384514 0.764507 0.048364
0.416484 0.764507 0.048364
0.448455 0.764507 0.048364
0.480425 0.764507 0.048364
0.512395 0.764507 0.048364
0.544365 0.764507 0.048364
0.576335 0.764507 0.048364
0.608305 0.764507 0.048364
0.640275 0.764507 0.048364
0.672245 0.764507 0.048364
0.704215 0.764507 0.048364
0.736186 0.764507 0.048364
0.768156 0.764507 0.048364
0.800126 0.764507 0.048364
0.827209 0.760026 0.049710
0.853318 0.755174 0.051298
0.879347 0.750760 0.052881
0.905297 0.746737 0.054460
0.931173 0.743065 0.056034
0.956976 0.739710 0.057604
0.982665 0.737437 0.062480
0.984719 0.724523 0.088337
0.986767 0.714166 0.114119
0.986797 0.714034 0.114490
0.098292 0.789680 0.049957
0.129947 0.789680 0.049957
0.161602 0.789680 0.049957
0.193257 0.789680 0.049957
0.224912 0.789680 0.049957
0.256567 0.789680 0.049957
0.288222 0.789680 0.049957
0.319876 0.789680 0.049957
0.351531 0.789680 0.049957
0.383186 0.789680 0.049957
0.414841 0.789680 0.049957
0.446496 0.789680 0.049957
0.478151 0.789680 0.049957
0.509806 0.789680 0.049957
0.541460 0.789680 0.049957
0.573115 0.789680 0.049957
0.604770 0.789680 0.049957
0.636425 0.789680 0.049957
0.668080 0.789680 0.049957
0.699735 0.789680 0.049957
0.731390 0.789680 0.049957
0.763044 0.789680 0.049957
0.794699 0.789680 0.049957
0.826354 0.789680 0.049957
0.853318 0.785372 0.051298
0.879347 0.780692 0.052881
0.905297 0.776420 0.054460
0.931173 0.772515 0.056034
0.956976 0.768940 0.057604
0.982665 0.766337 0.062480
0.984719 0.751637 0.088337
0.986767 0.739608 0.114119
0.986797 0.739453 0.114490
0.099818 0.814772 0.051544
0.131179 0.814772 0.051544
0.162541 0.814772 0.051544
0.193902 0.814772 0.051544
0.225264 0.814772 0.051544
0.256626 0.814772 0.051544
0.287987 0.814772 0.051544
0.319349 0.814772 0.051544
0.350710 0.814772 0.051544
0.382072 0.814772 0.051544
0.413434 0.814772 0.051544
0.444795 0.814772 0.051544
0.476157 0.814772 0.051544
0.507518 0.814772 0.051544
0.538880 0.814772 0.051544
0.570242 0.814772 0.051544
0.601603 0.814772 0.051544
0.632965 0.814772 0.051544
0.664326 0.814772 0.051544
0.695688 0.814772 0.051544
0.727050 0.814772 0.051544
0.758411 0.814772 0.051544
0.789773 0.814772 0.051544
0.821134 0.814772 0.051544
0.852496 0.814772 0.051544
0.879347 0.810624 0.052881
0.905297 0.806104 0.054460
0.931173 0.801965 0.056034
0.956976 0.798170 0.057604
0.982665 0.795238 0.062480
0.984719 0.778752 0.088337
0.986767 0.765051 0.114119
0.986797 0.764872 0.114490
0.101356 0.839788 0.053127
0.132444 0.839788 0.053127
0.163532 0.839788 0.053127
0.194620 0.839788 0.053127
0.225708 0.839788 0.053127
0.256796 0.839788 0.053127
0.287884 0.839788 0.053127
0.318972 0.839788 0.053127
0.350060 0.839788 0.053127
0.381148 0.839788 0.053127
0.412236 0.839788 0.053127
0.443324 0.839788 0.053127
0.474412 0.839788 0.053127
0.505499 0.839788 0.053127
0.536587 0.839788 0.053127
0.567675 0.839788 0.053127
0.598763 0.839788 0.053127
0.629851 0.839788 0.053127
0.660939 0.839788 0.053127
0.692027 0.839788 0.053127
0.723115 0.839788 0.053127
0.754203 0.839788 0.053127
0.785291 0.839788 0.053127
0.816379 0.839788 0.053127
0.847467 0.839788 0.053127
0.878555 0.839788 0.053127
0.905297 0.835787 0.054460
0.931173 0.831415 0.056034
0.956976 0.827400 0.057604
