assets/luts/disposable.cube
# MoodFilm Filter — disposable
TITLE "disposable"
LUT_3D_SIZE 9
0.225863 0.070396 0.070396
0.346565 0.068465 0.068465
0.463246 0.066598 0.066598
0.577317 0.064773 0.064773
0.689462 0.062978 0.062978
0.800083 0.061208 0.061208
0.909447 0.059458 0.059458
1.000000 0.057726 0.057726
1.000000 0.057686 0.057686
0.210327 0.195449 0.063545
0.331404 0.193511 0.061607
0.448303 0.191641 0.059737
0.562528 0.189813 0.057909
0.674791 0.188017 0.056113
0.785507 0.186246 0.054342
0.894951 0.184495 0.052591
1.000000 0.182761 0.050857
1.000000 0.182602 0.050698
0.194538 0.315236 0.056997
0.316032 0.313292 0.055053
0.433170 0.311418 0.053179
0.547561 0.309588 0.051349
0.659951 0.307789 0.049551
0.770770 0.306016 0.047777
0.880299 0.304264 0.046025
0.988736 0.302529 0.044290
1.000000 0.302244 0.044005
0.178951 0.430579 0.050699
0.300887 0.428628 0.048748
0.418271 0.426750 0.046870
0.532832 0.424917 0.045037
0.645351 0.423117 0.043237
0.757893 0.421316 0.041436
0.869859 0.419524 0.039645
0.980678 0.417751 0.037872
1.000000 0.417441 0.037561
0.163469 0.543160 0.044557
0.285978 0.541200 0.042596
0.406133 0.539277 0.040674
0.523279 0.537403 0.038800
0.638276 0.535563 0.036960
0.751603 0.533750 0.035146
0.863569 0.531958 0.033355
0.974389 0.530185 0.031582
0.993787 0.529875 0.031271
0.154658 0.653636 0.038421
0.279800 0.651634 0.036419
0.399955 0.649711 0.034496
0.517101 0.647837 0.032622
0.632098 0.645997 0.030782
0.745425 0.644184 0.028969
0.858431 0.642375 0.027161
0.970413 0.640584 0.025369
0.987609 0.640309 0.025094
0.148568 0.762506 0.032331
0.273710 0.760504 0.030328
0.394170 0.758576 0.028401
0.512543 0.756682 0.026507
0.628727 0.754823 0.024648
0.743215 0.752992 0.022816
0.856322 0.751182 0.021006
0.968266 0.749391 0.019215
0.981519 0.749179 0.019003
0.144753 0.870060 0.026277
0.271073 0.868039 0.024256
0.392385 0.866098 0.022315
0.510669 0.864205 0.020422
0.626786 0.862347 0.018564
0.741221 0.860516 0.016733
0.854283 0.858707 0.014924
0.966189 0.856917 0.013134
0.975500 0.856768 0.012985
0.143399 0.976493 0.020245
0.269475 0.974475 0.018228
0.390657 0.972536 0.016289
0.508853 0.970645 0.014398
0.624903 0.968788 0.012541
0.739285 0.966958 0.010711
0.852303 0.965150 0.008902
0.964171 0.963360 0.007112
0.969542 0.963274 0.007026
0.225593 0.070333 0.082623
0.346295 0.068393 0.082327
0.462972 0.066518 0.082080
0.577039 0.064684 0.081863
0.689178 0.062881 0.081665
0.799792 0.061102 0.081481
0.909149 0.059344 0.081308
1.000000 0.057603 0.081143
1.000000 0.057559 0.081376
0.210029 0.195359 0.080916
0.331106 0.193413 0.080573
0.448002 0.191534 0.080287
0.562222 0.189697 0.080035
0.674479 0.187893 0.079805
0.785190 0.186113 0.079593
0.894627 0.184353 0.079394
1.000000 0.182611 0.079205
1.000000 0.182448 0.079315
0.194210 0.315117 0.079694
0.315705 0.313165 0.079314
0.432840 0.311282 0.078996
0.547227 0.309443 0.078715
0.659611 0.307637 0.078460
0.770424 0.305855 0.078223
0.879947 0.304095 0.078002
0.988377 0.302352 0.077792
1.000000 0.302063 0.077772
0.178594 0.430432 0.078629
0.300532 0.428473 0.078218
0.417913 0.426586 0.077874
0.532470 0.424745 0.077570
0.644983 0.422936 0.077293
0.757707 0.421131 0.075866
0.869674 0.419339 0.074075
0.980493 0.417566 0.072301
0.999891 0.417256 0.071991
0.163083 0.542985 0.077645
0.285793 0.541015 0.077026
0.405947 0.539092 0.075104
0.523094 0.537218 0.073230
0.638090 0.535378 0.071390
0.751418 0.533565 0.069576
0.863384 0.531773 0.067785
0.974204 0.530000 0.066012
0.993602 0.529690 0.065701
0.154473 0.653451 0.072851
0.279615 0.651449 0.070849
0.399770 0.649526 0.068926
0.516916 0.647652 0.067052
0.631913 0.645812 0.065212
0.745240 0.643998 0.063399
0.858336 0.642189 0.061589
0.970317 0.640397 0.059797
0.987424 0.640123 0.059524
0.148383 0.762321 0.066760
0.273524 0.760319 0.064758
0.394080 0.758390 0.062829
0.512451 0.756496 0.060935
0.628634 0.754637 0.059076
0.743121 0.752805 0.057245
0.856227 0.750995 0.055435
0.968170 0.749204 0.053644
0.981333 0.748994 0.053433
0.144672 0.869873 0.060705
0.270987 0.867852 0.058684
0.392295 0.865911 0.056743
0.510577 0.864019 0.054850
0.626693 0.862161 0.052992
0.741126 0.860330 0.051162
0.854188 0.858521 0.049353
0.966093 0.856730 0.047562
0.975315 0.856583 0.047414
0.143318 0.976306 0.054673
0.269388 0.974289 0.052656
0.390567 0.972350 0.050717
0.508761 0.970459 0.048826
0.624810 0.968602 0.046969
0.739191 0.966772 0.045139
0.852208 0.964963 0.043331
0.964075 0.963174 0.041541
0.969357 0.963089 0.041456
0.223948 0.069616 0.218745
0.344691 0.067677 0.218174
0.461393 0.065802 0.217666
0.575477 0.063969 0.217200
0.687630 0.062168 0.216763
0.798256 0.060390 0.216350
0.907623 0.058633 0.215957
1.000000 0.056893 0.215579
1.000000 0.056836 0.215763
0.208385 0.194646 0.216212
0.329504 0.192700 0.215632
0.446426 0.190822 0.215118
0.560664 0.188987 0.214646
0.672935 0.187183 0.214205
0.783656 0.185404 0.213788
0.893103 0.183646 0.213390
1.000000 0.181905 0.213009
1.000000 0.181729 0.213073
0.192566 0.314409 0.214229
0.314106 0.312457 0.213640
0.431266 0.310575 0.213119
0.545671 0.308737 0.212642
0.658069 0.306931 0.212195
0.768893 0.305150 0.211774
0.878426 0.303391 0.211372
0.986865 0.301648 0.210986
1.000000 0.301347 0.210924
0.176948 0.429727 0.212486
0.298933 0.427768 0.211886
0.416341 0.425882 0.211359
0.530916 0.424042 0.210876
0.643667 0.422231 0.210298
0.756994 0.420418 0.208484
0.868961 0.418626 0.206693
0.979780 0.416853 0.204920
0.999178 0.416543 0.204609
0.161435 0.542284 0.210889
0.285079 0.540302 0.209645
0.405234 0.538379 0.207722
0.522381 0.536505 0.205848
0.637377 0.534665 0.204008
0.750705 0.532852 0.202195
0.862671 0.531060 0.200403
0.973491 0.529287 0.198630
0.992888 0.528977 0.198320
0.153760 0.652738 0.205469
0.278902 0.650735 0.203467
0.399056 0.648813 0.201544
0.516203 0.646939 0.199670
0.631200 0.645099 0.197830
0.744879 0.643280 0.196011
0.858025 0.641469 0.194201
0.970002 0.639678 0.192409
0.986711 0.639410 0.192142
0.147670 0.761608 0.199379
0.272811 0.759606 0.197377
0.393795 0.757670 0.195441
0.512157 0.755776 0.193547
0.628332 0.753917 0.191688
0.742814 0.752085 0.189856
0.855916 0.750276 0.188047
0.967855 0.748485 0.186256
0.980620 0.748281 0.186051
0.144424 0.869153 0.193316
0.270714 0.867132 0.191295
0.392009 0.865191 0.189354
0.510282 0.863299 0.187462
0.626391 0.861441 0.185604
0.740819 0.859610 0.183773
0.853877 0.857801 0.181964
0.965778 0.856011 0.180174
0.974602 0.855870 0.180033
0.143069 0.975585 0.187284
0.269115 0.973569 0.185267
0.390281 0.971630 0.183329
0.508466 0.969739 0.181438
0.624509 0.967882 0.179581
0.738884 0.966052 0.177751
0.851897 0.964244 0.175943
0.963760 0.962454 0.174153
0.968644 0.962376 0.174075
0.222362 0.068957 0.344054
0.343144 0.067017 0.343421
0.459870 0.065143 0.342853
0.573971 0.063310 0.342326
0.686136 0.061508 0.341829
0.796773 0.059731 0.341357
0.906148 0.057974 0.340904
1.000000 0.056234 0.340469
1.000000 0.056165 0.340629
0.206795 0.193988 0.341329
0.327957 0.192042 0.340689
0.444902 0.190164 0.340115
0.559157 0.188329 0.339584
0.671441 0.186525 0.339085
0.782173 0.184746 0.338609
0.891629 0.182988 0.338154
1.000000 0.181247 0.337716
1.000000 0.181059 0.337757
0.190973 0.313752 0.339148
0.312557 0.311799 0.338499
0.429742 0.309917 0.337920
0.544164 0.308080 0.337385
0.656576 0.306274 0.336882
0.767411 0.304493 0.336403
0.876953 0.302734 0.335945
0.985557 0.300989 0.335415
1.000000 0.300679 0.335104
0.175352 0.429072 0.337211
0.297383 0.427112 0.336553
0.414817 0.425226 0.335969
0.529410 0.423385 0.335430
0.643000 0.421564 0.334348
0.756327 0.419751 0.332535
0.868294 0.417959 0.330743
0.979113 0.416186 0.328970
0.998511 0.415876 0.328660
0.159834 0.541629 0.335424
0.284412 0.539635 0.333695
0.404567 0.537712 0.331773
0.521714 0.535838 0.329898
0.636710 0.533998 0.328058
0.750038 0.532185 0.326245
0.862004 0.530393 0.324454
0.972824 0.528620 0.322681
0.992221 0.528310 0.322370
0.153093 0.652071 0.329520
0.278235 0.650068 0.327517
0.398389 0.648146 0.325595
0.515536 0.646272 0.323721
0.630533 0.644432 0.321881
0.744618 0.642606 0.320055
0.857760 0.640796 0.318245
0.969733 0.639004 0.316453
0.986044 0.638743 0.316192
0.147003 0.760941 0.323429
0.272144 0.758939 0.321427
0.393555 0.756996 0.319485
0.511908 0.755102 0.317591
0.628077 0.753244 0.315732
0.742553 0.751412 0.313900
0.855650 0.749602 0.312091
0.967586 0.747811 0.310300
0.979953 0.747613 0.310102
0.144222 0.868478 0.317359
0.270487 0.866458 0.315339
0.391770 0.864517 0.313398
0.510034 0.862625 0.311506
0.626136 0.860768 0.309648
0.740559 0.858937 0.307817
0.853611 0.857128 0.306009
0.965508 0.855338 0.304218
0.973935 0.855203 0.304083
0.142865 0.974911 0.311327
0.268888 0.972894 0.309311
0.390041 0.970956 0.307372
0.508217 0.969065 0.305481
0.624253 0.967209 0.303625
0.738623 0.965379 0.301795
0.851631 0.963571 0.299987
0.963491 0.961781 0.298197
0.967977 0.961709 0.298125
0.220798 0.068321 0.465022
0.341620 0.066381 0.464353
0.458369 0.064506 0.463749
0.572487 0.062674 0.463187
0.684665 0.060872 0.462655
0.795312 0.059095 0.462148
0.904696 0.057337 0.461661
1.000000 0.055598 0.461191
1.000000 0.055516 0.461332
0.205228 0.193353 0.462185
0.326431 0.191407 0.461509
0.443401 0.189528 0.460901
0.557673 0.187693 0.460335
0.669970 0.185889 0.459801
0.780713 0.184110 0.459292
0.890177 0.182352 0.458802
0.998558 0.180611 0.458330
1.000000 0.180410 0.458352
0.189402 0.313118 0.459888
0.311030 0.311165 0.459204
0.428240 0.309282 0.458591
0.542680 0.307444 0.458021
0.655104 0.305639 0.457484
0.765950 0.303858 0.456972
0.875501 0.302098 0.456480
0.984912 0.300344 0.455477
1.000000 0.300033 0.455167
0.173776 0.428438 0.457836
0.295855 0.426478 0.457144
0.413314 0.424591 0.456526
0.527925 0.422751 0.455953
0.642355 0.420918 0.454411
0.755682 0.419105 0.452598
0.867648 0.417314 0.450806
0.978468 0.415540 0.449033
0.997866 0.415230 0.448723
0.158625 0.540991 0.455760
0.283767 0.538989 0.453758
0.403922 0.537067 0.451835
0.521069 0.535192 0.449961
0.636065 0.533352 0.448121
0.749392 0.531539 0.446308
0.861358 0.529748 0.444516
0.972178 0.527974 0.442743
0.991576 0.527664 0.442433
0.152448 0.651425 0.449582
0.277589 0.649423 0.447580
0.397744 0.647500 0.445658
0.514891 0.645626 0.443783
0.629887 0.643786 0.441943
0.744379 0.641954 0.440111
0.857516 0.640144 0.438301
0.969486 0.638352 0.436510
0.985398 0.638098 0.436255
0.146357 0.760295 0.443492
0.271937 0.758286 0.441483
0.393337 0.756344 0.439540
0.511681 0.754450 0.437647
0.627843 0.752591 0.435788
0.742314 0.750760 0.433957
0.855407 0.748950 0.432147
0.967338 0.747159 0.430356
0.979308 0.746968 0.430165
0.144042 0.867825 0.437414
0.270282 0.865805 0.435394
0.391551 0.863865 0.433454
0.509806 0.861973 0.431562
0.625902 0.860115 0.429704
0.740319 0.858285 0.427874
0.853367 0.856476 0.426065
0.965261 0.854686 0.424275
0.973289 0.854557 0.424146
0.142684 0.974258 0.431382
0.268682 0.972242 0.429366
0.389822 0.970304 0.427428
0.507989 0.968413 0.425537
0.624019 0.966556 0.423681
0.738383 0.964727 0.421851
0.851387 0.962919 0.420043
0.963243 0.961129 0.418253
0.967331 0.961063 0.418188
0.219249 0.067701 0.583214
0.340111 0.065760 0.582520
0.456884 0.063885 0.581891
0.571018 0.062052 0.581304
0.683209 0.060250 0.580748
0.793866 0.058473 0.580216
0.903259 0.056716 0.579705
1.000000 0.054976 0.579210
1.000000 0.054882 0.579335
0.203676 0.192732 0.580299
0.324921 0.190786 0.579599
0.441914 0.188907 0.578966
0.556203 0.187072 0.578375
0.668513 0.185268 0.577817
0.779266 0.183489 0.577283
0.888740 0.181731 0.576769
0.997128 0.179990 0.576273
1.000000 0.179776 0.576278
0.187845 0.312498 0.577920
0.309517 0.310544 0.577212
0.426753 0.308662 0.576574
0.541209 0.306824 0.575980
0.653647 0.305018 0.575419
0.764503 0.303237 0.574883
0.874063 0.301478 0.574367
0.984280 0.299712 0.572917
1.000000 0.299402 0.572607
0.172215 0.427819 0.575788
0.294340 0.425858 0.575071
0.411825 0.423971 0.574429
0.526727 0.422127 0.573691
0.641723 0.420287 0.571851
0.755050 0.418474 0.570037
0.867017 0.416682 0.568246
0.977836 0.414909 0.566473
0.997234 0.414599 0.566163
0.157994 0.540360 0.573200
0.283135 0.538358 0.571198
0.403290 0.536435 0.569275
0.520437 0.534561 0.567401
0.635433 0.532721 0.565561
0.748761 0.530908 0.563748
0.860727 0.529116 0.561956
0.971546 0.527343 0.560183
0.990944 0.527033 0.559873
0.151816 0.650794 0.567022
0.276958 0.648791 0.565020
0.397112 0.646869 0.563098
0.514259 0.644995 0.561223
0.629635 0.643149 0.559377
0.744154 0.641316 0.557545
0.857287 0.639506 0.555735
0.969252 0.637715 0.553943
0.984767 0.637466 0.553695
0.145726 0.759664 0.560932
0.271746 0.757647 0.558916
0.393133 0.755705 0.556973
0.511468 0.753812 0.555080
0.627624 0.751953 0.553222
0.742089 0.750122 0.551390
0.855177 0.748312 0.549581
0.967105 0.746522 0.547790
0.978676 0.746336 0.547605
0.143875 0.867186 0.554847
0.270091 0.865167 0.552827
0.391347 0.863227 0.550887
0.509593 0.861335 0.548995
0.625682 0.859477 0.547138
0.740094 0.857647 0.545307
0.853137 0.855838 0.543498
0.965027 0.854048 0.541708
0.972658 0.853926 0.541586
0.142516 0.973619 0.548815
0.268490 0.971603 0.546799
0.389617 0.969665 0.544861
0.507776 0.967775 0.542971
0.623798 0.965918 0.541114
0.738157 0.964089 0.539285
0.851157 0.962281 0.537477
0.963009 0.960491 0.535687
0.966699 0.960432 0.535628
0.217711 0.067091 0.699371
0.338613 0.065150 0.698658
0.455409 0.063274 0.698010
0.569559 0.061441 0.697404
0.681763 0.059639 0.696829
0.792430 0.057862 0.696278
0.901832 0.056105 0.695748
1.000000 0.054365 0.695234
1.000000 0.054258 0.695343
0.202133 0.192123 0.696397
0.323421 0.190176 0.695677
0.440438 0.188297 0.695025
0.554744 0.186461 0.694416
0.667067 0.184657 0.693838
0.777830 0.182878 0.693286
0.887313 0.181120 0.692753
0.995708 0.179379 0.692238
1.000000 0.179153 0.692228
0.186298 0.311889 0.693955
0.308015 0.309934 0.693227
0.425276 0.308052 0.692571
0.539749 0.306213 0.691958
0.652200 0.304408 0.691378
0.763067 0.302627 0.690823
0.872840 0.300864 0.690181
0.983659 0.299091 0.688408
1.000000 0.298781 0.688098
0.170664 0.427210 0.691760
0.292836 0.425248 0.691025
0.410347 0.423362 0.690363
0.526106 0.421506 0.689181
0.641102 0.419666 0.687341
0.754429 0.417853 0.685528
0.866396 0.416061 0.683737
0.977215 0.414288 0.681964
0.996613 0.413978 0.681653
0.157373 0.539739 0.688691
0.282514 0.537737 0.686689
0.402669 0.535814 0.684766
0.519816 0.533940 0.682892
0.634812 0.532100 0.681052
0.748140 0.530287 0.679239
0.860106 0.528495 0.677447
0.971264 0.526717 0.675669
0.990323 0.526412 0.675364
0.151195 0.650173 0.682513
0.276337 0.648170 0.680511
0.396491 0.646248 0.678588
0.513638 0.644374 0.676714
0.629426 0.642521 0.674861
0.743940 0.640689 0.673029
0.857068 0.638879 0.671219
0.969029 0.637087 0.669428
0.984146 0.636845 0.669186
0.145127 0.759042 0.676422
0.271566 0.757019 0.674399
0.392940 0.755077 0.672457
0.511265 0.753184 0.670564
0.627414 0.751326 0.668706
0.741874 0.749494 0.666874
0.854958 0.747685 0.665065
0.966881 0.745894 0.663274
0.978055 0.745715 0.663095
0.143719 0.866558 0.670330
0.269910 0.864539 0.668311
0.391153 0.862599 0.666371
0.509390 0.860707 0.664479
0.625472 0.858850 0.662622
0.739879 0.857019 0.660791
0.852918 0.855211 0.658983
0.964804 0.853420 0.657192
0.972037 0.853305 0.657077
0.142358 0.972991 0.664298
0.268309 0.970975 0.662283
0.389423 0.969038 0.660345
0.507573 0.967147 0.658455
0.623589 0.965291 0.656598
0.737942 0.963461 0.654769
0.850938 0.961653 0.652961
0.962786 0.959864 0.651171
0.966078 0.959811 0.651119
0.216180 0.066489 0.813926
0.337123 0.064548 0.813197
0.453942 0.062672 0.812533
0.568109 0.060839 0.811912
0.680326 0.059037 0.811322
0.791004 0.057259 0.810756
0.900414 0.055502 0.810210
1.000000 0.053762 0.809681
1.000000 0.053642 0.809775
0.200599 0.191522 0.810904
0.321929 0.189574 0.810168
0.438971 0.187695 0.809500
0.553293 0.185859 0.808876
0.665629 0.184055 0.808283
0.776403 0.182276 0.807715
0.885894 0.180518 0.807168
0.994297 0.178777 0.806638
1.000000 0.178538 0.806612
0.184760 0.311288 0.808411
0.306522 0.309333 0.807668
0.423807 0.307450 0.806995
0.538298 0.305612 0.806368
0.650762 0.303806 0.805773
0.761639 0.302025 0.805203
0.872227 0.300252 0.804125
0.983047 0.298479 0.802352
1.000000 0.298168 0.802041
0.169120 0.426610 0.806166
0.291340 0.424648 0.805415
0.408877 0.422760 0.804738
0.525493 0.420893 0.803125
0.640489 0.419053 0.801285
0.753817 0.417240 0.799472
0.865783 0.415448 0.797681
0.976603 0.413675 0.795907
0.996001 0.413365 0.795597
0.156760 0.539126 0.802635
0.281902 0.537124 0.800632
0.402057 0.535202 0.798710
0.519203 0.533327 0.796835
0.634200 0.531487 0.794996
0.747527 0.529674 0.793182
0.859493 0.527882 0.791391
0.971049 0.526098 0.789606
0.989711 0.525799 0.789307
0.150583 0.649560 0.796457
0.275724 0.647558 0.794454
0.395879 0.645635 0.792532
0.513026 0.643761 0.790658
0.629225 0.641902 0.788798
0.743733 0.640070 0.786966
0.856857 0.638260 0.785156
0.968815 0.636468 0.783365
0.983533 0.636233 0.783129
0.144981 0.758422 0.790359
0.271394 0.756400 0.788336
0.392754 0.754458 0.786394
0.511071 0.752565 0.784501
0.627213 0.750707 0.782643
0.741668 0.748875 0.780812
0.854747 0.747066 0.779002
0.966667 0.745275 0.777212
0.977443 0.745103 0.777039
0.143571 0.865938 0.784266
0.269737 0.863919 0.782247
0.390967 0.861979 0.780308
0.509196 0.860088 0.778416
0.625271 0.858231 0.776559
0.739672 0.856400 0.774728
0.852707 0.854592 0.772920
0.964589 0.852801 0.771130
0.971424 0.852692 0.771020
0.142209 0.972371 0.778235
0.268136 0.970356 0.776220
0.389237 0.968418 0.774282
0.507378 0.966528 0.772392
0.623387 0.964672 0.770536
0.737736 0.962842 0.768706
0.850726 0.961034 0.766898
0.962571 0.959245 0.765109
0.965466 0.959198 0.765062
0.214657 0.065895 0.927163
0.335640 0.063953 0.926420
0.452483 0.062077 0.925743
0.566666 0.060244 0.925109
0.678895 0.058441 0.924505
0.789583 0.056664 0.923927
0.899002 0.054907 0.923368
1.000000 0.053167 0.922827
1.000000 0.053034 0.922905
0.199072 0.190928 0.924100
0.320444 0.188980 0.923350
0.437510 0.187100 0.922670
0.551849 0.185264 0.922032
0.664198 0.183460 0.921427
0.774983 0.181681 0.920846
0.884482 0.179922 0.920286
0.992893 0.178181 0.919743
1.000000 0.177930 0.919703
0.183227 0.310695 0.921564
0.305035 0.308739 0.920807
0.422345 0.306856 0.920122
0.536853 0.305017 0.919482
0.649330 0.303211 0.918874
0.760219 0.301430 0.918291
0.871622 0.299646 0.916788
0.982441 0.297873 0.915015
1.000000 0.297563 0.914705
0.167583 0.426016 0.919277
0.289851 0.424054 0.918512
0.407741 0.422162 0.917663
0.524887 0.420287 0.915789
0.639884 0.418447 0.913949
0.753211 0.416634 0.912136
0.865177 0.414843 0.910344
0.975997 0.413070 0.908571
0.995395 0.412759 0.908261
0.156155 0.538521 0.915298
0.281296 0.536518 0.913296
0.401451 0.534596 0.911374
0.518598 0.532721 0.909499
0.633594 0.530881 0.907659
0.746921 0.529068 0.905846
0.858888 0.527277 0.904054
0.970841 0.525485 0.902263
0.989105 0.525193 0.901971
0.149977 0.648954 0.909120
0.275118 0.646952 0.907118
0.395273 0.645029 0.905196
0.512829 0.643149 0.903315
0.629031 0.641289 0.901456
0.743534 0.639457 0.899623
0.856653 0.637647 0.897814
0.968607 0.635856 0.896022
0.982927 0.635627 0.895793
0.144841 0.757809 0.903015
0.271229 0.755787 0.900993
0.392576 0.753845 0.899051
0.510884 0.751952 0.897158
0.627019 0.750094 0.895300
0.741468 0.748263 0.893469
0.854543 0.746454 0.891660
0.966459 0.744663 0.889869
0.976837 0.744497 0.889703
0.143430 0.865325 0.896922
0.269572 0.863306 0.894904
0.390788 0.861367 0.892965
0.509008 0.859475 0.891073
0.625077 0.857618 0.889216
0.739473 0.855788 0.887386
0.852503 0.853979 0.885577
0.964381 0.852189 0.883787
0.970818 0.852086 0.883684
0.142066 0.971757 0.890891
0.267969 0.969743 0.888876
0.389058 0.967805 0.886939
0.507190 0.965915 0.885049
0.623193 0.964059 0.883193
0.737536 0.962230 0.881363
0.850522 0.960422 0.879555
0.962363 0.958632 0.877766
0.964860 0.958593 0.877726
