assets/luts/disposable.cube
# MoodFilm Filter — disposable
TITLE "disposable"
LUT_3D_SIZE 17
0.225863 0.070396 0.070396
0.286864 0.069420 0.069420
0.346565 0.068465 0.068465
0.405293 0.067525 0.067525
0.463246 0.066598 0.066598
0.520556 0.065681 0.065681
0.577317 0.064773 0.064773
0.633601 0.063872 0.063872
0.689462 0.062978 0.062978
0.744944 0.062091 0.062091
0.800083 0.061208 0.061208
0.854909 0.060331 0.060331
0.909447 0.059458 0.059458
0.963718 0.058590 0.058590
1.000000 0.057726 0.057726
1.000000 0.057686 0.057686
1.000000 0.057686 0.057686
0.218382 0.132399 0.066995
0.279485 0.131421 0.066018
0.339258 0.130465 0.065061
0.398042 0.129524 0.064121
0.456041 0.128596 0.063193
0.513390 0.127678 0.062275
0.570184 0.126770 0.061366
0.626497 0.125869 0.060465
0.682384 0.124974 0.059571
0.737890 0.124086 0.058683
0.793050 0.123204 0.057800
0.847895 0.122326 0.056923
0.902451 0.121453 0.056050
0.956739 0.120585 0.055181
1.000000 0.119720 0.054317
1.000000 0.119625 0.054221
1.000000 0.119625 0.054221
0.210327 0.195449 0.063545
0.271547 0.194469 0.062565
0.331404 0.193511 0.061607
0.390252 0.192570 0.060666
0.448303 0.191641 0.059737
0.505696 0.190723 0.058819
0.562528 0.189813 0.057909
0.618874 0.188912 0.057008
0.674791 0.188017 0.056113
0.730323 0.187129 0.055225
0.785507 0.186246 0.054342
0.840375 0.185368 0.053464
0.894951 0.184495 0.052591
0.949258 0.183626 0.051722
1.000000 0.182761 0.050857
1.000000 0.182602 0.050698
1.000000 0.182602 0.050698
0.202397 0.256083 0.060229
0.263738 0.255102 0.059248
0.323679 0.254142 0.058289
0.382593 0.253200 0.057346
0.440697 0.252270 0.056417
0.498134 0.251351 0.055498
0.555005 0.250441 0.054588
0.611384 0.249539 0.053686
0.667330 0.248644 0.052790
0.722889 0.247755 0.051902
0.778098 0.246872 0.051018
0.832988 0.245993 0.050140
0.887584 0.245120 0.049266
0.941910 0.244251 0.048397
0.995984 0.243385 0.047532
1.000000 0.243164 0.047310
1.000000 0.243164 0.047310
0.194538 0.315236 0.056997
0.256004 0.314253 0.056014
0.316032 0.313292 0.055053
0.375012 0.312348 0.054110
0.433170 0.311418 0.053179
0.490652 0.310498 0.052259
0.547561 0.309588 0.051349
0.603975 0.308685 0.050446
0.659951 0.307789 0.049551
0.715536 0.306900 0.048661
0.770770 0.306016 0.047777
0.825682 0.305138 0.046899
0.880299 0.304264 0.046025
0.934644 0.303394 0.045155
0.988736 0.302529 0.044290
1.000000 0.302244 0.044005
1.000000 0.302244 0.044005
0.186728 0.373323 0.053825
0.248322 0.372337 0.052839
0.308439 0.371375 0.051878
0.367487 0.370431 0.050933
0.425699 0.369499 0.050001
0.483227 0.368579 0.049081
0.540175 0.367668 0.048170
0.596622 0.366764 0.047267
0.652629 0.365868 0.046370
0.708242 0.364979 0.045481
0.763499 0.364094 0.044597
0.818434 0.363215 0.043718
0.873072 0.362341 0.042843
0.928600 0.361453 0.041955
0.983877 0.360568 0.041070
1.000000 0.360258 0.040760
1.000000 0.360258 0.040760
0.178951 0.430579 0.050699
0.240679 0.429591 0.049712
0.300887 0.428628 0.048748
0.360004 0.427682 0.047802
0.418271 0.426750 0.046870
0.475845 0.425829 0.045949
0.532832 0.424917 0.045037
0.589314 0.424013 0.044133
0.645351 0.423117 0.043237
0.701416 0.422219 0.042340
0.757893 0.421316 0.041436
0.814031 0.420418 0.040538
0.869859 0.419524 0.039645
0.925401 0.418636 0.038756
0.980678 0.417751 0.037872
1.000000 0.417441 0.037561
1.000000 0.417441 0.037561
0.171201 0.487156 0.047612
0.233066 0.486166 0.046622
0.293367 0.485201 0.045657
0.352554 0.484254 0.044710
0.410878 0.483321 0.043777
0.468498 0.482399 0.042855
0.526408 0.481473 0.041928
0.584140 0.480549 0.041005
0.641404 0.479633 0.040089
0.698255 0.478723 0.039179
0.754732 0.477820 0.038275
0.810870 0.476921 0.037377
0.866698 0.476028 0.036484
0.922240 0.475139 0.035595
0.977518 0.474255 0.034711
0.996916 0.473945 0.034400
0.996916 0.473945 0.034400
0.163469 0.543160 0.044557
0.225476 0.542168 0.043565
0.285978 0.541200 0.042596
0.346511 0.540231 0.041628
0.406133 0.539277 0.040674
0.465015 0.538335 0.039732
0.523279 0.537403 0.038800
0.581011 0.536479 0.037876
0.638276 0.535563 0.036960
0.695126 0.534653 0.036050
0.751603 0.533750 0.035146
0.807741 0.532852 0.034248
0.863569 0.531958 0.033355
0.919111 0.531070 0.032466
0.974389 0.530185 0.031582
0.993787 0.529875 0.031271
0.993787 0.529875 0.031271
0.157735 0.598637 0.041498
0.221154 0.597622 0.040483
0.282877 0.596635 0.039495
0.343410 0.595666 0.038527
0.403031 0.594712 0.037573
0.461914 0.593770 0.036631
0.520178 0.592838 0.035699
0.577910 0.591914 0.034775
0.635175 0.590998 0.033859
0.692025 0.590088 0.032949
0.748502 0.589185 0.032045
0.804640 0.588286 0.031147
0.860468 0.587393 0.030254
0.916010 0.586504 0.029365
0.971518 0.585616 0.028477
0.990686 0.585310 0.028170
0.990686 0.585310 0.028170
0.154658 0.653636 0.038421
0.218078 0.652621 0.037406
0.279800 0.651634 0.036419
0.340333 0.650665 0.035450
0.399955 0.649711 0.034496
0.458838 0.648769 0.033554
0.517101 0.647837 0.032622
0.574833 0.646913 0.031698
0.632098 0.645997 0.030782
0.688948 0.645087 0.029872
0.745425 0.644184 0.028969
0.802014 0.643278 0.028063
0.858431 0.642375 0.027161
0.914557 0.641477 0.026262
0.970413 0.640584 0.025369
0.987609 0.640309 0.025094
0.987609 0.640309 0.025094
0.151603 0.708246 0.035366
0.215023 0.707231 0.034351
0.276745 0.706244 0.033364
0.337278 0.705275 0.032395
0.396900 0.704321 0.031441
0.455783 0.703379 0.030499
0.514047 0.702447 0.029567
0.571852 0.701522 0.028642
0.629722 0.700596 0.027716
0.687170 0.699677 0.026797
0.744238 0.698764 0.025884
0.800960 0.697856 0.024976
0.857367 0.696954 0.024074
0.913483 0.696056 0.023176
0.969330 0.695162 0.022282
0.984554 0.694919 0.022039
0.984554 0.694919 0.022039
0.148568 0.762506 0.032331
0.211987 0.761491 0.031316
0.273710 0.760504 0.030328
0.334243 0.759535 0.029360
0.394170 0.758576 0.028401
0.453671 0.757624 0.027449
0.512543 0.756682 0.026507
0.570872 0.755749 0.025574
0.628727 0.754823 0.024648
0.686160 0.753904 0.023729
0.743215 0.752992 0.022816
0.799926 0.752084 0.021909
0.856322 0.751182 0.021006
0.912428 0.750284 0.020109
0.968266 0.749391 0.019215
0.981519 0.749179 0.019003
0.981519 0.749179 0.019003
0.145551 0.816447 0.029313
0.209533 0.815423 0.028289
0.271892 0.814425 0.027292
0.333043 0.813447 0.026313
0.393269 0.812483 0.025350
0.452747 0.811532 0.024398
0.511598 0.810590 0.023456
0.569909 0.809657 0.022523
0.627748 0.808732 0.021598
0.685168 0.807813 0.020679
0.742210 0.806900 0.019766
0.798909 0.805993 0.018859
0.855295 0.805091 0.017957
0.911391 0.804193 0.017060
0.967219 0.803300 0.016166
0.978501 0.803120 0.015986
0.978501 0.803120 0.015986
0.144753 0.870060 0.026277
0.208764 0.869036 0.025252
0.271073 0.868039 0.024256
0.332188 0.867061 0.023278
0.392385 0.866098 0.022315
0.451838 0.865147 0.021363
0.510669 0.864205 0.020422
0.568962 0.863273 0.019489
0.626786 0.862347 0.018564
0.684191 0.861429 0.017646
0.741221 0.860516 0.016733
0.797908 0.859609 0.015826
0.854283 0.858707 0.014924
0.910370 0.857810 0.014027
0.966189 0.856917 0.013134
0.975500 0.856768 0.012985
0.975500 0.856768 0.012985
0.144070 0.923402 0.023254
0.208008 0.922379 0.022231
0.270268 0.921382 0.021235
0.331346 0.920405 0.020257
0.391514 0.919442 0.019295
0.450944 0.918492 0.018344
0.509754 0.917551 0.017403
0.568030 0.916618 0.016470
0.625838 0.915693 0.015545
0.683229 0.914775 0.014627
0.740246 0.913863 0.013715
0.796922 0.912956 0.012808
0.853286 0.912054 0.011906
0.909363 0.911157 0.011009
0.965173 0.910264 0.010116
0.972514 0.910146 0.009999
0.972514 0.910146 0.009999
0.143399 0.976493 0.020245
0.207263 0.975471 0.019223
0.269475 0.974475 0.018228
0.330517 0.973499 0.017251
0.390657 0.972536 0.016289
0.450063 0.971586 0.015338
0.508853 0.970645 0.014398
0.567111 0.969713 0.013465
0.624903 0.968788 0.012541
0.682281 0.967870 0.011623
0.739285 0.966958 0.010711
0.795950 0.966052 0.009804
0.852303 0.965150 0.008902
0.908370 0.964253 0.008005
0.964171 0.963360 0.007112
0.969542 0.963274 0.007026
0.969542 0.963274 0.007026
0.225863 0.070396 0.070396
0.286864 0.069420 0.069420
0.346565 0.068465 0.068465
0.405293 0.067525 0.067525
0.463246 0.066598 0.066598
0.520556 0.065681 0.065681
0.577317 0.064773 0.064773
0.633601 0.063872 0.063872
0.689462 0.062978 0.062978
0.744944 0.062091 0.062091
0.800083 0.061208 0.061208
0.854909 0.060331 0.060331
0.909447 0.059458 0.059458
0.963718 0.058590 0.058590
1.000000 0.057726 0.057726
1.000000 0.057686 0.057686
1.000000 0.057686 0.057686
0.218382 0.132399 0.066995
0.279485 0.131421 0.066018
0.339258 0.130465 0.065061
0.398042 0.129524 0.064121
0.456041 0.128596 0.063193
0.513390 0.127678 0.062275
0.570184 0.126770 0.061366
0.626497 0.125869 0.060465
0.682384 0.124974 0.059571
0.737890 0.124086 0.058683
0.793050 0.123204 0.057800
0.847895 0.122326 0.056923
0.902451 0.121453 0.056050
0.956739 0.120585 0.055181
1.000000 0.119720 0.054317
1.000000 0.119625 0.054221
1.000000 0.119625 0.054221
0.210327 0.195449 0.063545
0.271547 0.194469 0.062565
0.331404 0.193511 0.061607
0.390252 0.192570 0.060666
0.448303 0.191641 0.059737
0.505696 0.190723 0.058819
0.562528 0.189813 0.057909
0.618874 0.188912 0.057008
0.674791 0.188017 0.056113
0.730323 0.187129 0.055225
0.785507 0.186246 0.054342
0.840375 0.185368 0.053464
0.894951 0.184495 0.052591
0.949258 0.183626 0.051722
1.000000 0.182761 0.050857
1.000000 0.182602 0.050698
1.000000 0.182602 0.050698
0.202397 0.256083 0.060229
0.263738 0.255102 0.059248
0.323679 0.254142 0.058289
0.382593 0.253200 0.057346
0.440697 0.252270 0.056417
0.498134 0.251351 0.055498
0.555005 0.250441 0.054588
0.611384 0.249539 0.053686
0.667330 0.248644 0.052790
0.722889 0.247755 0.051902
0.778098 0.246872 0.051018
0.832988 0.245993 0.050140
0.887584 0.245120 0.049266
0.941910 0.244251 0.048397
0.995984 0.243385 0.047532
1.000000 0.243164 0.047310
1.000000 0.243164 0.047310
0.194538 0.315236 0.056997
0.256004 0.314253 0.056014
0.316032 0.313292 0.055053
0.375012 0.312348 0.054110
0.433170 0.311418 0.053179
0.490652 0.310498 0.052259
0.547561 0.309588 0.051349
0.603975 0.308685 0.050446
0.659951 0.307789 0.049551
0.715536 0.306900 0.048661
0.770770 0.306016 0.047777
0.825682 0.305138 0.046899
0.880299 0.304264 0.046025
0.934644 0.303394 0.045155
0.988736 0.302529 0.044290
1.000000 0.302244 0.044005
1.000000 0.302244 0.044005
0.186728 0.373323 0.053825
0.248322 0.372337 0.052839
0.308439 0.371375 0.051878
0.367487 0.370431 0.050933
0.425699 0.369499 0.050001
0.483227 0.368579 0.049081
0.540175 0.367668 0.048170
0.596622 0.366764 0.047267
0.652629 0.365868 0.046370
0.708242 0.364979 0.045481
0.763499 0.364094 0.044597
0.818434 0.363215 0.043718
0.873072 0.362341 0.042843
0.928600 0.361453 0.041955
0.983877 0.360568 0.041070
1.000000 0.360258 0.040760
1.000000 0.360258 0.040760
0.178951 0.430579 0.050699
0.240679 0.429591 0.049712
0.300887 0.428628 0.048748
0.360004 0.427682 0.047802
0.418271 0.426750 0.046870
0.475845 0.425829 0.045949
0.532832 0.424917 0.045037
0.589314 0.424013 0.044133
0.645351 0.423117 0.043237
0.701416 0.422219 0.042340
0.757893 0.421316 0.041436
0.814031 0.420418 0.040538
0.869859 0.419524 0.039645
0.925401 0.418636 0.038756
0.980678 0.417751 0.037872
1.000000 0.417441 0.037561
1.000000 0.417441 0.037561
0.171201 0.487156 0.047612
0.233066 0.486166 0.046622
0.293367 0.485201 0.045657
0.352554 0.484254 0.044710
0.410878 0.483321 0.043777
0.468498 0.482399 0.042855
0.526408 0.481473 0.041928
0.584140 0.480549 0.041005
0.641404 0.479633 0.040089
0.698255 0.478723 0.039179
0.754732 0.477820 0.038275
0.810870 0.476921 0.037377
0.866698 0.476028 0.036484
0.922240 0.475139 0.035595
0.977518 0.474255 0.034711
0.996916 0.473945 0.034400
0.996916 0.473945 0.034400
0.163469 0.543160 0.044557
0.225476 0.542168 0.043565
0.285978 0.541200 0.042596
0.346511 0.540231 0.041628
0.406133 0.539277 0.040674
0.465015 0.538335 0.039732
0.523279 0.537403 0.038800
0.581011 0.536479 0.037876
0.638276 0.535563 0.036960
0.695126 0.534653 0.036050
0.751603 0.533750 0.035146
0.807741 0.532852 0.034248
0.863569 0.531958 0.033355
0.919111 0.531070 0.032466
0.974389 0.530185 0.031582
0.993787 0.529875 0.031271
0.993787 0.529875 0.031271
0.157735 0.598637 0.041498
0.221154 0.597622 0.040483
0.282877 0.596635 0.039495
0.343410 0.595666 0.038527
0.403031 0.594712 0.037573
0.461914 0.593770 0.036631
0.520178 0.592838 0.035699
0.577910 0.591914 0.034775
0.635175 0.590998 0.033859
0.692025 0.590088 0.032949
0.748502 0.589185 0.032045
0.804640 0.588286 0.031147
0.860468 0.587393 0.030254
0.916010 0.586504 0.029365
0.971518 0.585616 0.028477
0.990686 0.585310 0.028170
0.990686 0.585310 0.028170
0.154658 0.653636 0.038421
0.218078 0.652621 0.037406
0.279800 0.651634 0.036419
0.340333 0.650665 0.035450
0.399955 0.649711 0.034496
0.458838 0.648769 0.033554
0.517101 0.647837 0.032622
0.574833 0.646913 0.031698
0.632098 0.645997 0.030782
0.688948 0.645087 0.029872
0.745425 0.644184 0.028969
0.802014 0.643278 0.028063
0.858431 0.642375 0.027161
0.914557 0.641477 0.026262
0.970413 0.640584 0.025369
0.987609 0.640309 0.025094
0.987609 0.640309 0.025094
0.151603 0.708246 0.035366
0.215023 0.707231 0.034351
0.276745 0.706244 0.033364
0.337278 0.705275 0.032395
0.396900 0.704321 0.031441
0.455783 0.703379 0.030499
0.514047 0.702447 0.029567
0.571852 0.701522 0.028642
0.629722 0.700596 0.027716
0.687170 0.699677 0.026797
0.744238 0.698764 0.025884
0.800960 0.697856 0.024976
0.857367 0.696954 0.024074
0.913483 0.696056 0.023176
0.969330 0.695162 0.022282
0.984554 0.694919 0.022039
0.984554 0.694919 0.022039
0.148568 0.762506 0.032331
0.211987 0.761491 0.031316
0.273710 0.760504 0.030328
0.334243 0.759535 0.029360
0.394170 0.758576 0.028401
0.453671 0.757624 0.027449
0.512543 0.756682 0.026507
0.570872 0.755749 0.025574
0.628727 0.754823 0.024648
0.686160 0.753904 0.023729
0.743215 0.752992 0.022816
0.799926 0.752084 0.021909
0.856322 0.751182 0.021006
0.912428 0.750284 0.020109
0.968266 0.749391 0.019215
0.981519 0.749179 0.019003
0.981519 0.749179 0.019003
0.145551 0.816447 0.029313
0.209533 0.815423 0.028289
0.271892 0.814425 0.027292
0.333043 0.813447 0.026313
0.393269 0.812483 0.025350
0.452747 0.811532 0.024398
0.511598 0.810590 0.023456
0.569909 0.809657 0.022523
0.627748 0.808732 0.021598
0.685168 0.807813 0.020679
0.742210 0.806900 0.019766
0.798909 0.805993 0.018859
0.855295 0.805091 0.017957
0.911391 0.804193 0.017060
0.967219 0.803300 0.016166
0.978501 0.803120 0.015986
0.978501 0.803120 0.015986
0.144753 0.870060 0.026277
0.208764 0.869036 0.025252
0.271073 0.868039 0.024256
0.332188 0.867061 0.023278
0.392385 0.866098 0.022315
0.451838 0.865147 0.021363
0.510669 0.864205 0.020422
0.568962 0.863273 0.019489
0.626786 0.862347 0.018564
0.684191 0.861429 0.017646
0.741221 0.860516 0.016733
0.797908 0.859609 0.015826
0.854283 0.858707 0.014924
0.910370 0.857810 0.014027
0.966189 0.856917 0.013134
0.975500 0.856768 0.012985
0.975500 0.856768 0.012985
0.144070 0.923402 0.023254
0.208008 0.922379 0.022231
0.270268 0.921382 0.021235
0.331346 0.920405 0.020257
0.391514 0.919442 0.019295
0.450944 0.918492 0.018344
0.509754 0.917551 0.017403
0.568030 0.916618 0.016470
0.625838 0.915693 0.015545
0.683229 0.914775 0.014627
0.740246 0.913863 0.013715
0.796922 0.912956 0.012808
0.853286 0.912054 0.011906
0.909363 0.911157 0.011009
0.965173 0.910264 0.010116
0.972514 0.910146 0.009999
0.972514 0.910146 0.009999
0.143399 0.976493 0.020245
0.207263 0.975471 0.019223
0.269475 0.974475 0.018228
0.330517 0.973499 0.017251
0.390657 0.972536 0.016289
0.450063 0.971586 0.015338
0.508853 0.970645 0.014398
0.567111 0.969713 0.013465
0.624903 0.968788 0.012541
0.682281 0.967870 0.011623
0.739285 0.966958 0.010711
0.795950 0.966052 0.009804
0.852303 0.965150 0.008902
0.908370 0.964253 0.008005
0.964171 0.963360 0.007112
0.969542 0.963274 0.007026
0.969542 0.963274 0.007026
0.225593 0.070333 0.082623
0.286594 0.069353 0.082467
0.346295 0.068393 0.082327
0.405021 0.067449 0.082199
0.462972 0.066518 0.082080
0.520280 0.065596 0.081969
0.577039 0.064684 0.081863
0.633320 0.063779 0.081762
0.689178 0.062881 0.081665
0.744657 0.061989 0.081571
0.799792 0.061102 0.081481
0.854615 0.060221 0.081393
0.909149 0.059344 0.081308
0.963417 0.058471 0.081225
1.000000 0.057603 0.081143
1.000000 0.057559 0.081376
1.000000 0.057559 0.081376
0.218099 0.132323 0.081659
0.279202 0.131341 0.081490
0.338975 0.130380 0.081339
0.397757 0.129435 0.081201
0.455754 0.128503 0.081072
0.513101 0.127581 0.080951
0.569893 0.126668 0.080837
0.626203 0.125763 0.080728
0.682087 0.124864 0.080623
0.737589 0.123972 0.080522
0.792747 0.123085 0.080425
0.847589 0.122203 0.080331
0.902141 0.121326 0.080239
0.956426 0.120453 0.080149
1.000000 0.119585 0.080062
1.000000 0.119485 0.080237
1.000000 0.119485 0.080237
0.210029 0.195359 0.080916
0.271250 0.194375 0.080735
0.331106 0.193413 0.080573
0.389953 0.192467 0.080425
0.448002 0.191534 0.080287
0.505392 0.190611 0.080158
0.562222 0.189697 0.080035
0.618566 0.188792 0.079918
0.674479 0.187893 0.079805
0.730008 0.187000 0.079697
0.785190 0.186113 0.079593
0.840054 0.185231 0.079492
0.894627 0.184353 0.079394
0.948930 0.183480 0.079298
1.000000 0.182611 0.079205
1.000000 0.182448 0.079315
1.000000 0.182448 0.079315
0.202083 0.255978 0.080277
0.263425 0.254993 0.080086
0.323367 0.254029 0.079915
0.382279 0.253082 0.079758
0.440381 0.252148 0.079612
0.497816 0.251225 0.079474
0.554684 0.250311 0.079344
0.611061 0.249405 0.079220
0.667005 0.248505 0.079101
0.722560 0.247612 0.078986
0.777766 0.246725 0.078876
0.832653 0.245842 0.078769
0.887246 0.244965 0.078665
0.941569 0.244091 0.078564
0.995640 0.243222 0.078465
1.000000 0.242996 0.078510
1.000000 0.242996 0.078510
0.194210 0.315117 0.079694
0.255677 0.314130 0.079494
0.315705 0.313165 0.079314
0.374684 0.312217 0.079150
0.432840 0.311282 0.078996
0.490320 0.310358 0.078852
0.547227 0.309443 0.078715
0.603638 0.308537 0.078585
0.659611 0.307637 0.078460
0.715194 0.306743 0.078340
0.770424 0.305855 0.078223
0.825333 0.304973 0.078111
0.879947 0.304095 0.078002
0.934289 0.303221 0.077895
0.988377 0.302352 0.077792
1.000000 0.302063 0.077772
1.000000 0.302063 0.077772
0.186385 0.373190 0.079148
0.247981 0.372200 0.078939
0.308098 0.371234 0.078752
0.367145 0.370285 0.078581
0.425355 0.369350 0.078421
0.482881 0.368425 0.078270
0.539827 0.367510 0.078128
0.596271 0.366602 0.077992
0.652275 0.365702 0.077861
0.707885 0.364808 0.077735
0.763140 0.363920 0.077614
0.818071 0.363037 0.077497
0.872873 0.362156 0.077273
0.928415 0.361268 0.076385
0.983692 0.360383 0.075500
1.000000 0.360073 0.075190
1.000000 0.360073 0.075190
0.178594 0.430432 0.078629
0.240323 0.429440 0.078412
0.300532 0.428473 0.078218
0.359647 0.427523 0.078040
0.417913 0.426586 0.077874
0.475485 0.425661 0.077718
0.532470 0.424745 0.077570
0.588949 0.423837 0.077428
0.644983 0.422936 0.077293
0.701230 0.422034 0.076770
0.757707 0.421131 0.075866
0.813846 0.420233 0.074968
0.869674 0.419339 0.074075
0.925216 0.418451 0.073186
0.980493 0.417566 0.072301
0.999891 0.417256 0.071991
0.999891 0.417256 0.071991
0.170829 0.486995 0.078129
0.232696 0.486001 0.077905
0.292998 0.485032 0.077705
0.352184 0.484081 0.077521
0.410506 0.483144 0.077349
0.468124 0.482218 0.077188
0.526223 0.481288 0.076358
0.583954 0.480364 0.075435
0.641219 0.479448 0.074518
0.698069 0.478538 0.073609
0.754547 0.477634 0.072705
0.810685 0.476736 0.071807
0.866513 0.475843 0.070914
0.922055 0.474954 0.070025
0.977332 0.474070 0.069141
0.996730 0.473759 0.068830
0.996730 0.473759 0.068830
0.163083 0.542985 0.077645
0.225093 0.541989 0.077414
0.285793 0.541015 0.077026
0.346326 0.540046 0.076058
0.405947 0.539092 0.075104
0.464830 0.538150 0.074162
0.523094 0.537218 0.073230
0.580826 0.536294 0.072306
0.638090 0.535378 0.071390
0.694941 0.534468 0.070480
0.751418 0.533565 0.069576
0.807556 0.532666 0.068678
0.863384 0.531773 0.067785
0.918926 0.530885 0.066896
0.974204 0.530000 0.066012
0.993602 0.529690 0.065701
0.993602 0.529690 0.065701
0.157550 0.598452 0.075928
0.220969 0.597437 0.074913
0.282691 0.596450 0.073925
0.343225 0.595481 0.072957
0.402846 0.594527 0.072003
0.461729 0.593585 0.071061
0.519993 0.592653 0.070128
0.577724 0.591729 0.069205
0.634989 0.590813 0.068288
0.691840 0.589903 0.067379
0.748317 0.588999 0.066475
0.804455 0.588101 0.065577
0.860283 0.587208 0.064684
0.915825 0.586319 0.063795
0.971422 0.585430 0.062906
0.990500 0.585125 0.062600
0.990500 0.585125 0.062600
0.154473 0.653451 0.072851
0.217893 0.652436 0.071836
0.279615 0.651449 0.070849
0.340148 0.650480 0.069880
0.399770 0.649526 0.068926
0.458653 0.648584 0.067984
0.516916 0.647652 0.067052
0.574648 0.646728 0.066128
0.631913 0.645812 0.065212
0.688763 0.644902 0.064302
0.745240 0.643998 0.063399
0.801919 0.643092 0.062492
0.858336 0.642189 0.061589
0.914462 0.641291 0.060691
0.970317 0.640397 0.059797
0.987424 0.640123 0.059524
0.987424 0.640123 0.059524
0.151418 0.708061 0.069796
0.214838 0.707046 0.068781
0.276560 0.706059 0.067794
0.337093 0.705090 0.066825
0.396715 0.704136 0.065871
0.455598 0.703194 0.064929
0.513861 0.702262 0.063997
0.571760 0.701336 0.063070
0.629630 0.700410 0.062144
0.687077 0.699490 0.061225
0.744144 0.698577 0.060312
0.800865 0.697670 0.059405
0.857272 0.696767 0.058502
0.913388 0.695869 0.057604
0.969234 0.694976 0.056711
0.984369 0.694734 0.056469
0.984369 0.694734 0.056469
0.148383 0.762321 0.066760
0.211802 0.761306 0.065746
0.273524 0.760319 0.064758
0.334058 0.759350 0.063790
0.394080 0.758390 0.062829
0.453581 0.757438 0.061877
0.512451 0.756496 0.060935
0.570780 0.755562 0.060002
0.628634 0.754637 0.059076
0.686067 0.753718 0.058157
0.743121 0.752805 0.057245
0.799831 0.751898 0.056337
0.856227 0.750995 0.055435
0.912333 0.750098 0.054537
0.968170 0.749204 0.053644
0.981333 0.748994 0.053433
0.981333 0.748994 0.053433
0.145366 0.816262 0.063743
0.209449 0.815236 0.062718
0.271806 0.814239 0.061720
0.332955 0.813260 0.060742
0.393180 0.812297 0.059778
0.452657 0.811345 0.058826
0.511506 0.810403 0.057885
0.569817 0.809470 0.056952
0.627655 0.808545 0.056026
0.685074 0.807626 0.055108
0.742116 0.806714 0.054195
0.798814 0.805806 0.053288
0.855199 0.804904 0.052386
0.911295 0.804007 0.051488
0.967123 0.803114 0.050595
0.978316 0.802934 0.050416
0.978316 0.802934 0.050416
0.144672 0.869873 0.060705
0.208680 0.868849 0.059681
0.270987 0.867852 0.058684
0.332100 0.866874 0.057706
0.392295 0.865911 0.056743
0.451748 0.864960 0.055792
0.510577 0.864019 0.054850
0.568870 0.863086 0.053918
0.626693 0.862161 0.052992
0.684098 0.861242 0.052074
0.741126 0.860330 0.051162
0.797814 0.859423 0.050255
0.854188 0.858521 0.049353
0.910274 0.857623 0.048455
0.966093 0.856730 0.047562
0.975315 0.856583 0.047414
0.975315 0.856583 0.047414
0.143989 0.923215 0.057682
0.207923 0.922192 0.056659
0.270181 0.921196 0.055663
0.331258 0.920218 0.054686
0.391425 0.919256 0.053723
0.450854 0.918305 0.052772
0.509662 0.917364 0.051831
0.567938 0.916432 0.050899
0.625745 0.915507 0.049974
0.683136 0.914588 0.049056
0.740152 0.913676 0.048143
0.796827 0.912769 0.047236
0.853191 0.911867 0.046335
0.909268 0.910970 0.045437
0.965077 0.910077 0.044544
0.972329 0.909961 0.044428
0.972329 0.909961 0.044428
0.143318 0.976306 0.054673
0.207179 0.975284 0.053651
0.269388 0.974289 0.052656
0.330429 0.973312 0.051679
0.390567 0.972350 0.050717
0.449972 0.971399 0.049767
0.508761 0.970459 0.048826
0.567019 0.969527 0.047894
0.624810 0.968602 0.046969
0.682187 0.967684 0.046051
0.739191 0.966772 0.045139
0.795855 0.965865 0.044232
0.852208 0.964963 0.043331
0.908275 0.964066 0.042434
0.964075 0.963174 0.041541
0.969357 0.963089 0.041456
0.969357 0.963089 0.041456
0.224757 0.069961 0.153193
0.285771 0.068981 0.152927
0.345480 0.068022 0.152682
0.404213 0.067078 0.152453
0.462170 0.066147 0.152235
0.519482 0.065226 0.152027
0.576246 0.064314 0.151828
0.632530 0.063410 0.151635
0.688392 0.062512 0.151449
0.743874 0.061621 0.151269
0.799013 0.060734 0.151094
0.853838 0.059853 0.150923
0.908375 0.058977 0.150757
0.962645 0.058105 0.150594
1.000000 0.057237 0.150435
1.000000 0.057187 0.150634
1.000000 0.057187 0.150634
0.217264 0.131953 0.151915
0.278379 0.130971 0.151646
