assets/luts/disposable.cube
# MoodFilm Filter — disposable
TITLE "disposable"
LUT_3D_SIZE 5
0.225863 0.070396 0.070396
0.463246 0.066598 0.066598
0.689462 0.062978 0.062978
0.909447 0.059458 0.059458
1.000000 0.057686 0.057686
0.194538 0.315236 0.056997
0.433170 0.311418 0.053179
0.659951 0.307789 0.049551
0.880299 0.304264 0.046025
1.000000 0.302244 0.044005
0.163469 0.543160 0.044557
0.406133 0.539277 0.040674
0.638276 0.535563 0.036960
0.863569 0.531958 0.033355
0.993787 0.529875 0.031271
0.148568 0.762506 0.032331
0.394170 0.758576 0.028401
0.628727 0.754823 0.024648
0.856322 0.751182 0.021006
0.981519 0.749179 0.019003
0.143399 0.976493 0.020245
0.390657 0.972536 0.016289
0.624903 0.968788 0.012541
0.852303 0.965150 0.008902
0.969542 0.963274 0.007026
0.223948 0.069616 0.218745
0.461393 0.065802 0.217666
0.687630 0.062168 0.216763
0.907623 0.058633 0.215957
1.000000 0.056836 0.215763
0.192566 0.314409 0.214229
0.431266 0.310575 0.213119
0.658069 0.306931 0.212195
0.878426 0.303391 0.211372
1.000000 0.301347 0.210924
0.161435 0.542284 0.210889
0.405234 0.538379 0.207722
0.637377 0.534665 0.204008
0.862671 0.531060 0.200403
0.992888 0.528977 0.198320
0.147670 0.761608 0.199379
0.393795 0.757670 0.195441
0.628332 0.753917 0.191688
0.855916 0.750276 0.188047
0.980620 0.748281 0.186051
0.143069 0.975585 0.187284
0.390281 0.971630 0.183329
0.624509 0.967882 0.179581
0.851897 0.964244 0.175943
0.968644 0.962376 0.174075
0.220798 0.068321 0.465022
0.458369 0.064506 0.463749
0.684665 0.060872 0.462655
0.904696 0.057337 0.461661
1.000000 0.055516 0.461332
0.189402 0.313118 0.459888
0.428240 0.309282 0.458591
0.655104 0.305639 0.457484
0.875501 0.302098 0.456480
1.000000 0.300033 0.455167
0.158625 0.540991 0.455760
0.403922 0.537067 0.451835
0.636065 0.533352 0.448121
0.861358 0.529748 0.444516
0.991576 0.527664 0.442433
0.146357 0.760295 0.443492
0.393337 0.756344 0.439540
0.627843 0.752591 0.435788
0.855407 0.748950 0.432147
0.979308 0.746968 0.430165
0.142684 0.974258 0.431382
0.389822 0.970304 0.427428
0.624019 0.966556 0.423681
0.851387 0.962919 0.420043
0.967331 0.961063 0.418188
0.217711 0.067091 0.699371
0.455409 0.063274 0.698010
0.681763 0.059639 0.696829
0.901832 0.056105 0.695748
1.000000 0.054258 0.695343
0.186298 0.311889 0.693955
0.425276 0.308052 0.692571
0.652200 0.304408 0.691378
0.872840 0.300864 0.690181
1.000000 0.298781 0.688098
0.157373 0.539739 0.688691
0.402669 0.535814 0.684766
0.634812 0.532100 0.681052
0.860106 0.528495 0.677447
0.990323 0.526412 0.675364
0.145127 0.759042 0.676422
0.392940 0.755077 0.672457
0.627414 0.751326 0.668706
0.854958 0.747685 0.665065
0.978055 0.745715 0.663095
0.142358 0.972991 0.664298
0.389423 0.969038 0.660345
0.623589 0.965291 0.656598
0.850938 0.961653 0.652961
0.966078 0.959811 0.651119
0.214657 0.065895 0.927163
0.452483 0.062077 0.925743
0.678895 0.058441 0.924505
0.899002 0.054907 0.923368
1.000000 0.053034 0.922905
0.183227 0.310695 0.921564
0.422345 0.306856 0.920122
0.649330 0.303211 0.918874
0.871622 0.299646 0.916788
1.000000 0.297563 0.914705
0.156155 0.538521 0.915298
0.401451 0.534596 0.911374
0.633594 0.530881 0.907659
0.858888 0.527277 0.904054
0.989105 0.525193 0.901971
0.144841 0.757809 0.903015
0.392576 0.753845 0.899051
0.627019 0.750094 0.895300
0.854543 0.746454 0.891660
0.976837 0.744497 0.889703
0.142066 0.971757 0.890891
0.389058 0.967805 0.886939
0.623193 0.964059 0.883193
0.850522 0.960422 0.879555
0.964860 0.958593 0.877726
