assets/luts/dream.cube
TITLE "dream"
LUT_3D_SIZE 9
0.026922 0.190790 0.042918
0.297656 0.045981 0.051485
0.409051 0.047817 0.061741
0.515901 0.054513 0.071579
0.619440 0.062121 0.081112
0.720392 0.069975 0.090407
0.819228 0.077882 0.099507
0.916281 0.085771 0.108443
0.954799 0.159238 0.189322
0.037069 0.305190 0.053661
0.266145 0.305190 0.053661
0.409051 0.239452 0.061741
0.515901 0.212632 0.071579
0.619440 0.203305 0.081112
0.720392 0.200711 0.090407
0.819228 0.201411 0.099507
0.916281 0.203960 0.108443
0.954799 0.257677 0.189322
0.046661 0.413331 0.063817
0.207175 0.413331 0.063817
0.392955 0.413331 0.063817
0.515901 0.370751 0.071579
0.619440 0.344489 0.081112
0.720392 0.331447 0.090407
0.819228 0.324940 0.099507
0.916281 0.322149 0.108443
0.954799 0.356116 0.189322
0.055885 0.517334 0.073584
0.191390 0.517334 0.073584
0.348224 0.517334 0.073584
0.505059 0.517334 0.073584
0.619440 0.485673 0.081112
0.720392 0.462183 0.090407
0.819228 0.448469 0.099507
0.916281 0.440338 0.108443
0.954799 0.454555 0.189322
0.064838 0.618268 0.083063
0.187010 0.618268 0.083063
0.328414 0.618268 0.083063
0.469817 0.618268 0.083063
0.611221 0.618268 0.083063
0.720392 0.592920 0.090407
0.819228 0.571997 0.099507
0.916281 0.558527 0.108443
0.954799 0.552993 0.189322
0.073575 0.716776 0.092315
0.187288 0.716776 0.092315
0.318900 0.716776 0.092315
0.450512 0.716776 0.092315
0.582124 0.716776 0.092315
0.713736 0.716776 0.092315
0.819228 0.695526 0.099507
0.916281 0.676716 0.108443
0.954799 0.651432 0.189322
0.082135 0.813287 0.101378
0.189910 0.813287 0.101378
0.314649 0.813287 0.101378
0.439389 0.813287 0.101378
0.564128 0.813287 0.101378
0.688868 0.813287 0.101378
0.813607 0.813287 0.101378
0.916281 0.794905 0.108443
0.954799 0.749871 0.189322
0.090545 0.908106 0.110283
0.193869 0.908106 0.110283
0.313456 0.908106 0.110283
0.433044 0.908106 0.110283
0.552631 0.908106 0.110283
0.672219 0.908106 0.110283
0.791806 0.908106 0.110283
0.911394 0.908106 0.110283
0.954799 0.848310 0.189322
0.180395 0.927570 0.205418
0.264173 0.927570 0.205418
0.361139 0.927570 0.205418
0.458105 0.927570 0.205418
0.555071 0.927570 0.205418
0.652036 0.927570 0.205418
0.749002 0.927570 0.205418
0.845968 0.927570 0.205418
0.942934 0.927570 0.205418
0.036321 0.045391 0.345494
0.266630 0.045258 0.333867
0.403061 0.048232 0.264825
0.511959 0.055044 0.240667
0.616487 0.062682 0.232677
0.718017 0.070544 0.231048
0.817232 0.078451 0.232564
0.914552 0.086338 0.235856
0.948403 0.167002 0.301799
0.037069 0.305190 0.333269
0.211172 0.236358 0.264825
0.354753 0.212692 0.241722
0.475548 0.203325 0.232999
0.587141 0.200714 0.231037
0.693316 0.201404 0.232375
0.795807 0.203948 0.235561
0.854652 0.257346 0.294846
0.951298 0.280603 0.320290
0.046661 0.413331 0.259739
0.192608 0.368133 0.240667
0.348338 0.363702 0.239026
0.475548 0.344561 0.232999
0.587141 0.331484 0.231037
0.693316 0.324957 0.232375
0.795807 0.322155 0.235561
0.854652 0.355886 0.294846
0.951298 0.375161 0.320290
0.055885 0.517334 0.238980
0.187253 0.483499 0.232677
0.328468 0.479746 0.232199
0.469919 0.479746 0.232199
0.587141 0.462254 0.231037
0.693316 0.448510 0.232375
0.795807 0.440363 0.235561
0.854652 0.454426 0.294846
0.951298 0.469719 0.320290
0.064838 0.618268 0.232186
0.187080 0.591070 0.231048
0.318925 0.587839 0.231109
0.450570 0.587839 0.231109
0.582214 0.587839 0.231109
0.693316 0.572064 0.232375
0.795807 0.558571 0.235561
0.854652 0.552966 0.294846
0.951298 0.564277 0.320290
0.073575 0.716776 0.231111
0.189459 0.693915 0.232564
0.314659 0.691077 0.232916
0.439422 0.691077 0.232916
0.564185 0.691077 0.232916
0.688948 0.691077 0.232916
0.795807 0.676778 0.235561
0.854652 0.651506 0.294846
0.951298 0.658835 0.320290
0.082135 0.813287 0.232927
0.193273 0.793474 0.235856
0.313457 0.790938 0.236382
0.433062 0.790938 0.236382
0.552668 0.790938 0.236382
0.672273 0.790938 0.236382
0.791879 0.790938 0.236382
0.854652 0.750046 0.294846
0.951298 0.753393 0.320290
0.090545 0.908106 0.236399
0.258410 0.843465 0.301799
0.362058 0.840035 0.308688
0.458981 0.840035 0.308688
0.555905 0.840035 0.308688
0.652829 0.840035 0.308688
0.749752 0.840035 0.308688
0.846676 0.840035 0.308688
0.951298 0.847951 0.320290
0.180395 0.927570 0.307677
0.276208 0.935738 0.320348
0.374386 0.936977 0.322250
0.470757 0.936977 0.322250
0.567127 0.936977 0.322250
0.663498 0.936977 0.322250
0.759869 0.936977 0.322250
0.856239 0.936977 0.322250
0.952610 0.936977 0.322250
0.045946 0.048589 0.462698
0.207283 0.049031 0.456764
0.393232 0.049031 0.456764
0.511959 0.055044 0.409735
0.616487 0.062682 0.384171
0.718017 0.070544 0.371590
0.817232 0.078451 0.365504
0.914552 0.086338 0.363140
0.948403 0.167002 0.406168
0.045946 0.233977 0.462698
0.193381 0.212692 0.412587
0.348338 0.209864 0.405171
0.473409 0.202954 0.384171
0.585283 0.200675 0.371590
0.691678 0.201544 0.365504
0.794339 0.204194 0.363140
0.849832 0.263640 0.406168
0.952031 0.281615 0.423463
0.046661 0.413331 0.456448
0.192608 0.368133 0.409735
0.330331 0.343227 0.384171
0.453755 0.331484 0.372269
0.567292 0.324957 0.365812
0.675235 0.322155 0.363225
0.754141 0.355886 0.401269
0.854848 0.375161 0.422412
0.960886 0.387738 0.436040
0.055885 0.517334 0.405040
0.187253 0.483499 0.384171
0.319814 0.460939 0.371590
0.450570 0.458776 0.370497
0.567292 0.448510 0.365812
0.675235 0.440363 0.363225
0.754141 0.454426 0.401269
0.854848 0.469719 0.422412
0.960886 0.481747 0.436040
0.064838 0.618268 0.381907
0.187080 0.591070 0.371590
0.315014 0.570822 0.365504
0.439422 0.568761 0.365018
0.564185 0.568761 0.365018
0.675235 0.558571 0.363225
0.754141 0.552966 0.401269
0.854848 0.564277 0.422412
0.960886 0.575757 0.436040
0.073575 0.716776 0.370465
0.189459 0.693915 0.365504
0.313486 0.675618 0.363140
0.433062 0.673678 0.363024
0.552668 0.673678 0.363024
0.672273 0.673678 0.363024
0.754141 0.651506 0.401269
0.854848 0.658835 0.422412
0.960886 0.669767 0.436040
0.082135 0.813287 0.365004
0.193273 0.793474 0.363140
0.356980 0.746828 0.406168
0.458981 0.745012 0.411313
0.555905 0.745012 0.411313
0.652829 0.745012 0.411313
0.749752 0.745012 0.411313
0.854848 0.753393 0.422412
0.960886 0.763776 0.436040
0.090545 0.908106 0.363021
0.258410 0.843465 0.406168
0.373600 0.848704 0.423463
0.471657 0.850010 0.425281
0.567986 0.850010 0.425281
0.664315 0.850010 0.425281
0.760645 0.850010 0.425281
0.856974 0.850010 0.425281
0.960886 0.857786 0.436040
0.180395 0.927570 0.410347
0.276208 0.935738 0.422468
0.385598 0.945064 0.436094
0.483096 0.946285 0.437864
0.578913 0.946285 0.437864
0.674729 0.946285 0.437864
0.770546 0.946285 0.437864
0.866363 0.946285 0.437864
0.962180 0.946285 0.437864
0.055195 0.055489 0.575311
0.191423 0.056026 0.571316
0.348338 0.056026 0.571316
0.505252 0.056026 0.571316
0.616487 0.062682 0.535666
0.718017 0.070544 0.512133
0.817232 0.078451 0.498444
0.914552 0.086338 0.490425
0.948403 0.167002 0.510536
0.055195 0.210776 0.575311
0.187427 0.203325 0.538067
0.328468 0.202390 0.531743
0.469919 0.202390 0.531743
0.585283 0.200675 0.512133
0.691678 0.201544 0.498444
0.794339 0.204194 0.490425
0.849832 0.263640 0.510536
0.952031 0.281615 0.525539
0.055195 0.366062 0.575311
0.187427 0.344561 0.538067
0.320369 0.331484 0.513501
0.450570 0.329713 0.509885
0.566123 0.324637 0.498444
0.674126 0.322050 0.490425
0.751262 0.360278 0.510536
0.855626 0.376130 0.525539
0.961609 0.388679 0.538547
0.055885 0.517334 0.571100
0.187253 0.483499 0.535666
0.319814 0.460939 0.512133
0.440569 0.447729 0.498444
0.554663 0.440363 0.490889
0.653630 0.454426 0.507692
0.758399 0.469719 0.524535
0.864996 0.481747 0.537571
0.970345 0.493468 0.550271
0.064838 0.618268 0.531629
0.187080 0.591070 0.512133
0.315014 0.570822 0.498444
0.433700 0.557762 0.490425
0.552668 0.556417 0.489665
0.653630 0.552966 0.507692
0.758399 0.564277 0.524535
0.864996 0.575757 0.537571
0.970345 0.586967 0.550271
0.073575 0.716776 0.509819
0.189459 0.693915 0.498444
0.313486 0.675618 0.490425
0.455551 0.650190 0.510536
0.555905 0.649989 0.513938
0.652829 0.649989 0.513938
0.758399 0.658835 0.524535
0.864996 0.669767 0.537571
0.970345 0.680466 0.550271
0.082135 0.813287 0.497081
0.193273 0.793474 0.490425
0.356980 0.746828 0.510536
0.470005 0.754189 0.525539
0.567986 0.755570 0.527276
0.664315 0.755570 0.527276
0.760645 0.755570 0.527276
0.864996 0.763776 0.537571
0.970345 0.773965 0.550271
0.090545 0.908106 0.489643
0.258410 0.843465 0.510536
0.373600 0.848704 0.525539
0.482365 0.858527 0.538547
0.579750 0.859811 0.540239
0.675528 0.859811 0.540239
0.771307 0.859811 0.540239
0.867085 0.859811 0.540239
0.970345 0.867463 0.550271
0.180395 0.927570 0.513016
0.276208 0.935738 0.524588
0.385598 0.945064 0.537622
0.493549 0.954267 0.550322
0.590420 0.955473 0.551975
0.685720 0.955473 0.551975
0.781021 0.955473 0.551975
0.876321 0.955473 0.551975
0.971622 0.955473 0.551975
0.064165 0.063150 0.684543
0.187016 0.063713 0.681515
0.328468 0.063713 0.681515
0.469919 0.063713 0.681515
0.611370 0.063713 0.681515
0.718017 0.070544 0.652675
0.817232 0.078451 0.631384
0.914552 0.086338 0.617709
0.948403 0.167002 0.614905
0.064165 0.202686 0.684543
0.186984 0.200714 0.654733
0.318925 0.200650 0.649273
0.450570 0.200650 0.649273
0.582214 0.200650 0.649273
0.691678 0.201544 0.631384
0.794339 0.204194 0.617709
0.849832 0.263640 0.614905
0.952031 0.281615 0.627615
0.064165 0.342221 0.684543
0.186984 0.331484 0.654733
0.315243 0.324957 0.632688
0.439422 0.324127 0.629222
0.564185 0.324127 0.629222
0.674126 0.322050 0.617709
0.751262 0.360278 0.614905
0.855626 0.376130 0.627615
0.961609 0.388679 0.640034
0.064165 0.481757 0.684543
0.186984 0.462254 0.654733
0.315243 0.448510 0.632688
0.434091 0.440363 0.618554
0.552668 0.439157 0.616306
0.652691 0.456915 0.614905
0.759221 0.470645 0.627615
0.865761 0.482648 0.640034
0.971059 0.494348 0.652162
0.064838 0.618268 0.681350
0.187080 0.591070 0.652675
0.315014 0.570822 0.631384
0.433700 0.557762 0.617709
0.554121 0.553553 0.614905
0.661950 0.564277 0.626658
0.769107 0.575757 0.639101
0.874976 0.586967 0.651250
0.979686 0.597940 0.663141
0.073575 0.716776 0.649173
0.189459 0.693915 0.631384
0.313486 0.675618 0.617709
0.455551 0.650190 0.614905
0.566411 0.659675 0.627615
0.664315 0.661129 0.629272
0.769107 0.669767 0.639101
0.874976 0.680466 0.651250
0.979686 0.690961 0.663141
0.082135 0.813287 0.629158
0.193273 0.793474 0.617709
0.356980 0.746828 0.614905
0.470005 0.754189 0.627615
0.578214 0.764557 0.640034
0.675528 0.765911 0.641651
0.771307 0.765911 0.641651
0.874976 0.773965 0.651250
0.979686 0.783981 0.663141
0.090545 0.908106 0.616265
0.258410 0.843465 0.614905
0.373600 0.848704 0.627615
0.482365 0.858527 0.640034
0.589736 0.868193 0.652162
0.686503 0.869458 0.653744
0.781768 0.869458 0.653744
0.877032 0.869458 0.653744
0.979686 0.877001 0.663141
0.180395 0.927570 0.615686
0.276208 0.935738 0.626708
0.385598 0.945064 0.639150
0.493549 0.954267 0.651298
0.600209 0.963360 0.663188
0.696499 0.964552 0.664739
0.791315 0.964552 0.664739
0.886132 0.964552 0.664739
0.980948 0.964552 0.664739
0.072918 0.071018 0.791113
0.187281 0.071587 0.788661
0.318925 0.071587 0.788661
0.450570 0.071587 0.788661
0.582214 0.071587 0.788661
0.713858 0.071587 0.788661
0.817232 0.078451 0.764325
0.914552 0.086338 0.744993
0.948403 0.167002 0.719274
0.072918 0.200658 0.791113
0.189219 0.201404 0.766125
0.314659 0.201811 0.761324
0.439422 0.201811 0.761324
0.564185 0.201811 0.761324
0.688948 0.201811 0.761324
0.794339 0.204194 0.744993
0.849832 0.263640 0.719274
0.952031 0.281615 0.729691
0.072918 0.330297 0.791113
0.189219 0.324957 0.766125
0.313519 0.322155 0.746218
0.433062 0.321897 0.742947
0.552668 0.321897 0.742947
0.672273 0.321897 0.742947
0.751262 0.360278 0.719274
0.855626 0.376130 0.729691
0.961609 0.388679 0.741521
0.072918 0.459937 0.791113
0.189219 0.448510 0.766125
0.313519 0.440363 0.746218
0.452608 0.454426 0.720539
0.555905 0.459943 0.719189
0.652829 0.459943 0.719189
0.759221 0.470645 0.729691
0.865761 0.482648 0.741521
0.971059 0.494348 0.753101
0.072918 0.589577 0.791113
0.189219 0.572064 0.766125
0.313519 0.558571 0.746218
0.452608 0.552966 0.720539
0.565501 0.564277 0.728780
0.664315 0.566689 0.731268
0.769912 0.576618 0.741521
0.875728 0.587809 0.753101
0.980392 0.598766 0.764458
0.073575 0.716776 0.788527
0.189459 0.693915 0.764325
0.313486 0.675618 0.744993
0.455551 0.650190 0.719274
0.566411 0.659675 0.729691
0.674063 0.670587 0.741521
0.779607 0.680466 0.752229
0.884806 0.690961 0.763602
0.988922 0.701273 0.774777
0.082135 0.813287 0.761235
0.193273 0.793474 0.744993
0.356980 0.746828 0.719274
0.470005 0.754189 0.729691
0.578214 0.764557 0.741521
0.685067 0.774732 0.753101
0.781768 0.776061 0.754612
0.884806 0.783981 0.763602
0.988922 0.793843 0.774777
0.090545 0.908106 0.742887
0.258410 0.843465 0.719274
0.373600 0.848704 0.729691
0.482365 0.858527 0.741521
0.589736 0.868193 0.753101
0.695858 0.877720 0.764458
0.792050 0.878968 0.765942
0.886833 0.878968 0.765942
0.988922 0.886413 0.774777
0.180395 0.927570 0.718356
0.276208 0.935738 0.728828
0.385598 0.945064 0.740678
0.493549 0.954267 0.752275
0.600209 0.963360 0.763647
0.705701 0.972353 0.774821
0.801450 0.973533 0.776283
0.895810 0.973533 0.776283
0.990171 0.973533 0.776283
0.081490 0.078925 0.895496
0.189896 0.079494 0.893426
0.314659 0.079494 0.893426
0.439422 0.079494 0.893426
0.564185 0.079494 0.893426
0.688948 0.079494 0.893426
0.813711 0.079494 0.893426
0.914552 0.086338 0.872278
0.948403 0.167002 0.823642
0.081490 0.201662 0.895496
0.192948 0.203948 0.873882
0.313457 0.204636 0.869589
0.433062 0.204636 0.869589
0.552668 0.204636 0.869589
0.672273 0.204636 0.869589
0.791879 0.204636 0.869589
0.849832 0.263640 0.823642
0.952031 0.281615 0.831767
0.081490 0.324398 0.895496
0.192948 0.322155 0.873882
0.352098 0.355886 0.826962
0.458981 0.364919 0.821814
0.555905 0.364919 0.821814
0.652829 0.364919 0.821814
0.749752 0.364919 0.821814
0.855626 0.376130 0.831767
0.961609 0.388679 0.843009
0.081490 0.447134 0.895496
0.192948 0.440363 0.873882
0.352098 0.454426 0.826962
0.469052 0.469719 0.830903
0.567986 0.472248 0.833264
0.664315 0.472248 0.833264
0.760645 0.472248 0.833264
0.865761 0.482648 0.843009
0.971059 0.494348 0.854039
0.081490 0.569870 0.895496
0.192948 0.558571 0.873882
0.352098 0.552966 0.826962
0.469052 0.564277 0.830903
0.577327 0.575757 0.842162
0.675528 0.578110 0.844476
0.771307 0.578110 0.844476
0.875728 0.587809 0.854039
0.980392 0.598766 0.864882
0.081490 0.692607 0.895496
0.192948 0.676778 0.873882
0.352098 0.651506 0.826962
0.469052 0.658835 0.830903
0.577327 0.669767 0.842162
0.684238 0.680466 0.853207
0.781768 0.682665 0.855480
0.885547 0.691750 0.864882
0.989620 0.702050 0.875558
0.082135 0.813287 0.893312
0.193273 0.793474 0.872278
0.356980 0.746828 0.823642
0.470005 0.754189 0.831767
0.578214 0.764557 0.843009
0.685067 0.774732 0.854039
0.790702 0.784735 0.864882
0.894501 0.793843 0.874752
0.998062 0.803566 0.885289
0.090545 0.908106 0.869509
0.258410 0.843465 0.823642
0.373600 0.848704 0.831767
0.482365 0.858527 0.843009
0.589736 0.868193 0.854039
0.695858 0.877720 0.864882
0.800846 0.887123 0.875558
0.896502 0.888356 0.876956
0.998062 0.895710 0.885289
0.180395 0.927570 0.821025
0.276208 0.935738 0.830948
0.385598 0.945064 0.842207
0.493549 0.954267 0.853251
0.600209 0.963360 0.864107
0.705701 0.972353 0.874795
0.810128 0.981256 0.885330
0.905369 0.982424 0.886711
0.999298 0.982424 0.886711
0.089911 0.086810 0.998030
0.193851 0.087376 0.996230
0.313457 0.087376 0.996230
0.433062 0.087376 0.996230
0.552668 0.087376 0.996230
0.672273 0.087376 0.996230
0.791879 0.087376 0.996230
0.911485 0.087376 0.996230
0.948403 0.167002 0.928011
0.089911 0.204393 0.998030
0.251587 0.257346 0.933385
0.362058 0.269896 0.924439
0.458981 0.269896 0.924439
0.555905 0.269896 0.924439
0.652829 0.269896 0.924439
0.749752 0.269896 0.924439
0.846676 0.269896 0.924439
0.952031 0.281615 0.933843
0.089911 0.321976 0.998030
0.251587 0.355886 0.933385
0.372603 0.375161 0.933026
0.471657 0.377808 0.935260
0.567986 0.377808 0.935260
0.664315 0.377808 0.935260
0.760645 0.377808 0.935260
0.856974 0.377808 0.935260
0.961609 0.388679 0.944496
0.089911 0.439558 0.998030
0.251587 0.454426 0.933385
0.372603 0.469719 0.933026
0.481437 0.481747 0.943692
0.579750 0.484209 0.945889
0.675528 0.484209 0.945889
0.771307 0.484209 0.945889
0.867085 0.484209 0.945889
0.971059 0.494348 0.954977
0.089911 0.557141 0.998030
0.251587 0.552966 0.933385
0.372603 0.564277 0.933026
0.481437 0.575757 0.943692
0.588870 0.586967 0.954186
0.686503 0.589268 0.956349
0.781768 0.589268 0.956349
0.877032 0.589268 0.956349
0.980392 0.598766 0.965306
0.089911 0.674724 0.998030
0.251587 0.651506 0.933385
0.372603 0.658835 0.933026
0.481437 0.669767 0.943692
0.588870 0.680466 0.954186
0.695045 0.690961 0.964526
0.792050 0.693120 0.966659
0.886833 0.693120 0.966659
0.989620 0.702050 0.975498
0.089911 0.792307 0.998030
0.251587 0.750046 0.933385
0.372603 0.753393 0.933026
0.481437 0.763776 0.943692
0.588870 0.773965 0.954186
0.695045 0.783981 0.964526
0.800080 0.793843 0.974727
0.896502 0.795876 0.976833
0.998753 0.804300 0.985565
0.090545 0.908106 0.996131
0.258410 0.843465 0.928011
0.373600 0.848704 0.933843
0.482365 0.858527 0.944496
0.589736 0.868193 0.954977
0.695858 0.877720 0.965306
0.800846 0.887123 0.975498
0.904798 0.896413 0.985565
1.000000 0.904904 0.994767
0.180395 0.927570 0.923695
0.276208 0.935738 0.933069
0.385598 0.945064 0.943735
0.493549 0.954267 0.954228
0.600209 0.963360 0.964567
0.705701 0.972353 0.974768
0.810128 0.981256 0.984844
0.913577 0.990075 0.994806
1.000000 0.991233 0.996113
0.179948 0.173467 1.000000
0.265134 0.174873 1.000000
0.362058 0.174873 1.000000
0.458981 0.174873 1.000000
0.555905 0.174873 1.000000
0.652829 0.174873 1.000000
0.749752 0.174873 1.000000
0.846676 0.174873 1.000000
0.943600 0.174873 1.000000
0.179948 0.268630 1.000000
0.276154 0.280603 1.000000
0.375327 0.283367 1.000000
0.471657 0.283367 1.000000
0.567986 0.283367 1.000000
0.664315 0.283367 1.000000
0.760645 0.283367 1.000000
0.856974 0.283367 1.000000
0.953303 0.283367 1.000000
0.179948 0.363792 1.000000
0.276154 0.375161 1.000000
0.385547 0.387738 1.000000
0.483971 0.390309 1.000000
0.579750 0.390309 1.000000
0.675528 0.390309 1.000000
0.771307 0.390309 1.000000
0.867085 0.390309 1.000000
0.962864 0.390309 1.000000
0.179948 0.458954 1.000000
0.276154 0.469719 1.000000
0.385547 0.481747 1.000000
0.493501 0.493468 1.000000
0.591238 0.495871 1.000000
0.686503 0.495871 1.000000
0.781768 0.495871 1.000000
0.877032 0.495871 1.000000
0.972297 0.495871 1.000000
0.179948 0.554116 1.000000
0.276154 0.564277 1.000000
0.385547 0.575757 1.000000
0.493501 0.586967 1.000000
0.600164 0.597940 1.000000
0.697268 0.600196 1.000000
0.792050 0.600196 1.000000
0.886833 0.600196 1.000000
0.981616 0.600196 1.000000
0.179948 0.649278 1.000000
0.276154 0.658835 1.000000
0.385547 0.669767 1.000000
0.493501 0.680466 1.000000
0.600164 0.690961 1.000000
0.705659 0.701273 1.000000
0.802174 0.703397 1.000000
0.896502 0.703397 1.000000
0.990831 0.703397 1.000000
0.179948 0.744440 1.000000
0.276154 0.753393 1.000000
0.385547 0.763776 1.000000
0.493501 0.773965 1.000000
0.600164 0.783981 1.000000
0.705659 0.793843 1.000000
0.810089 0.803566 1.000000
0.906053 0.805573 1.000000
0.999952 0.805573 1.000000
0.179948 0.839602 1.000000
0.276154 0.847951 1.000000
0.385547 0.857786 1.000000
0.493501 0.867463 1.000000
0.600164 0.877001 1.000000
0.705659 0.886413 1.000000
0.810089 0.895710 1.000000
0.913539 0.904904 1.000000
1.000000 0.906805 1.000000
0.180395 0.927570 1.000000
0.276208 0.935738 1.000000
0.385598 0.945064 1.000000
0.493549 0.954267 1.000000
0.600209 0.963360 1.000000
0.705701 0.972353 1.000000
0.810128 0.981256 1.000000
0.913577 0.990075 1.000000
1.000000 0.998817 1.000000
