assets/luts/dream.cube
TITLE "dream"
LUT_3D_SIZE 5
0.026922 0.190790 0.042918
0.409051 0.047817 0.061741
0.619440 0.062121 0.081112
0.819228 0.077882 0.099507
0.954799 0.159238 0.189322
0.046661 0.413331 0.063817
0.392955 0.413331 0.063817
0.619440 0.344489 0.081112
0.819228 0.324940 0.099507
0.954799 0.356116 0.189322
0.064838 0.618268 0.083063
0.328414 0.618268 0.083063
0.611221 0.618268 0.083063
0.819228 0.571997 0.099507
0.954799 0.552993 0.189322
0.082135 0.813287 0.101378
0.314649 0.813287 0.101378
0.564128 0.813287 0.101378
0.813607 0.813287 0.101378
0.954799 0.749871 0.189322
0.180395 0.927570 0.205418
0.361139 0.927570 0.205418
0.555071 0.927570 0.205418
0.749002 0.927570 0.205418
0.942934 0.927570 0.205418
0.045946 0.048589 0.462698
0.393232 0.049031 0.456764
0.616487 0.062682 0.384171
0.817232 0.078451 0.365504
0.948403 0.167002 0.406168
0.046661 0.413331 0.456448
0.330331 0.343227 0.384171
0.567292 0.324957 0.365812
0.754141 0.355886 0.401269
0.960886 0.387738 0.436040
0.064838 0.618268 0.381907
0.315014 0.570822 0.365504
0.564185 0.568761 0.365018
0.754141 0.552966 0.401269
0.960886 0.575757 0.436040
0.082135 0.813287 0.365004
0.356980 0.746828 0.406168
0.555905 0.745012 0.411313
0.749752 0.745012 0.411313
0.960886 0.763776 0.436040
0.180395 0.927570 0.410347
0.385598 0.945064 0.436094
0.578913 0.946285 0.437864
0.770546 0.946285 0.437864
0.962180 0.946285 0.437864
0.064165 0.063150 0.684543
0.328468 0.063713 0.681515
0.611370 0.063713 0.681515
0.817232 0.078451 0.631384
0.948403 0.167002 0.614905
0.064165 0.342221 0.684543
0.315243 0.324957 0.632688
0.564185 0.324127 0.629222
0.751262 0.360278 0.614905
0.961609 0.388679 0.640034
0.064838 0.618268 0.681350
0.315014 0.570822 0.631384
0.554121 0.553553 0.614905
0.769107 0.575757 0.639101
0.979686 0.597940 0.663141
0.082135 0.813287 0.629158
0.356980 0.746828 0.614905
0.578214 0.764557 0.640034
0.771307 0.765911 0.641651
0.979686 0.783981 0.663141
0.180395 0.927570 0.615686
0.385598 0.945064 0.639150
0.600209 0.963360 0.663188
0.791315 0.964552 0.664739
0.980948 0.964552 0.664739
0.081490 0.078925 0.895496
0.314659 0.079494 0.893426
0.564185 0.079494 0.893426
0.813711 0.079494 0.893426
0.948403 0.167002 0.823642
0.081490 0.324398 0.895496
0.352098 0.355886 0.826962
0.555905 0.364919 0.821814
0.749752 0.364919 0.821814
0.961609 0.388679 0.843009
0.081490 0.569870 0.895496
0.352098 0.552966 0.826962
0.577327 0.575757 0.842162
0.771307 0.578110 0.844476
0.980392 0.598766 0.864882
0.082135 0.813287 0.893312
0.356980 0.746828 0.823642
0.578214 0.764557 0.843009
0.790702 0.784735 0.864882
0.998062 0.803566 0.885289
0.180395 0.927570 0.821025
0.385598 0.945064 0.842207
0.600209 0.963360 0.864107
0.810128 0.981256 0.885330
0.999298 0.982424 0.886711
0.179948 0.173467 1.000000
0.362058 0.174873 1.000000
0.555905 0.174873 1.000000
0.749752 0.174873 1.000000
0.943600 0.174873 1.000000
0.179948 0.363792 1.000000
0.385547 0.387738 1.000000
0.579750 0.390309 1.000000
0.771307 0.390309 1.000000
0.962864 0.390309 1.000000
0.179948 0.554116 1.000000
0.385547 0.575757 1.000000
0.600164 0.597940 1.000000
0.792050 0.600196 1.000000
0.981616 0.600196 1.000000
0.179948 0.744440 1.000000
0.385547 0.763776 1.000000
0.600164 0.783981 1.000000
0.810089 0.803566 1.000000
0.999952 0.805573 1.000000
0.180395 0.927570 1.000000
0.385598 0.945064 1.000000
0.600209 0.963360 1.000000
0.810128 0.981256 1.000000
1.000000 0.998817 1.000000
