assets/luts/dream.cube
TITLE "dream"
LUT_3D_SIZE 33
0.026922 0.190790 0.042918
0.209687 0.129917 0.043386
0.239556 0.060215 0.046136
0.268851 0.049238 0.048833
0.297656 0.045981 0.051485
0.326033 0.045226 0.054098
0.354033 0.045585 0.056676
0.381695 0.046530 0.059223
0.409051 0.047817 0.061741
0.436128 0.049320 0.064234
0.462950 0.050963 0.066704
0.489535 0.052704 0.069152
0.515901 0.054513 0.071579
0.542062 0.056371 0.073988
0.568031 0.058264 0.076379
0.593821 0.060183 0.078753
0.619440 0.062121 0.081112
0.644899 0.064072 0.083456
0.670206 0.066034 0.085786
0.695368 0.068002 0.088103
0.720392 0.069975 0.090407
0.745285 0.071951 0.092699
0.770051 0.073928 0.094979
0.794698 0.075905 0.097248
0.819228 0.077882 0.099507
0.843648 0.079858 0.101755
0.867961 0.081831 0.103994
0.892171 0.083803 0.106223
0.916281 0.085771 0.108443
0.940296 0.087737 0.110654
0.949913 0.105124 0.129828
0.952362 0.132223 0.159639
0.954799 0.159238 0.189322
0.029529 0.220177 0.045678
0.102125 0.220177 0.045678
0.239556 0.201345 0.046136
0.268851 0.143582 0.048833
0.297656 0.120487 0.051485
0.326033 0.108712 0.054098
0.354033 0.102029 0.056676
0.381695 0.098066 0.059223
0.409051 0.095726 0.061741
0.436128 0.094429 0.064234
0.462950 0.093841 0.066704
0.489535 0.093757 0.069152
0.515901 0.094043 0.071579
0.542062 0.094607 0.073988
0.568031 0.095386 0.076379
0.593821 0.096334 0.078753
0.619440 0.097417 0.081112
0.644899 0.098608 0.083456
0.670206 0.099889 0.085786
0.695368 0.101243 0.088103
0.720392 0.102659 0.090407
0.745285 0.104126 0.092699
0.770051 0.105637 0.094979
0.794698 0.107185 0.097248
0.819228 0.108764 0.099507
0.843648 0.110371 0.101755
0.867961 0.112001 0.103994
0.892171 0.113651 0.106223
0.916281 0.115319 0.108443
0.940296 0.117002 0.110654
0.949913 0.133112 0.129828
0.952362 0.158465 0.159639
0.954799 0.183847 0.189322
0.032084 0.248986 0.048383
0.078298 0.248986 0.048383
0.179645 0.248986 0.048383
0.268851 0.237926 0.048833
0.297656 0.194993 0.051485
0.326033 0.172199 0.054098
0.354033 0.158473 0.056676
0.381695 0.149603 0.059223
0.409051 0.143635 0.061741
0.436128 0.139538 0.064234
0.462950 0.136719 0.066704
0.489535 0.134811 0.069152
0.515901 0.133573 0.071579
0.542062 0.132843 0.073988
0.568031 0.132509 0.076379
0.593821 0.132485 0.078753
0.619440 0.132713 0.081112
0.644899 0.133144 0.083456
0.670206 0.133744 0.085786
0.695368 0.134485 0.088103
0.720392 0.135343 0.090407
0.745285 0.136302 0.092699
0.770051 0.137346 0.094979
0.794698 0.138464 0.097248
0.819228 0.139646 0.099507
0.843648 0.140884 0.101755
0.867961 0.142170 0.103994
0.892171 0.143499 0.106223
0.916281 0.144866 0.108443
0.940296 0.146266 0.110654
0.949913 0.161100 0.129828
0.952362 0.184707 0.159639
0.954799 0.208457 0.189322
0.034595 0.277302 0.051042
0.070412 0.277302 0.051042
0.148955 0.277302 0.051042
0.227499 0.277302 0.051042
0.297656 0.269498 0.051485
0.326033 0.235685 0.054098
0.354033 0.214917 0.056676
0.381695 0.201139 0.059223
0.409051 0.191543 0.061741
0.436128 0.184648 0.064234
0.462950 0.179597 0.066704
0.489535 0.175864 0.069152
0.515901 0.173102 0.071579
0.542062 0.171080 0.073988
0.568031 0.169631 0.076379
0.593821 0.168637 0.078753
0.619440 0.168009 0.081112
0.644899 0.167680 0.083456
0.670206 0.167600 0.085786
0.695368 0.167726 0.088103
0.720392 0.168027 0.090407
0.745285 0.168477 0.092699
0.770051 0.169055 0.094979
0.794698 0.169744 0.097248
0.819228 0.170529 0.099507
0.843648 0.171397 0.101755
0.867961 0.172340 0.103994
0.892171 0.173348 0.106223
0.916281 0.174413 0.108443
0.940296 0.175530 0.110654
0.949913 0.189089 0.129828
0.952362 0.210949 0.159639
0.954799 0.233067 0.189322
0.037069 0.305190 0.053661
0.067294 0.305190 0.053661
0.133578 0.305190 0.053661
0.199862 0.305190 0.053661
0.266145 0.305190 0.053661
0.326033 0.299171 0.054098
0.354033 0.271361 0.056676
0.381695 0.252676 0.059223
0.409051 0.239452 0.061741
0.436128 0.229757 0.064234
0.462950 0.222475 0.066704
0.489535 0.216917 0.069152
0.515901 0.212632 0.071579
0.542062 0.209316 0.073988
0.568031 0.206753 0.076379
0.593821 0.204788 0.078753
0.619440 0.203305 0.081112
0.644899 0.202216 0.083456
0.670206 0.201455 0.085786
0.695368 0.200967 0.088103
0.720392 0.200711 0.090407
0.745285 0.200653 0.092699
0.770051 0.200765 0.094979
0.794698 0.201024 0.097248
0.819228 0.201411 0.099507
0.843648 0.201911 0.101755
0.867961 0.202509 0.103994
0.892171 0.203196 0.106223
0.916281 0.203960 0.108443
0.940296 0.204795 0.110654
0.949913 0.217077 0.129828
0.952362 0.237190 0.159639
0.954799 0.257677 0.189322
0.039509 0.332700 0.056245
0.066228 0.332700 0.056245
0.124822 0.332700 0.056245
0.183416 0.332700 0.056245
0.242010 0.332700 0.056245
0.300604 0.332700 0.056245
0.354033 0.327805 0.056676
0.381695 0.304212 0.059223
0.409051 0.287361 0.061741
0.436128 0.274866 0.064234
0.462950 0.265353 0.066704
0.489535 0.257970 0.069152
0.515901 0.252162 0.071579
0.542062 0.247552 0.073988
0.568031 0.243875 0.076379
0.593821 0.240939 0.078753
0.619440 0.238601 0.081112
0.644899 0.236752 0.083456
0.670206 0.235310 0.085786
0.695368 0.234208 0.088103
0.720392 0.233395 0.090407
0.745285 0.232828 0.092699
0.770051 0.232474 0.094979
0.794698 0.232303 0.097248
0.819228 0.232293 0.099507
0.843648 0.232424 0.101755
0.867961 0.232679 0.103994
0.892171 0.233044 0.106223
0.916281 0.233508 0.108443
0.940296 0.234059 0.110654
0.949913 0.245065 0.129828
0.952362 0.263432 0.159639
0.954799 0.282286 0.189322
0.041919 0.359873 0.058797
0.066224 0.359873 0.058797
0.119524 0.359873 0.058797
0.172824 0.359873 0.058797
0.226124 0.359873 0.058797
0.279424 0.359873 0.058797
0.332724 0.359873 0.058797
0.381695 0.355749 0.059223
0.409051 0.335269 0.061741
0.436128 0.319976 0.064234
0.462950 0.308231 0.066704
0.489535 0.299023 0.069152
0.515901 0.291692 0.071579
0.542062 0.285788 0.073988
0.568031 0.280997 0.076379
0.593821 0.277090 0.078753
0.619440 0.273897 0.081112
0.644899 0.271288 0.083456
0.670206 0.269165 0.085786
0.695368 0.267450 0.088103
0.720392 0.266079 0.090407
0.745285 0.265004 0.092699
0.770051 0.264183 0.094979
0.794698 0.263583 0.097248
0.819228 0.263175 0.099507
0.843648 0.262937 0.101755
0.867961 0.262848 0.103994
0.892171 0.262892 0.106223
0.916281 0.263055 0.108443
0.940296 0.263323 0.110654
0.949913 0.273053 0.129828
0.952362 0.289674 0.159639
0.954799 0.306896 0.189322
0.044302 0.386741 0.061320
0.066838 0.386741 0.061320
0.116258 0.386741 0.061320
0.165678 0.386741 0.061320
0.215098 0.386741 0.061320
0.264518 0.386741 0.061320
0.313938 0.386741 0.061320
0.363358 0.386741 0.061320
0.409051 0.383178 0.061741
0.436128 0.365085 0.064234
0.462950 0.351109 0.066704
0.489535 0.340076 0.069152
0.515901 0.331221 0.071579
0.542062 0.324024 0.073988
0.568031 0.318120 0.076379
0.593821 0.313241 0.078753
0.619440 0.309193 0.081112
0.644899 0.305824 0.083456
0.670206 0.303021 0.085786
0.695368 0.300691 0.088103
0.720392 0.298763 0.090407
0.745285 0.297180 0.092699
0.770051 0.295892 0.094979
0.794698 0.294862 0.097248
0.819228 0.294057 0.099507
0.843648 0.293450 0.101755
0.867961 0.293018 0.103994
0.892171 0.292741 0.106223
0.916281 0.292602 0.108443
0.940296 0.292588 0.110654
0.949913 0.301041 0.129828
0.952362 0.315915 0.159639
0.954799 0.331506 0.189322
0.046661 0.413331 0.063817
0.067840 0.413331 0.063817
0.114285 0.413331 0.063817
0.160730 0.413331 0.063817
0.207175 0.413331 0.063817
0.253620 0.413331 0.063817
0.300065 0.413331 0.063817
0.346510 0.413331 0.063817
0.392955 0.413331 0.063817
0.436128 0.410194 0.064234
0.462950 0.393987 0.066704
0.489535 0.381129 0.069152
0.515901 0.370751 0.071579
0.542062 0.362261 0.073988
0.568031 0.355242 0.076379
0.593821 0.349393 0.078753
0.619440 0.344489 0.081112
0.644899 0.340360 0.083456
0.670206 0.336876 0.085786
0.695368 0.333932 0.088103
0.720392 0.331447 0.090407
0.745285 0.329355 0.092699
0.770051 0.327601 0.094979
0.794698 0.326142 0.097248
0.819228 0.324940 0.099507
0.843648 0.323964 0.101755
0.867961 0.323187 0.103994
0.892171 0.322589 0.106223
0.916281 0.322149 0.108443
0.940296 0.321852 0.110654
0.949913 0.329030 0.129828
0.952362 0.342157 0.159639
0.954799 0.356116 0.189322
0.048997 0.439667 0.066291
0.069099 0.439667 0.066291
0.113185 0.439667 0.066291
0.157270 0.439667 0.066291
0.201355 0.439667 0.066291
0.245441 0.439667 0.066291
0.289526 0.439667 0.066291
0.333611 0.439667 0.066291
0.377696 0.439667 0.066291
0.421782 0.439667 0.066291
0.462950 0.436865 0.066704
0.489535 0.422182 0.069152
0.515901 0.410281 0.071579
0.542062 0.400497 0.073988
0.568031 0.392364 0.076379
0.593821 0.385544 0.078753
0.619440 0.379785 0.081112
0.644899 0.374896 0.083456
0.670206 0.370731 0.085786
0.695368 0.367173 0.088103
0.720392 0.364131 0.090407
0.745285 0.361531 0.092699
0.770051 0.359311 0.094979
0.794698 0.357422 0.097248
0.819228 0.355822 0.099507
0.843648 0.354477 0.101755
0.867961 0.353357 0.103994
0.892171 0.352437 0.106223
0.916281 0.351697 0.108443
0.940296 0.351116 0.110654
0.949913 0.357018 0.129828
0.952362 0.368399 0.159639
0.954799 0.380725 0.189322
0.051312 0.465769 0.068742
0.070538 0.465769 0.068742
0.112701 0.465769 0.068742
0.154864 0.465769 0.068742
0.197027 0.465769 0.068742
0.239190 0.465769 0.068742
0.281353 0.465769 0.068742
0.323516 0.465769 0.068742
0.365679 0.465769 0.068742
0.407842 0.465769 0.068742
0.450005 0.465769 0.068742
0.489535 0.463235 0.069152
0.515901 0.449810 0.071579
0.542062 0.438733 0.073988
0.568031 0.429486 0.076379
0.593821 0.421695 0.078753
0.619440 0.415081 0.081112
0.644899 0.409432 0.083456
0.670206 0.404586 0.085786
0.695368 0.400415 0.088103
0.720392 0.396815 0.090407
0.745285 0.393706 0.092699
0.770051 0.391020 0.094979
0.794698 0.388701 0.097248
0.819228 0.386704 0.099507
0.843648 0.384990 0.101755
0.867961 0.383527 0.103994
0.892171 0.382286 0.106223
0.916281 0.381244 0.108443
0.940296 0.380381 0.110654
0.949913 0.385006 0.129828
0.952362 0.394641 0.159639
0.954799 0.405335 0.189322
0.053607 0.491653 0.071173
0.072104 0.491653 0.071173
0.112668 0.491653 0.071173
0.153231 0.491653 0.071173
0.193794 0.491653 0.071173
0.234357 0.491653 0.071173
0.274921 0.491653 0.071173
0.315484 0.491653 0.071173
0.356047 0.491653 0.071173
0.396611 0.491653 0.071173
0.437174 0.491653 0.071173
0.477737 0.491653 0.071173
0.515901 0.489340 0.071579
0.542062 0.476969 0.073988
0.568031 0.466608 0.076379
0.593821 0.457846 0.078753
0.619440 0.450377 0.081112
0.644899 0.443968 0.083456
0.670206 0.438442 0.085786
0.695368 0.433656 0.088103
0.720392 0.429499 0.090407
0.745285 0.425882 0.092699
0.770051 0.422729 0.094979
0.794698 0.419981 0.097248
0.819228 0.417586 0.099507
0.843648 0.415503 0.101755
0.867961 0.413696 0.103994
0.892171 0.412134 0.106223
0.916281 0.410791 0.108443
0.940296 0.409645 0.110654
0.949913 0.412994 0.129828
0.952362 0.420882 0.159639
0.954799 0.429945 0.189322
0.055885 0.517334 0.073584
0.073764 0.517334 0.073584
0.112973 0.517334 0.073584
0.152182 0.517334 0.073584
0.191390 0.517334 0.073584
0.230599 0.517334 0.073584
0.269807 0.517334 0.073584
0.309016 0.517334 0.073584
0.348224 0.517334 0.073584
0.387433 0.517334 0.073584
0.426642 0.517334 0.073584
0.465850 0.517334 0.073584
0.505059 0.517334 0.073584
0.542062 0.515205 0.073988
0.568031 0.503731 0.076379
0.593821 0.493997 0.078753
0.619440 0.485673 0.081112
0.644899 0.478504 0.083456
0.670206 0.472297 0.085786
0.695368 0.466897 0.088103
0.720392 0.462183 0.090407
0.745285 0.458057 0.092699
0.770051 0.454438 0.094979
0.794698 0.451260 0.097248
0.819228 0.448469 0.099507
0.843648 0.446017 0.101755
0.867961 0.443866 0.103994
0.892171 0.441982 0.106223
0.916281 0.440338 0.108443
0.940296 0.438909 0.110654
0.949913 0.440982 0.129828
0.952362 0.447124 0.159639
0.954799 0.454555 0.189322
0.058146 0.542825 0.075978
0.075494 0.542825 0.075978
0.113539 0.542825 0.075978
0.151583 0.542825 0.075978
0.189628 0.542825 0.075978
0.227672 0.542825 0.075978
0.265717 0.542825 0.075978
0.303761 0.542825 0.075978
0.341806 0.542825 0.075978
0.379850 0.542825 0.075978
0.417895 0.542825 0.075978
0.455939 0.542825 0.075978
0.493984 0.542825 0.075978
0.532028 0.542825 0.075978
0.568031 0.540853 0.076379
0.593821 0.530149 0.078753
0.619440 0.520969 0.081112
0.644899 0.513040 0.083456
0.670206 0.506152 0.085786
0.695368 0.500138 0.088103
0.720392 0.494868 0.090407
0.745285 0.490233 0.092699
0.770051 0.486148 0.094979
0.794698 0.482540 0.097248
0.819228 0.479351 0.099507
0.843648 0.476530 0.101755
0.867961 0.474035 0.103994
0.892171 0.471831 0.106223
0.916281 0.469886 0.108443
0.940296 0.468173 0.110654
0.949913 0.468971 0.129828
0.952362 0.473366 0.159639
0.954799 0.479164 0.189322
0.060391 0.568137 0.078356
0.077278 0.568137 0.078356
0.114309 0.568137 0.078356
0.151341 0.568137 0.078356
0.188373 0.568137 0.078356
0.225405 0.568137 0.078356
0.262436 0.568137 0.078356
0.299468 0.568137 0.078356
0.336500 0.568137 0.078356
0.373531 0.568137 0.078356
0.410563 0.568137 0.078356
0.447595 0.568137 0.078356
0.484626 0.568137 0.078356
0.521658 0.568137 0.078356
0.558690 0.568137 0.078356
0.593821 0.566300 0.078753
0.619440 0.556265 0.081112
0.644899 0.547576 0.083456
0.670206 0.540007 0.085786
0.695368 0.533380 0.088103
0.720392 0.527552 0.090407
0.745285 0.522408 0.092699
0.770051 0.517857 0.094979
0.794698 0.513820 0.097248
0.819228 0.510233 0.099507
0.843648 0.507043 0.101755
0.867961 0.504205 0.103994
0.892171 0.501679 0.106223
0.916281 0.499433 0.108443
0.940296 0.497438 0.110654
0.949913 0.496959 0.129828
0.952362 0.499608 0.159639
0.954799 0.503774 0.189322
0.062622 0.593282 0.080717
0.079102 0.593282 0.080717
0.115243 0.593282 0.080717
0.151384 0.593282 0.080717
0.187525 0.593282 0.080717
0.223667 0.593282 0.080717
0.259808 0.593282 0.080717
0.295949 0.593282 0.080717
0.332090 0.593282 0.080717
0.368231 0.593282 0.080717
0.404372 0.593282 0.080717
0.440513 0.593282 0.080717
0.476655 0.593282 0.080717
0.512796 0.593282 0.080717
0.548937 0.593282 0.080717
0.585078 0.593282 0.080717
0.619440 0.591561 0.081112
0.644899 0.582112 0.083456
0.670206 0.573862 0.085786
0.695368 0.566621 0.088103
0.720392 0.560236 0.090407
0.745285 0.554584 0.092699
0.770051 0.549566 0.094979
0.794698 0.545099 0.097248
0.819228 0.541115 0.099507
0.843648 0.537556 0.101755
0.867961 0.534374 0.103994
0.892171 0.531527 0.106223
0.916281 0.528980 0.108443
0.940296 0.526702 0.110654
0.949913 0.524947 0.129828
0.952362 0.525849 0.159639
0.954799 0.528384 0.189322
0.064838 0.618268 0.083063
0.080958 0.618268 0.083063
0.116309 0.618268 0.083063
0.151659 0.618268 0.083063
0.187010 0.618268 0.083063
0.222361 0.618268 0.083063
0.257712 0.618268 0.083063
0.293063 0.618268 0.083063
0.328414 0.618268 0.083063
0.363765 0.618268 0.083063
0.399116 0.618268 0.083063
0.434467 0.618268 0.083063
0.469817 0.618268 0.083063
0.505168 0.618268 0.083063
0.540519 0.618268 0.083063
0.575870 0.618268 0.083063
0.611221 0.618268 0.083063
0.644899 0.616648 0.083456
0.670206 0.607718 0.085786
0.695368 0.599862 0.088103
0.720392 0.592920 0.090407
0.745285 0.586760 0.092699
0.770051 0.581275 0.094979
0.794698 0.576379 0.097248
0.819228 0.571997 0.099507
0.843648 0.568070 0.101755
0.867961 0.564544 0.103994
0.892171 0.561376 0.106223
0.916281 0.558527 0.108443
0.940296 0.555966 0.110654
0.949913 0.552935 0.129828
0.952362 0.552091 0.159639
0.954799 0.552993 0.189322
0.067040 0.643103 0.085396
0.082838 0.643103 0.085396
0.117482 0.643103 0.085396
0.152126 0.643103 0.085396
0.186770 0.643103 0.085396
0.221414 0.643103 0.085396
0.256058 0.643103 0.085396
0.290702 0.643103 0.085396
0.325346 0.643103 0.085396
0.359989 0.643103 0.085396
0.394633 0.643103 0.085396
0.429277 0.643103 0.085396
0.463921 0.643103 0.085396
0.498565 0.643103 0.085396
0.533209 0.643103 0.085396
0.567853 0.643103 0.085396
0.602497 0.643103 0.085396
0.637141 0.643103 0.085396
0.670206 0.641573 0.085786
0.695368 0.633103 0.088103
0.720392 0.625604 0.090407
0.745285 0.618935 0.092699
0.770051 0.612984 0.094979
0.794698 0.607658 0.097248
0.819228 0.602880 0.099507
0.843648 0.598583 0.101755
0.867961 0.594713 0.103994
0.892171 0.591224 0.106223
0.916281 0.588075 0.108443
0.940296 0.585231 0.110654
0.949913 0.580923 0.129828
0.952362 0.578333 0.159639
0.954799 0.577603 0.189322
0.069230 0.667795 0.087715
0.084738 0.667795 0.087715
0.118745 0.667795 0.087715
0.152752 0.667795 0.087715
0.186759 0.667795 0.087715
0.220766 0.667795 0.087715
0.254773 0.667795 0.087715
0.288780 0.667795 0.087715
0.322787 0.667795 0.087715
0.356794 0.667795 0.087715
0.390801 0.667795 0.087715
0.424808 0.667795 0.087715
0.458815 0.667795 0.087715
0.492822 0.667795 0.087715
0.526829 0.667795 0.087715
0.560836 0.667795 0.087715
0.594843 0.667795 0.087715
0.628850 0.667795 0.087715
0.662857 0.667795 0.087715
0.695368 0.666345 0.088103
0.720392 0.658288 0.090407
0.745285 0.651111 0.092699
0.770051 0.644694 0.094979
0.794698 0.638938 0.097248
0.819228 0.633762 0.099507
0.843648 0.629096 0.101755
0.867961 0.624883 0.103994
0.892171 0.621072 0.106223
0.916281 0.617622 0.108443
0.940296 0.614495 0.110654
0.949913 0.608912 0.129828
0.952362 0.604575 0.159639
0.954799 0.602213 0.189322
0.071408 0.692350 0.090021
0.086652 0.692350 0.090021
0.120082 0.692350 0.090021
0.153511 0.692350 0.090021
0.186941 0.692350 0.090021
0.220370 0.692350 0.090021
0.253800 0.692350 0.090021
0.287230 0.692350 0.090021
0.320659 0.692350 0.090021
0.354089 0.692350 0.090021
0.387518 0.692350 0.090021
0.420948 0.692350 0.090021
0.454377 0.692350 0.090021
0.487807 0.692350 0.090021
0.521236 0.692350 0.090021
0.554666 0.692350 0.090021
0.588095 0.692350 0.090021
0.621525 0.692350 0.090021
0.654954 0.692350 0.090021
0.688384 0.692350 0.090021
0.720392 0.690972 0.090407
0.745285 0.683286 0.092699
0.770051 0.676403 0.094979
0.794698 0.670218 0.097248
0.819228 0.664644 0.099507
0.843648 0.659609 0.101755
0.867961 0.655052 0.103994
0.892171 0.650920 0.106223
0.916281 0.647169 0.108443
0.940296 0.643759 0.110654
0.949913 0.636900 0.129828
0.952362 0.630816 0.159639
0.954799 0.626823 0.189322
0.073575 0.716776 0.092315
0.088579 0.716776 0.092315
0.121482 0.716776 0.092315
0.154385 0.716776 0.092315
0.187288 0.716776 0.092315
0.220191 0.716776 0.092315
0.253094 0.716776 0.092315
0.285997 0.716776 0.092315
0.318900 0.716776 0.092315
0.351803 0.716776 0.092315
0.384706 0.716776 0.092315
0.417609 0.716776 0.092315
0.450512 0.716776 0.092315
0.483415 0.716776 0.092315
0.516318 0.716776 0.092315
0.549221 0.716776 0.092315
0.582124 0.716776 0.092315
0.615027 0.716776 0.092315
0.647930 0.716776 0.092315
0.680833 0.716776 0.092315
0.713736 0.716776 0.092315
0.745285 0.715462 0.092699
0.770051 0.708112 0.094979
0.794698 0.701497 0.097248
0.819228 0.695526 0.099507
0.843648 0.690123 0.101755
0.867961 0.685222 0.103994
0.892171 0.680769 0.106223
0.916281 0.676716 0.108443
0.940296 0.673024 0.110654
0.949913 0.664888 0.129828
0.952362 0.657058 0.159639
0.954799 0.651432 0.189322
0.075730 0.741078 0.094597
0.090514 0.741078 0.094597
0.122935 0.741078 0.094597
0.155355 0.741078 0.094597
0.187776 0.741078 0.094597
0.220196 0.741078 0.094597
0.252617 0.741078 0.094597
0.285037 0.741078 0.094597
0.317458 0.741078 0.094597
0.349879 0.741078 0.094597
0.382299 0.741078 0.094597
0.414720 0.741078 0.094597
0.447140 0.741078 0.094597
0.479561 0.741078 0.094597
0.511981 0.741078 0.094597
0.544402 0.741078 0.094597
0.576822 0.741078 0.094597
0.609243 0.741078 0.094597
0.641664 0.741078 0.094597
0.674084 0.741078 0.094597
0.706505 0.741078 0.094597
0.738925 0.741078 0.094597
0.770051 0.739821 0.094979
0.794698 0.732777 0.097248
0.819228 0.726408 0.099507
0.843648 0.720636 0.101755
0.867961 0.715391 0.103994
0.892171 0.710617 0.106223
0.916281 0.706264 0.108443
0.940296 0.702288 0.110654
0.949913 0.692876 0.129828
0.952362 0.683300 0.159639
0.954799 0.676042 0.189322
0.077875 0.765260 0.096868
0.092456 0.765260 0.096868
0.124433 0.765260 0.096868
0.156409 0.765260 0.096868
0.188386 0.765260 0.096868
0.220362 0.765260 0.096868
0.252338 0.765260 0.096868
0.284315 0.765260 0.096868
0.316291 0.765260 0.096868
0.348268 0.765260 0.096868
0.380244 0.765260 0.096868
0.412220 0.765260 0.096868
0.444197 0.765260 0.096868
0.476173 0.765260 0.096868
0.508150 0.765260 0.096868
0.540126 0.765260 0.096868
0.572102 0.765260 0.096868
0.604079 0.765260 0.096868
0.636055 0.765260 0.096868
0.668032 0.765260 0.096868
0.700008 0.765260 0.096868
0.731984 0.765260 0.096868
0.763961 0.765260 0.096868
0.794698 0.764056 0.097248
0.819228 0.757291 0.099507
0.843648 0.751149 0.101755
0.867961 0.745561 0.103994
0.892171 0.740465 0.106223
0.916281 0.735811 0.108443
0.940296 0.731552 0.110654
0.949913 0.720864 0.129828
0.952362 0.709541 0.159639
0.954799 0.700652 0.189322
0.080010 0.789328 0.099128
0.094404 0.789328 0.099128
0.125970 0.789328 0.099128
0.157536 0.789328 0.099128
0.189102 0.789328 0.099128
0.220667 0.789328 0.099128
0.252233 0.789328 0.099128
0.283799 0.789328 0.099128
0.315365 0.789328 0.099128
0.346931 0.789328 0.099128
0.378496 0.789328 0.099128
0.410062 0.789328 0.099128
0.441628 0.789328 0.099128
0.473194 0.789328 0.099128
0.504760 0.789328 0.099128
0.536326 0.789328 0.099128
0.567891 0.789328 0.099128
0.599457 0.789328 0.099128
0.631023 0.789328 0.099128
0.662589 0.789328 0.099128
0.694155 0.789328 0.099128
0.725721 0.789328 0.099128
0.757286 0.789328 0.099128
0.788852 0.789328 0.099128
0.819228 0.788173 0.099507
0.843648 0.781662 0.101755
0.867961 0.775730 0.103994
0.892171 0.770314 0.106223
0.916281 0.765358 0.108443
0.940296 0.760817 0.110654
0.949913 0.748853 0.129828
0.952362 0.735783 0.159639
0.954799 0.725262 0.189322
0.082135 0.813287 0.101378
0.096355 0.813287 0.101378
0.127540 0.813287 0.101378
0.158725 0.813287 0.101378
0.189910 0.813287 0.101378
0.221095 0.813287 0.101378
0.252280 0.813287 0.101378
0.283465 0.813287 0.101378
0.314649 0.813287 0.101378
0.345834 0.813287 0.101378
0.377019 0.813287 0.101378
0.408204 0.813287 0.101378
0.439389 0.813287 0.101378
0.470574 0.813287 0.101378
0.501759 0.813287 0.101378
0.532943 0.813287 0.101378
0.564128 0.813287 0.101378
0.595313 0.813287 0.101378
0.626498 0.813287 0.101378
0.657683 0.813287 0.101378
0.688868 0.813287 0.101378
0.720053 0.813287 0.101378
0.751237 0.813287 0.101378
0.782422 0.813287 0.101378
0.813607 0.813287 0.101378
0.843648 0.812176 0.101755
0.867961 0.805900 0.103994
0.892171 0.800162 0.106223
0.916281 0.794905 0.108443
0.940296 0.790081 0.110654
0.949913 0.776841 0.129828
0.952362 0.762025 0.159639
0.954799 0.749871 0.189322
0.084251 0.837141 0.103618
0.098309 0.837141 0.103618
0.129139 0.837141 0.103618
0.159970 0.837141 0.103618
0.190800 0.837141 0.103618
0.221630 0.837141 0.103618
0.252460 0.837141 0.103618
0.283290 0.837141 0.103618
0.314120 0.837141 0.103618
0.344950 0.837141 0.103618
0.375781 0.837141 0.103618
0.406611 0.837141 0.103618
0.437441 0.837141 0.103618
0.468271 0.837141 0.103618
0.499101 0.837141 0.103618
0.529931 0.837141 0.103618
0.560761 0.837141 0.103618
0.591592 0.837141 0.103618
0.622422 0.837141 0.103618
0.653252 0.837141 0.103618
0.684082 0.837141 0.103618
0.714912 0.837141 0.103618
0.745742 0.837141 0.103618
0.776572 0.837141 0.103618
0.807403 0.837141 0.103618
0.838233 0.837141 0.103618
0.867961 0.836069 0.103994
0.892171 0.830010 0.106223
0.916281 0.824453 0.108443
0.940296 0.819345 0.110654
0.949913 0.804829 0.129828
0.952362 0.788267 0.159639
0.954799 0.774481 0.189322
0.086357 0.860892 0.105849
0.100265 0.860892 0.105849
0.130764 0.860892 0.105849
0.161263 0.860892 0.105849
0.191761 0.860892 0.105849
0.222260 0.860892 0.105849
0.252759 0.860892 0.105849
0.283258 0.860892 0.105849
0.313757 0.860892 0.105849
0.344255 0.860892 0.105849
0.374754 0.860892 0.105849
0.405253 0.860892 0.105849
0.435752 0.860892 0.105849
0.466251 0.860892 0.105849
0.496750 0.860892 0.105849
0.527248 0.860892 0.105849
0.557747 0.860892 0.105849
0.588246 0.860892 0.105849
0.618745 0.860892 0.105849
0.649244 0.860892 0.105849
0.679742 0.860892 0.105849
0.710241 0.860892 0.105849
0.740740 0.860892 0.105849
0.771239 0.860892 0.105849
0.801738 0.860892 0.105849
0.832237 0.860892 0.105849
0.862735 0.860892 0.105849
0.892171 0.859859 0.106223
0.916281 0.854000 0.108443
