assets/luts/dusty_blue.cube
TITLE "dusty_blue"
LUT_3D_SIZE 9
0.027124 0.026990 0.172898
0.193219 0.033861 0.083123
0.277967 0.045955 0.079572
0.361380 0.057858 0.088621
0.443809 0.069621 0.100036
0.525459 0.081273 0.112256
0.606467 0.092834 0.124818
0.686928 0.104316 0.137541
0.773268 0.116996 0.151955
0.036372 0.221399 0.079106
0.160333 0.206612 0.078014
0.270207 0.177642 0.080796
0.356817 0.169791 0.090495
0.440787 0.171702 0.102109
0.523341 0.177382 0.114409
0.604940 0.184899 0.127008
0.685818 0.193440 0.139749
0.761362 0.216289 0.171019
0.047880 0.309720 0.081248
0.139567 0.302652 0.082712
0.262264 0.302652 0.082712
0.356817 0.284070 0.090495
0.440787 0.275758 0.102109
0.523341 0.275246 0.114409
0.604940 0.278572 0.127008
0.685818 0.284067 0.139749
0.761362 0.301832 0.171019
0.059220 0.396750 0.091132
0.138979 0.392440 0.093072
0.245396 0.392440 0.093072
0.351813 0.392440 0.093072
0.440787 0.379813 0.102109
0.523341 0.373109 0.114409
0.604940 0.372246 0.127008
0.685818 0.374694 0.139749
0.761362 0.387375 0.171019
0.070434 0.482810 0.102805
0.143892 0.479907 0.104902
0.241718 0.479907 0.104902
0.339545 0.479907 0.104902
0.437371 0.479907 0.104902
0.523341 0.470972 0.114409
0.604940 0.465919 0.127008
0.685818 0.465321 0.139749
0.761362 0.472918 0.171019
0.081547 0.568093 0.115129
0.151066 0.566040 0.117293
0.243528 0.566040 0.117293
0.335989 0.566040 0.117293
0.428451 0.566040 0.117293
0.520912 0.566040 0.117293
0.604940 0.559592 0.127008
0.685818 0.555948 0.139749
0.761362 0.558461 0.171019
0.092575 0.652729 0.127739
0.159375 0.651244 0.129935
0.248137 0.651244 0.129935
0.336898 0.651244 0.129935
0.425659 0.651244 0.129935
0.514421 0.651244 0.129935
0.603182 0.651244 0.129935
0.685818 0.646575 0.139749
0.761362 0.644004 0.171019
0.103531 0.736812 0.140485
0.168327 0.735732 0.142696
0.254363 0.735732 0.142696
0.340399 0.735732 0.142696
0.426435 0.735732 0.142696
0.512471 0.735732 0.142696
0.598507 0.735732 0.142696
0.684543 0.735732 0.142696
0.761362 0.729547 0.171019
0.134829 0.810936 0.177376
0.198684 0.810050 0.183951
0.278444 0.810050 0.183951
0.358204 0.810050 0.183951
0.437964 0.810050 0.183951
0.517724 0.810050 0.183951
0.597484 0.810050 0.183951
0.677244 0.810050 0.183951
0.757004 0.810050 0.183951
0.038819 0.039230 0.277395
0.158539 0.039230 0.277395
0.277967 0.045955 0.243355
0.361380 0.057858 0.224572
0.443809 0.069621 0.222797
0.525459 0.081273 0.227229
0.606467 0.092834 0.234603
0.686928 0.104316 0.243594
0.773268 0.116996 0.255987
0.038819 0.203995 0.277395
0.141403 0.177642 0.237726
0.250349 0.170269 0.224858
0.343471 0.170880 0.222718
0.431404 0.175990 0.226992
0.516587 0.183208 0.234284
0.600048 0.191574 0.243228
0.687748 0.202189 0.255158
0.764178 0.233978 0.290669
0.047880 0.309720 0.236158
0.138194 0.287640 0.224858
0.245396 0.281073 0.222727
0.341357 0.275758 0.223253
0.429827 0.275246 0.228344
0.515431 0.278572 0.236064
0.599219 0.284067 0.245259
0.679621 0.301832 0.270610
0.766886 0.320399 0.294261
0.059220 0.396750 0.223282
0.141333 0.382421 0.222718
0.241718 0.377530 0.224092
0.339545 0.377530 0.224092
0.429827 0.373109 0.228344
0.515431 0.372246 0.236064
0.599219 0.374694 0.245259
0.679621 0.387375 0.270610
0.766886 0.403726 0.294261
0.070434 0.482810 0.223439
0.147713 0.472876 0.226992
0.243528 0.469278 0.229946
0.335989 0.469278 0.229946
0.428451 0.469278 0.229946
0.515431 0.465919 0.236064
0.599219 0.465321 0.245259
0.679621 0.472918 0.270610
0.766886 0.487052 0.294261
0.081547 0.568093 0.228732
0.155606 0.560980 0.234284
0.248137 0.558354 0.238079
0.336898 0.558354 0.238079
0.425659 0.558354 0.238079
0.514421 0.558354 0.238079
0.599219 0.555948 0.245259
0.679621 0.558461 0.270610
0.766886 0.570379 0.294261
0.092575 0.652729 0.236561
0.164314 0.647575 0.243228
0.254363 0.645695 0.247519
0.340399 0.645695 0.247519
0.426435 0.645695 0.247519
0.512471 0.645695 0.247519
0.598507 0.645695 0.247519
0.679621 0.644004 0.270610
0.766886 0.653706 0.294261
0.103531 0.736812 0.245820
0.174840 0.738954 0.255158
0.278444 0.726581 0.281128
0.358204 0.726581 0.281128
0.437964 0.726581 0.281128
0.517724 0.726581 0.281128
0.597484 0.726581 0.281128
0.677244 0.726581 0.281128
0.766886 0.737032 0.294261
0.134829 0.810936 0.275530
0.206558 0.817535 0.290669
0.292333 0.823437 0.298171
0.371917 0.823437 0.298171
0.451501 0.823437 0.298171
0.531085 0.823437 0.298171
0.610668 0.823437 0.298171
0.690252 0.823437 0.298171
0.769836 0.823437 0.298171
0.050287 0.051231 0.379860
0.139350 0.051231 0.379860
0.261153 0.051231 0.379860
0.361380 0.057858 0.360524
0.443809 0.069621 0.345557
0.525459 0.081273 0.342202
0.606467 0.092834 0.344388
0.686928 0.104316 0.349647
0.773268 0.116996 0.360019
0.050287 0.173805 0.379860
0.138418 0.169791 0.356587
0.245396 0.169706 0.352383
0.343471 0.170880 0.345858
0.431404 0.175990 0.342206
0.516587 0.183208 0.344237
0.600048 0.191574 0.349405
0.687748 0.202189 0.359310
0.764178 0.233978 0.387724
0.050287 0.301274 0.379860
0.138418 0.284070 0.356587
0.241926 0.275758 0.344396
0.336841 0.274952 0.342206
0.426342 0.277651 0.344237
0.512901 0.282775 0.349405
0.602263 0.291650 0.359310
0.684518 0.317343 0.387724
0.776970 0.331753 0.404456
0.059220 0.396750 0.355433
0.141333 0.382421 0.345858
0.242277 0.373914 0.342206
0.335989 0.372516 0.342598
0.425921 0.372246 0.345121
0.512620 0.374694 0.350769
0.597881 0.387375 0.370200
0.687263 0.403726 0.391272
0.779663 0.417931 0.407970
0.070434 0.482810 0.344074
0.147713 0.472876 0.342206
0.245851 0.466537 0.344237
0.336898 0.465465 0.346223
0.425659 0.465465 0.346223
0.512620 0.465321 0.350769
0.597881 0.472918 0.370200
0.687263 0.487052 0.391272
0.779663 0.501083 0.407970
0.081547 0.568093 0.342336
0.155606 0.560980 0.344237
0.251461 0.556375 0.349405
0.340399 0.555657 0.352343
0.426435 0.555657 0.352343
0.512471 0.555657 0.352343
0.597881 0.558461 0.370200
0.687263 0.570379 0.391272
0.779663 0.584235 0.407970
0.092575 0.652729 0.345383
0.164314 0.647575 0.349405
0.260325 0.649493 0.359310
0.358204 0.643111 0.378306
0.437964 0.643111 0.378306
0.517724 0.643111 0.378306
0.597484 0.643111 0.378306
0.687263 0.653706 0.391272
0.779663 0.667387 0.407970
0.103531 0.736812 0.351154
0.174840 0.738954 0.359310
0.286218 0.734169 0.387724
0.371917 0.740152 0.395133
0.451501 0.740152 0.395133
0.531085 0.740152 0.395133
0.610668 0.740152 0.395133
0.690252 0.740152 0.395133
0.779663 0.750539 0.407970
0.134829 0.810936 0.373684
0.206558 0.817535 0.387724
0.300027 0.830881 0.404456
0.385501 0.836753 0.411796
0.464921 0.836753 0.411796
0.544340 0.836753 0.411796
0.623759 0.836753 0.411796
0.703179 0.836753 0.411796
0.782598 0.836753 0.411796
0.061598 0.063068 0.480919
0.139099 0.063068 0.480919
0.245090 0.063068 0.480919
0.351082 0.063068 0.480919
0.443809 0.069621 0.468318
0.525459 0.081273 0.457175
0.606467 0.092834 0.454173
0.686928 0.104316 0.455700
0.773268 0.116996 0.464051
0.061598 0.169730 0.480919
0.142495 0.171702 0.465540
0.241718 0.172777 0.462470
0.339545 0.172777 0.462470
0.431404 0.175990 0.457419
0.516587 0.183208 0.454189
0.600048 0.191574 0.455582
0.687748 0.202189 0.463462
0.764178 0.233978 0.484779
0.061598 0.280651 0.480919
0.142495 0.275758 0.465540
0.242800 0.275246 0.456212
0.335989 0.275754 0.455251
0.426342 0.277651 0.454189
0.512901 0.282775 0.455582
0.602263 0.291650 0.463462
0.684518 0.317343 0.484779
0.776970 0.331753 0.501306
0.061598 0.391573 0.480919
0.142495 0.379813 0.465540
0.242800 0.373109 0.456212
0.336411 0.372246 0.454177
0.425754 0.373975 0.455582
0.516779 0.381111 0.463462
0.604858 0.400709 0.484779
0.697480 0.414941 0.501306
0.789697 0.429051 0.517692
0.070434 0.482810 0.464709
0.147713 0.472876 0.457419
0.245851 0.466537 0.454189
0.338608 0.465175 0.455582
0.426435 0.465619 0.457167
0.516140 0.472918 0.469791
0.607639 0.487052 0.488282
0.700207 0.501083 0.504777
0.792377 0.515005 0.521136
0.081547 0.568093 0.455939
0.155606 0.560980 0.454189
0.251461 0.556375 0.455582
0.345810 0.560032 0.463462
0.437964 0.559641 0.475483
0.517724 0.559641 0.475483
0.607639 0.570379 0.488282
0.700207 0.584235 0.504777
0.792377 0.597993 0.521136
0.092575 0.652729 0.454205
0.164314 0.647575 0.455582
0.260325 0.649493 0.463462
0.365878 0.650804 0.484779
0.451501 0.656866 0.492096
0.531085 0.656866 0.492096
0.610668 0.656866 0.492096
0.700207 0.667387 0.504777
0.792377 0.680982 0.521136
0.103531 0.736812 0.456489
0.174840 0.738954 0.463462
0.286218 0.734169 0.484779
0.379517 0.747693 0.501306
0.464921 0.753640 0.508558
0.544340 0.753640 0.508558
0.623759 0.753640 0.508558
0.703179 0.753640 0.508558
0.792377 0.763970 0.521136
0.134829 0.810936 0.471838
0.206558 0.817535 0.484779
0.300027 0.830881 0.501306
0.393036 0.844161 0.517692
0.478237 0.850007 0.524887
0.557502 0.850007 0.524887
0.636768 0.850007 0.524887
0.716033 0.850007 0.524887
0.795298 0.850007 0.524887
0.072789 0.074779 0.580904
0.144136 0.074779 0.580904
0.241712 0.074779 0.580904
0.339287 0.074779 0.580904
0.436863 0.074779 0.580904
0.525459 0.081273 0.572148
0.606467 0.092834 0.563958
0.686928 0.104316 0.561752
0.773268 0.116996 0.568083
0.072789 0.172972 0.580904
0.149286 0.177382 0.570147
0.243528 0.178991 0.567904
0.335989 0.178991 0.567904
0.428451 0.178991 0.567904
0.516587 0.183208 0.564142
0.600048 0.191574 0.561759
0.687748 0.202189 0.567614
0.764178 0.233978 0.581835
0.072789 0.275086 0.580904
0.149286 0.275246 0.570147
0.246901 0.278572 0.563233
0.336898 0.279685 0.562512
0.425659 0.279685 0.562512
0.512901 0.282775 0.561759
0.602263 0.291650 0.567614
0.684518 0.317343 0.581835
0.776970 0.331753 0.598155
0.072789 0.377200 0.580904
0.149286 0.373109 0.570147
0.246901 0.372246 0.563233
0.339421 0.374694 0.561788
0.426435 0.375582 0.561990
0.516779 0.381111 0.567614
0.604858 0.400709 0.581835
0.697480 0.414941 0.598155
0.789697 0.429051 0.614348
0.072789 0.479315 0.580904
0.149286 0.470972 0.570147
0.246901 0.465919 0.563233
0.339421 0.465321 0.561788
0.434399 0.472918 0.569382
0.525198 0.484074 0.581835
0.617989 0.498129 0.598155
0.710365 0.512073 0.614348
0.802365 0.525918 0.630428
0.081547 0.568093 0.569543
0.155606 0.560980 0.564142
0.251461 0.556375 0.561759
0.345810 0.560032 0.567614
0.445538 0.567439 0.581835
0.531085 0.573581 0.589058
0.620751 0.584235 0.601585
0.713077 0.597993 0.617753
0.805033 0.611665 0.633811
0.092575 0.652729 0.563027
0.164314 0.647575 0.561759
0.260325 0.649493 0.567614
0.365878 0.650804 0.581835
0.459008 0.664505 0.598155
0.544340 0.670526 0.605320
0.623759 0.670526 0.605320
0.713077 0.680982 0.617753
0.805033 0.694499 0.633811
0.103531 0.736812 0.561823
0.174840 0.738954 0.567614
0.286218 0.734169 0.581835
0.379517 0.747693 0.598155
0.472369 0.761139 0.614348
0.557502 0.767054 0.621462
0.636768 0.767054 0.621462
0.716033 0.767054 0.621462
0.805033 0.777333 0.633811
0.134829 0.810936 0.569991
0.206558 0.817535 0.581835
0.300027 0.830881 0.598155
0.393036 0.844161 0.614348
0.485633 0.857382 0.630428
0.570582 0.863203 0.637496
0.649702 0.863203 0.637496
0.728821 0.863203 0.637496
0.807941 0.863203 0.637496
0.083883 0.086389 0.680022
0.151369 0.086389 0.680022
0.243663 0.086389 0.680022
0.335958 0.086389 0.680022
0.428253 0.086389 0.680022
0.520548 0.086389 0.680022
0.606467 0.092834 0.673742
0.686928 0.104316 0.667805
0.773268 0.116996 0.672115
0.083883 0.179268 0.680022
0.157392 0.184899 0.672289
0.248137 0.186795 0.670656
0.336898 0.186795 0.670656
0.425659 0.186795 0.670656
0.514421 0.186795 0.670656
0.600048 0.191574 0.667936
0.687748 0.202189 0.671766
0.764178 0.233978 0.678890
0.083883 0.275855 0.680022
0.157392 0.278572 0.672289
0.252822 0.284067 0.667298
0.340399 0.285544 0.666814
0.426435 0.285544 0.666814
0.512471 0.285544 0.666814
0.602263 0.291650 0.671766
0.684518 0.317343 0.678890
0.776970 0.331753 0.695004
0.083883 0.372443 0.680022
0.157392 0.372246 0.672289
0.252822 0.374694 0.667298
0.352658 0.387375 0.668973
0.437964 0.392701 0.669837
0.517724 0.392701 0.669837
0.604858 0.400709 0.678890
0.697480 0.414941 0.695004
0.789697 0.429051 0.711004
0.083883 0.469031 0.680022
0.157392 0.465919 0.672289
0.252822 0.465321 0.667298
0.352658 0.472918 0.668973
0.448393 0.487052 0.682304
0.531085 0.490295 0.686021
0.617989 0.498129 0.695004
0.710365 0.512073 0.711004
0.802365 0.525918 0.726902
0.083883 0.565619 0.680022
0.157392 0.559592 0.672289
0.252822 0.555948 0.667298
0.352658 0.558461 0.668973
0.448393 0.570379 0.682304
0.541295 0.584235 0.698392
0.631033 0.595095 0.711004
0.723182 0.608784 0.726902
0.814979 0.622393 0.742710
0.092575 0.652729 0.671849
0.164314 0.647575 0.667936
0.260325 0.649493 0.671766
0.365878 0.650804 0.678890
0.459008 0.664505 0.695004
0.551701 0.678117 0.711004
0.636768 0.684102 0.718036
0.725880 0.694499 0.730248
0.817636 0.707946 0.746038
0.103531 0.736812 0.667157
0.174840 0.738954 0.671766
0.286218 0.734169 0.678890
0.379517 0.747693 0.695004
0.472369 0.761139 0.711004
0.564816 0.774516 0.726902
0.649702 0.780403 0.733894
0.728821 0.780403 0.733894
0.817636 0.790635 0.746038
0.134829 0.810936 0.668145
0.206558 0.817535 0.678890
0.300027 0.830881 0.695004
0.393036 0.844161 0.711004
0.485633 0.857382 0.726902
0.577852 0.870549 0.742710
0.662569 0.876347 0.749664
0.741551 0.876347 0.749664
0.820533 0.876347 0.749664
0.094895 0.097913 0.778413
0.159709 0.097913 0.778413
0.248351 0.097913 0.778413
0.336993 0.097913 0.778413
0.425634 0.097913 0.778413
0.514276 0.097913 0.778413
0.602917 0.097913 0.778413
0.686928 0.104316 0.773858
0.773268 0.116996 0.776148
0.094895 0.187116 0.778413
0.166223 0.193440 0.772808
0.254363 0.195506 0.771638
0.340399 0.195506 0.771638
0.426435 0.195506 0.771638
0.512471 0.195506 0.771638
0.598507 0.195506 0.771638
0.687748 0.202189 0.775918
0.764178 0.233978 0.775946
0.094895 0.279880 0.778413
0.166223 0.284067 0.772808
0.270917 0.301832 0.768564
0.358204 0.309231 0.767015
0.437964 0.309231 0.767015
0.517724 0.309231 0.767015
0.597484 0.309231 0.767015
0.684518 0.317343 0.775946
0.776970 0.331753 0.791853
0.094895 0.372645 0.778413
0.166223 0.374694 0.772808
0.270917 0.387375 0.768564
0.368770 0.403726 0.779314
0.451501 0.407010 0.782984
0.531085 0.407010 0.782984
0.610668 0.407010 0.782984
0.697480 0.414941 0.791853
0.789697 0.429051 0.807660
0.094895 0.465409 0.778413
0.166223 0.465321 0.772808
0.270917 0.472918 0.768564
0.368770 0.487052 0.779314
0.461838 0.501083 0.795199
0.544340 0.504300 0.798845
0.623759 0.504300 0.798845
0.710365 0.512073 0.807660
0.802365 0.525918 0.823377
0.094895 0.558174 0.778413
0.166223 0.555948 0.772808
0.270917 0.558461 0.768564
0.368770 0.570379 0.779314
0.461838 0.584235 0.795199
0.554477 0.597993 0.810986
0.636768 0.601150 0.814611
0.723182 0.608784 0.823377
0.814979 0.622393 0.839013
0.094895 0.650939 0.778413
0.166223 0.646575 0.772808
0.270917 0.644004 0.768564
0.368770 0.653706 0.779314
0.461838 0.667387 0.795199
0.554477 0.680982 0.810986
0.646728 0.694499 0.826685
0.735936 0.705112 0.839013
0.827543 0.718509 0.854575
0.103531 0.736812 0.772492
0.174840 0.738954 0.775918
0.286218 0.734169 0.775946
0.379517 0.747693 0.791853
0.472369 0.761139 0.807660
0.564816 0.774516 0.823377
0.656894 0.787830 0.839013
0.741551 0.793691 0.845894
0.830191 0.803880 0.857853
0.134829 0.810936 0.766299
0.206558 0.817535 0.775946
0.300027 0.830881 0.791853
0.393036 0.844161 0.807660
0.485633 0.857382 0.823377
0.577852 0.870549 0.839013
0.669727 0.883666 0.854575
0.754226 0.889444 0.861426
0.833078 0.889444 0.861426
0.105837 0.109365 0.876180
0.168680 0.109365 0.876180
0.254625 0.109365 0.876180
0.340571 0.109365 0.876180
0.426516 0.109365 0.876180
0.512461 0.109365 0.876180
0.598406 0.109365 0.876180
0.684352 0.109365 0.876180
0.773268 0.116996 0.880180
0.105837 0.195854 0.876180
0.189176 0.216289 0.868155
0.278444 0.225762 0.864192
0.358204 0.225762 0.864192
0.437964 0.225762 0.864192
0.517724 0.225762 0.864192
0.597484 0.225762 0.864192
0.677244 0.225762 0.864192
0.764178 0.233978 0.873001
0.105837 0.285796 0.876180
0.189176 0.301832 0.868155
0.289147 0.320399 0.876325
0.371917 0.323724 0.879946
0.451501 0.323724 0.879946
0.531085 0.323724 0.879946
0.610668 0.323724 0.879946
0.690252 0.323724 0.879946
0.776970 0.331753 0.888702
0.105837 0.375739 0.876180
0.189176 0.387375 0.868155
0.289147 0.403726 0.876325
0.382382 0.417931 0.892006
0.464921 0.421186 0.895607
0.544340 0.421186 0.895607
0.623759 0.421186 0.895607
0.703179 0.421186 0.895607
0.789697 0.429051 0.904316
0.105837 0.465682 0.876180
0.189176 0.472918 0.868155
0.289147 0.487052 0.876325
0.382382 0.501083 0.892006
0.475178 0.515005 0.907603
0.557502 0.518198 0.911185
0.636768 0.518198 0.911185
0.716033 0.518198 0.911185
0.802365 0.525918 0.919851
0.105837 0.555625 0.876180
0.189176 0.558461 0.868155
0.289147 0.570379 0.876325
0.382382 0.584235 0.892006
0.475178 0.597993 0.907603
0.567575 0.611665 0.923123
0.649702 0.614803 0.926688
0.728821 0.614803 0.926688
0.814979 0.622393 0.935315
0.105837 0.645568 0.876180
0.189176 0.644004 0.868155
0.289147 0.653706 0.876325
0.382382 0.667387 0.892006
0.475178 0.680982 0.907603
0.567575 0.694499 0.923123
0.659610 0.707946 0.938573
0.741551 0.711035 0.942123
0.827543 0.718509 0.950715
0.105837 0.735510 0.876180
0.189176 0.729547 0.868155
0.289147 0.737032 0.876325
0.382382 0.750539 0.892006
0.475178 0.763970 0.907603
0.567575 0.777333 0.923123
0.659610 0.790635 0.938573
0.751310 0.803880 0.953960
0.840063 0.814292 0.966055
0.134829 0.810936 0.864453
0.206558 0.817535 0.873001
0.300027 0.830881 0.888702
0.393036 0.844161 0.904316
0.485633 0.857382 0.919851
0.577852 0.870549 0.935315
0.669727 0.883666 0.950715
0.761282 0.896737 0.966055
0.845578 0.902496 0.972811
0.138442 0.143486 0.942477
0.196781 0.143486 0.942477
0.276565 0.143486 0.942477
0.356350 0.143486 0.942477
0.436135 0.143486 0.942477
0.515919 0.143486 0.942477
0.595704 0.143486 0.942477
0.675489 0.143486 0.942477
0.755273 0.143486 0.942477
0.138442 0.223776 0.942477
0.207098 0.234541 0.953883
0.289944 0.237915 0.957468
0.369557 0.237915 0.957468
0.449171 0.237915 0.957468
0.528784 0.237915 0.957468
0.608397 0.237915 0.957468
0.688010 0.237915 0.957468
0.767624 0.237915 0.957468
0.138442 0.307271 0.942477
0.207098 0.317899 0.953883
0.300554 0.332304 0.969410
0.383162 0.335603 0.972977
0.462609 0.335603 0.972977
0.542056 0.335603 0.972977
0.621503 0.335603 0.972977
0.700950 0.335603 0.972977
0.780397 0.335603 0.972977
0.138442 0.390767 0.942477
0.207098 0.401258 0.953883
0.300554 0.415485 0.969410
0.393553 0.429590 0.984861
0.475943 0.432824 0.988411
0.555234 0.432824 0.988411
0.634525 0.432824 0.988411
0.713816 0.432824 0.988411
0.793108 0.432824 0.988411
0.138442 0.474263 0.942477
0.207098 0.484616 0.953883
0.300554 0.498666 0.969410
0.393553 0.512606 0.984861
0.486140 0.526448 0.996000
0.568327 0.529624 0.996000
0.647472 0.529624 0.996000
0.726616 0.529624 0.996000
0.805760 0.529624 0.996000
0.138442 0.557759 0.942477
0.207098 0.567974 0.953883
0.300554 0.581848 0.969410
0.393553 0.595622 0.984861
0.486140 0.609308 0.996000
0.578351 0.622914 0.996000
0.660350 0.626039 0.996000
0.739355 0.626039 0.996000
0.818361 0.626039 0.996000
0.138442 0.641254 0.942477
0.207098 0.651332 0.953883
0.300554 0.665029 0.969410
0.393553 0.678638 0.984861
0.486140 0.692168 0.996000
0.578351 0.705627 0.996000
0.670218 0.719022 0.996000
0.752039 0.722099 0.996000
0.830913 0.722099 0.996000
0.138442 0.724750 0.942477
0.207098 0.734690 0.953883
0.300554 0.748211 0.969410
0.393553 0.761654 0.984861
0.486140 0.775028 0.996000
0.578351 0.788340 0.996000
0.670218 0.801595 0.996000
0.761766 0.814798 0.996000
0.843421 0.817833 0.996000
0.138442 0.808246 0.942477
0.207098 0.818048 0.953883
0.300554 0.831392 0.969410
0.393553 0.844670 0.984861
0.486140 0.857889 0.996000
0.578351 0.871053 0.996000
0.670218 0.884169 0.996000
0.761766 0.897238 0.996000
0.853019 0.910266 0.996000
