assets/luts/dusty_blue.cube
TITLE "dusty_blue"
LUT_3D_SIZE 5
0.027124 0.026990 0.172898
0.277967 0.045955 0.079572
0.443809 0.069621 0.100036
0.606467 0.092834 0.124818
0.773268 0.116996 0.151955
0.047880 0.309720 0.081248
0.262264 0.302652 0.082712
0.440787 0.275758 0.102109
0.604940 0.278572 0.127008
0.761362 0.301832 0.171019
0.070434 0.482810 0.102805
0.241718 0.479907 0.104902
0.437371 0.479907 0.104902
0.604940 0.465919 0.127008
0.761362 0.472918 0.171019
0.092575 0.652729 0.127739
0.248137 0.651244 0.129935
0.425659 0.651244 0.129935
0.603182 0.651244 0.129935
0.761362 0.644004 0.171019
0.134829 0.810936 0.177376
0.278444 0.810050 0.183951
0.437964 0.810050 0.183951
0.597484 0.810050 0.183951
0.757004 0.810050 0.183951
0.050287 0.051231 0.379860
0.261153 0.051231 0.379860
0.443809 0.069621 0.345557
0.606467 0.092834 0.344388
0.773268 0.116996 0.360019
0.050287 0.301274 0.379860
0.241926 0.275758 0.344396
0.426342 0.277651 0.344237
0.602263 0.291650 0.359310
0.776970 0.331753 0.404456
0.070434 0.482810 0.344074
0.245851 0.466537 0.344237
0.425659 0.465465 0.346223
0.597881 0.472918 0.370200
0.779663 0.501083 0.407970
0.092575 0.652729 0.345383
0.260325 0.649493 0.359310
0.437964 0.643111 0.378306
0.597484 0.643111 0.378306
0.779663 0.667387 0.407970
0.134829 0.810936 0.373684
0.300027 0.830881 0.404456
0.464921 0.836753 0.411796
0.623759 0.836753 0.411796
0.782598 0.836753 0.411796
0.072789 0.074779 0.580904
0.241712 0.074779 0.580904
0.436863 0.074779 0.580904
0.606467 0.092834 0.563958
0.773268 0.116996 0.568083
0.072789 0.275086 0.580904
0.246901 0.278572 0.563233
0.425659 0.279685 0.562512
0.602263 0.291650 0.567614
0.776970 0.331753 0.598155
0.072789 0.479315 0.580904
0.246901 0.465919 0.563233
0.434399 0.472918 0.569382
0.617989 0.498129 0.598155
0.802365 0.525918 0.630428
0.092575 0.652729 0.563027
0.260325 0.649493 0.567614
0.459008 0.664505 0.598155
0.623759 0.670526 0.605320
0.805033 0.694499 0.633811
0.134829 0.810936 0.569991
0.300027 0.830881 0.598155
0.485633 0.857382 0.630428
0.649702 0.863203 0.637496
0.807941 0.863203 0.637496
0.094895 0.097913 0.778413
0.248351 0.097913 0.778413
0.425634 0.097913 0.778413
0.602917 0.097913 0.778413
0.773268 0.116996 0.776148
0.094895 0.279880 0.778413
0.270917 0.301832 0.768564
0.437964 0.309231 0.767015
0.597484 0.309231 0.767015
0.776970 0.331753 0.791853
0.094895 0.465409 0.778413
0.270917 0.472918 0.768564
0.461838 0.501083 0.795199
0.623759 0.504300 0.798845
0.802365 0.525918 0.823377
0.094895 0.650939 0.778413
0.270917 0.644004 0.768564
0.461838 0.667387 0.795199
0.646728 0.694499 0.826685
0.827543 0.718509 0.854575
0.134829 0.810936 0.766299
0.300027 0.830881 0.791853
0.485633 0.857382 0.823377
0.669727 0.883666 0.854575
0.833078 0.889444 0.861426
0.138442 0.143486 0.942477
0.276565 0.143486 0.942477
0.436135 0.143486 0.942477
0.595704 0.143486 0.942477
0.755273 0.143486 0.942477
0.138442 0.307271 0.942477
0.300554 0.332304 0.969410
0.462609 0.335603 0.972977
0.621503 0.335603 0.972977
0.780397 0.335603 0.972977
0.138442 0.474263 0.942477
0.300554 0.498666 0.969410
0.486140 0.526448 0.996000
0.647472 0.529624 0.996000
0.805760 0.529624 0.996000
0.138442 0.641254 0.942477
0.300554 0.665029 0.969410
0.486140 0.692168 0.996000
0.670218 0.719022 0.996000
0.830913 0.722099 0.996000
0.138442 0.808246 0.942477
0.300554 0.831392 0.969410
0.486140 0.857889 0.996000
0.670218 0.884169 0.996000
0.853019 0.910266 0.996000
