assets/luts/dusty_blue.cube
TITLE "dusty_blue"
LUT_3D_SIZE 33
0.027124 0.026990 0.172898
0.027124 0.026990 0.172898
0.150145 0.027714 0.141429
0.171753 0.030797 0.095310
0.193219 0.033861 0.083123
0.214561 0.036906 0.078920
0.235792 0.039936 0.077829
0.256925 0.042952 0.078269
0.277967 0.045955 0.079572
0.298928 0.048946 0.081406
0.319814 0.051926 0.083592
0.340630 0.054897 0.086019
0.361380 0.057858 0.088621
0.382070 0.060811 0.091350
0.402702 0.063755 0.094176
0.423281 0.066692 0.097077
0.443809 0.069621 0.100036
0.464288 0.072544 0.103042
0.484722 0.075460 0.106085
0.505111 0.078370 0.109158
0.525459 0.081273 0.112256
0.545767 0.084171 0.115374
0.566037 0.087064 0.118509
0.586270 0.089951 0.121658
0.606467 0.092834 0.124818
0.626631 0.095711 0.127988
0.646761 0.098584 0.131166
0.666860 0.101452 0.134351
0.686928 0.104316 0.137541
0.706967 0.107176 0.140736
0.726977 0.110031 0.143935
0.749990 0.113315 0.147714
0.773268 0.116996 0.151955
0.027583 0.153953 0.150003
0.027583 0.153953 0.150003
0.107250 0.103977 0.102996
0.145963 0.084999 0.085607
0.175051 0.078169 0.079765
0.200700 0.075585 0.077956
0.224695 0.074973 0.078020
0.247751 0.075436 0.079101
0.270207 0.076546 0.080796
0.292250 0.078076 0.082887
0.313989 0.079892 0.085249
0.335496 0.081912 0.087802
0.356817 0.084081 0.090495
0.377986 0.086364 0.093294
0.399026 0.088733 0.096174
0.419955 0.091169 0.099117
0.440787 0.093660 0.102109
0.461534 0.096195 0.105141
0.482204 0.098764 0.108206
0.502805 0.101363 0.111297
0.523341 0.103985 0.114409
0.543819 0.106627 0.117539
0.564242 0.109286 0.120684
0.584615 0.111959 0.123841
0.604940 0.114644 0.127008
0.625221 0.117339 0.130184
0.645459 0.120043 0.133367
0.665658 0.122753 0.136555
0.685818 0.125470 0.139749
0.705942 0.128192 0.142947
0.727902 0.131240 0.146512
0.751517 0.134576 0.150403
0.761362 0.152131 0.171019
0.030532 0.176580 0.096983
0.030532 0.176580 0.096983
0.088086 0.148697 0.086376
0.145963 0.146532 0.085607
0.175051 0.128029 0.079765
0.200700 0.118807 0.077956
0.224695 0.113905 0.078020
0.247751 0.111361 0.079101
0.270207 0.110245 0.080796
0.292250 0.110056 0.082887
0.313989 0.110505 0.085249
0.335496 0.111410 0.087802
0.356817 0.112651 0.090495
0.377986 0.114148 0.093294
0.399026 0.115844 0.096174
0.419955 0.117696 0.099117
0.440787 0.119674 0.102109
0.461534 0.121755 0.105141
0.482204 0.123920 0.108206
0.502805 0.126156 0.111297
0.523341 0.128451 0.114409
0.543819 0.130796 0.117539
0.564242 0.133183 0.120684
0.584615 0.135607 0.123841
0.604940 0.138063 0.127008
0.625221 0.140546 0.130184
0.645459 0.143053 0.133367
0.665658 0.145580 0.136555
0.685818 0.148127 0.139749
0.705942 0.150689 0.142947
0.727902 0.153645 0.146512
0.751517 0.156947 0.150403
0.761362 0.173517 0.171019
0.033460 0.199055 0.083681
0.033460 0.199055 0.083681
0.080134 0.179580 0.080033
0.128426 0.179580 0.080033
0.175051 0.177889 0.079765
0.200700 0.162029 0.077956
0.224695 0.152836 0.078020
0.247751 0.147286 0.079101
0.270207 0.143943 0.080796
0.292250 0.142037 0.082887
0.313989 0.141119 0.085249
0.335496 0.140908 0.087802
0.356817 0.141221 0.090495
0.377986 0.141933 0.093294
0.399026 0.142955 0.096174
0.419955 0.144222 0.099117
0.440787 0.145688 0.102109
0.461534 0.147316 0.105141
0.482204 0.149077 0.108206
0.502805 0.150950 0.111297
0.523341 0.152917 0.114409
0.543819 0.154964 0.117539
0.564242 0.157080 0.120684
0.584615 0.159255 0.123841
0.604940 0.161481 0.127008
0.625221 0.163752 0.130184
0.645459 0.166063 0.133367
0.665658 0.168408 0.136555
0.685818 0.170783 0.139749
0.705942 0.173186 0.142947
0.727902 0.176051 0.146512
0.751517 0.179317 0.150403
0.761362 0.194903 0.171019
0.036372 0.221399 0.079106
0.036372 0.221399 0.079106
0.076937 0.206612 0.078014
0.118635 0.206612 0.078014
0.160333 0.206612 0.078014
0.200700 0.205251 0.077956
0.224695 0.191768 0.078020
0.247751 0.183212 0.079101
0.270207 0.177642 0.080796
0.292250 0.174018 0.082887
0.313989 0.171732 0.085249
0.335496 0.170406 0.087802
0.356817 0.169791 0.090495
0.377986 0.169717 0.093294
0.399026 0.170066 0.096174
0.419955 0.170749 0.099117
0.440787 0.171702 0.102109
0.461534 0.172876 0.105141
0.482204 0.174233 0.108206
0.502805 0.175743 0.111297
0.523341 0.177382 0.114409
0.543819 0.179132 0.117539
0.564242 0.180976 0.120684
0.584615 0.182902 0.123841
0.604940 0.184899 0.127008
0.625221 0.186959 0.130184
0.645459 0.189073 0.133367
0.665658 0.191235 0.136555
0.685818 0.193440 0.139749
0.705942 0.195683 0.142947
0.727902 0.198457 0.146512
0.751517 0.201688 0.150403
0.761362 0.216289 0.171019
0.039268 0.243626 0.077847
0.039268 0.243626 0.077847
0.075914 0.231825 0.077971
0.113383 0.231825 0.077971
0.150853 0.231825 0.077971
0.188322 0.231825 0.077971
0.224695 0.230699 0.078020
0.247751 0.219137 0.079101
0.270207 0.211340 0.080796
0.292250 0.205998 0.082887
0.313989 0.202345 0.085249
0.335496 0.199904 0.087802
0.356817 0.198360 0.090495
0.377986 0.197502 0.093294
0.399026 0.197177 0.096174
0.419955 0.197275 0.099117
0.440787 0.197716 0.102109
0.461534 0.198437 0.105141
0.482204 0.199389 0.108206
0.502805 0.200537 0.111297
0.523341 0.201848 0.114409
0.543819 0.203300 0.117539
0.564242 0.204873 0.120684
0.584615 0.206550 0.123841
0.604940 0.208318 0.127008
0.625221 0.210165 0.130184
0.645459 0.212083 0.133367
0.665658 0.214062 0.136555
0.685818 0.216097 0.139749
0.705942 0.218181 0.142947
0.727902 0.220863 0.146512
0.751517 0.224059 0.150403
0.761362 0.237674 0.171019
0.042151 0.265749 0.078198
0.042151 0.265749 0.078198
0.076062 0.256013 0.078990
0.110585 0.256013 0.078990
0.145107 0.256013 0.078990
0.179630 0.256013 0.078990
0.214152 0.256013 0.078990
0.247751 0.255062 0.079101
0.270207 0.245039 0.080796
0.292250 0.237979 0.082887
0.313989 0.232959 0.085249
0.335496 0.229402 0.087802
0.356817 0.226930 0.090495
0.377986 0.225286 0.093294
0.399026 0.224288 0.096174
0.419955 0.223802 0.099117
0.440787 0.223730 0.102109
0.461534 0.223997 0.105141
0.482204 0.224546 0.108206
0.502805 0.225330 0.111297
0.523341 0.226314 0.114409
0.543819 0.227468 0.117539
0.564242 0.228769 0.120684
0.584615 0.230197 0.123841
0.604940 0.231736 0.127008
0.625221 0.233371 0.130184
0.645459 0.235093 0.133367
0.665658 0.236889 0.136555
0.685818 0.238754 0.139749
0.705942 0.240678 0.142947
0.727902 0.243269 0.146512
0.751517 0.246429 0.150403
0.761362 0.259060 0.171019
0.045021 0.287778 0.079447
0.045021 0.287778 0.079447
0.076913 0.279555 0.080647
0.109261 0.279555 0.080647
0.141609 0.279555 0.080647
0.173956 0.279555 0.080647
0.206304 0.279555 0.080647
0.238651 0.279555 0.080647
0.270207 0.278738 0.080796
0.292250 0.269960 0.082887
0.313989 0.263572 0.085249
0.335496 0.258899 0.087802
0.356817 0.255500 0.090495
0.377986 0.253071 0.093294
0.399026 0.251399 0.096174
0.419955 0.250328 0.099117
0.440787 0.249744 0.102109
0.461534 0.249558 0.105141
0.482204 0.249702 0.108206
0.502805 0.250124 0.111297
0.523341 0.250780 0.114409
0.543819 0.251637 0.117539
0.564242 0.252666 0.120684
0.584615 0.253845 0.123841
0.604940 0.255154 0.127008
0.625221 0.256578 0.130184
0.645459 0.258102 0.133367
0.665658 0.259717 0.136555
0.685818 0.261410 0.139749
0.705942 0.263175 0.142947
0.727902 0.265675 0.146512
0.751517 0.268800 0.150403
0.761362 0.280446 0.171019
0.047880 0.309720 0.081248
0.047880 0.309720 0.081248
0.078218 0.302652 0.082712
0.108892 0.302652 0.082712
0.139567 0.302652 0.082712
0.170241 0.302652 0.082712
0.200915 0.302652 0.082712
0.231590 0.302652 0.082712
0.262264 0.302652 0.082712
0.292250 0.301940 0.082887
0.313989 0.294185 0.085249
0.335496 0.288397 0.087802
0.356817 0.284070 0.090495
0.377986 0.280855 0.093294
0.399026 0.278510 0.096174
0.419955 0.276855 0.099117
0.440787 0.275758 0.102109
0.461534 0.275118 0.105141
0.482204 0.274858 0.108206
0.502805 0.274917 0.111297
0.523341 0.275246 0.114409
0.543819 0.275805 0.117539
0.564242 0.276563 0.120684
0.584615 0.277492 0.123841
0.604940 0.278572 0.127008
0.625221 0.279784 0.130184
0.645459 0.281112 0.133367
0.665658 0.282544 0.136555
0.685818 0.284067 0.139749
0.705942 0.285673 0.142947
0.727902 0.288081 0.146512
0.751517 0.291170 0.150403
0.761362 0.301832 0.171019
0.050729 0.331583 0.083411
0.050729 0.331583 0.083411
0.079831 0.325425 0.085056
0.109177 0.325425 0.085056
0.138522 0.325425 0.085056
0.167867 0.325425 0.085056
0.197213 0.325425 0.085056
0.226558 0.325425 0.085056
0.255904 0.325425 0.085056
0.285249 0.325425 0.085056
0.313989 0.324799 0.085249
0.335496 0.317895 0.087802
0.356817 0.312639 0.090495
0.377986 0.308640 0.093294
0.399026 0.305621 0.096174
0.419955 0.303381 0.099117
0.440787 0.301772 0.102109
0.461534 0.300679 0.105141
0.482204 0.300015 0.108206
0.502805 0.299711 0.111297
0.523341 0.299712 0.114409
0.543819 0.299973 0.117539
0.564242 0.300459 0.120684
0.584615 0.301140 0.123841
0.604940 0.301991 0.127008
0.625221 0.302991 0.130184
0.645459 0.304122 0.133367
0.665658 0.305371 0.136555
0.685818 0.306724 0.139749
0.705942 0.308170 0.142947
0.727902 0.310487 0.146512
0.751517 0.313541 0.150403
0.761362 0.323217 0.171019
0.053568 0.353373 0.085822
0.053568 0.353373 0.085822
0.081663 0.347949 0.087596
0.109927 0.347949 0.087596
0.138190 0.347949 0.087596
0.166453 0.347949 0.087596
0.194717 0.347949 0.087596
0.222980 0.347949 0.087596
0.251243 0.347949 0.087596
0.279507 0.347949 0.087596
0.307770 0.347949 0.087596
0.335496 0.347393 0.087802
0.356817 0.341209 0.090495
0.377986 0.336424 0.093294
0.399026 0.332732 0.096174
0.419955 0.329907 0.099117
0.440787 0.327785 0.102109
0.461534 0.326239 0.105141
0.482204 0.325171 0.108206
0.502805 0.324504 0.111297
0.523341 0.324177 0.114409
0.543819 0.324141 0.117539
0.564242 0.324356 0.120684
0.584615 0.324787 0.123841
0.604940 0.325409 0.127008
0.625221 0.326197 0.130184
0.645459 0.327132 0.133367
0.665658 0.328198 0.136555
0.685818 0.329381 0.139749
0.705942 0.330667 0.142947
0.727902 0.332893 0.146512
0.751517 0.335911 0.150403
0.761362 0.344603 0.171019
0.056398 0.375094 0.088411
0.056398 0.375094 0.088411
0.083656 0.370276 0.090280
0.111020 0.370276 0.090280
0.138384 0.370276 0.090280
0.165748 0.370276 0.090280
0.193113 0.370276 0.090280
0.220477 0.370276 0.090280
0.247841 0.370276 0.090280
0.275205 0.370276 0.090280
0.302569 0.370276 0.090280
0.329933 0.370276 0.090280
0.356817 0.369779 0.090495
0.377986 0.364209 0.093294
0.399026 0.359843 0.096174
0.419955 0.356434 0.099117
0.440787 0.353799 0.102109
0.461534 0.351800 0.105141
0.482204 0.350327 0.108206
0.502805 0.349298 0.111297
0.523341 0.348643 0.114409
0.543819 0.348310 0.117539
0.564242 0.348252 0.120684
0.584615 0.348435 0.123841
0.604940 0.348827 0.127008
0.625221 0.349404 0.130184
0.645459 0.350142 0.133367
0.665658 0.351026 0.136555
0.685818 0.352037 0.139749
0.705942 0.353164 0.142947
0.727902 0.355299 0.146512
0.751517 0.358282 0.150403
0.761362 0.365989 0.171019
0.059220 0.396750 0.091132
0.059220 0.396750 0.091132
0.085770 0.392440 0.093072
0.112374 0.392440 0.093072
0.138979 0.392440 0.093072
0.165583 0.392440 0.093072
0.192187 0.392440 0.093072
0.218791 0.392440 0.093072
0.245396 0.392440 0.093072
0.272000 0.392440 0.093072
0.298604 0.392440 0.093072
0.325208 0.392440 0.093072
0.351813 0.392440 0.093072
0.377986 0.391993 0.093294
0.399026 0.386954 0.096174
0.419955 0.382960 0.099117
0.440787 0.379813 0.102109
0.461534 0.377360 0.105141
0.482204 0.375484 0.108206
0.502805 0.374091 0.111297
0.523341 0.373109 0.114409
0.543819 0.372478 0.117539
0.564242 0.372149 0.120684
0.584615 0.372083 0.123841
0.604940 0.372246 0.127008
0.625221 0.372610 0.130184
0.645459 0.373152 0.133367
0.665658 0.373853 0.136555
0.685818 0.374694 0.139749
0.705942 0.375662 0.142947
0.727902 0.377705 0.146512
0.751517 0.380653 0.150403
0.761362 0.387375 0.171019
0.062035 0.418347 0.093951
0.062035 0.418347 0.093951
0.087977 0.414468 0.095946
0.113930 0.414468 0.095946
0.139883 0.414468 0.095946
0.165836 0.414468 0.095946
0.191790 0.414468 0.095946
0.217743 0.414468 0.095946
0.243696 0.414468 0.095946
0.269649 0.414468 0.095946
0.295602 0.414468 0.095946
0.321555 0.414468 0.095946
0.347509 0.414468 0.095946
0.373462 0.414468 0.095946
0.399026 0.414065 0.096174
0.419955 0.409487 0.099117
0.440787 0.405827 0.102109
0.461534 0.402921 0.105141
0.482204 0.400640 0.108206
0.502805 0.398885 0.111297
0.523341 0.397575 0.114409
0.543819 0.396646 0.117539
0.564242 0.396046 0.120684
0.584615 0.395730 0.123841
0.604940 0.395664 0.127008
0.625221 0.395816 0.130184
0.645459 0.396162 0.133367
0.665658 0.396680 0.136555
0.685818 0.397351 0.139749
0.705942 0.398159 0.142947
0.727902 0.400111 0.146512
0.751517 0.403023 0.150403
0.761362 0.408760 0.171019
0.064841 0.439887 0.096847
0.064841 0.439887 0.096847
0.090257 0.436380 0.098884
0.115645 0.436380 0.098884
0.141034 0.436380 0.098884
0.166422 0.436380 0.098884
0.191811 0.436380 0.098884
0.217199 0.436380 0.098884
0.242588 0.436380 0.098884
0.267977 0.436380 0.098884
0.293365 0.436380 0.098884
0.318754 0.436380 0.098884
0.344142 0.436380 0.098884
0.369531 0.436380 0.098884
0.394920 0.436380 0.098884
0.419955 0.436013 0.099117
0.440787 0.431841 0.102109
0.461534 0.428481 0.105141
0.482204 0.425797 0.108206
0.502805 0.423678 0.111297
0.523341 0.422041 0.114409
0.543819 0.420814 0.117539
0.564242 0.419942 0.120684
0.584615 0.419378 0.123841
0.604940 0.419082 0.127008
0.625221 0.419023 0.130184
0.645459 0.419172 0.133367
0.665658 0.419507 0.136555
0.685818 0.420008 0.139749
0.705942 0.420656 0.142947
0.727902 0.422517 0.146512
0.751517 0.425394 0.150403
0.761362 0.430146 0.171019
0.067641 0.461374 0.099802
0.067641 0.461374 0.099802
0.092594 0.458189 0.101873
0.117488 0.458189 0.101873
0.142382 0.458189 0.101873
0.167276 0.458189 0.101873
0.192170 0.458189 0.101873
0.217064 0.458189 0.101873
0.241958 0.458189 0.101873
0.266852 0.458189 0.101873
0.291746 0.458189 0.101873
0.316639 0.458189 0.101873
0.341533 0.458189 0.101873
0.366427 0.458189 0.101873
0.391321 0.458189 0.101873
0.416215 0.458189 0.101873
0.440787 0.457855 0.102109
0.461534 0.454042 0.105141
0.482204 0.450953 0.108206
0.502805 0.448472 0.111297
0.523341 0.446507 0.114409
0.543819 0.444982 0.117539
0.564242 0.443839 0.120684
0.584615 0.443025 0.123841
0.604940 0.442500 0.127008
0.625221 0.442229 0.130184
0.645459 0.442182 0.133367
0.665658 0.442335 0.136555
0.685818 0.442664 0.139749
0.705942 0.443154 0.142947
0.727902 0.444923 0.146512
0.751517 0.447764 0.150403
0.761362 0.451532 0.171019
0.070434 0.482810 0.102805
0.070434 0.482810 0.102805
0.094979 0.479907 0.104902
0.119435 0.479907 0.104902
0.143892 0.479907 0.104902
0.168349 0.479907 0.104902
0.192805 0.479907 0.104902
0.217262 0.479907 0.104902
0.241718 0.479907 0.104902
0.266175 0.479907 0.104902
0.290632 0.479907 0.104902
0.315088 0.479907 0.104902
0.339545 0.479907 0.104902
0.364002 0.479907 0.104902
0.388458 0.479907 0.104902
0.412915 0.479907 0.104902
0.437371 0.479907 0.104902
0.461534 0.479602 0.105141
0.482204 0.476109 0.108206
0.502805 0.473265 0.111297
0.523341 0.470972 0.114409
0.543819 0.469151 0.117539
0.564242 0.467735 0.120684
0.584615 0.466673 0.123841
0.604940 0.465919 0.127008
0.625221 0.465436 0.130184
0.645459 0.465192 0.133367
0.665658 0.465162 0.136555
0.685818 0.465321 0.139749
0.705942 0.465651 0.142947
0.727902 0.467329 0.146512
0.751517 0.470135 0.150403
0.761362 0.472918 0.171019
0.073221 0.504197 0.105845
0.073221 0.504197 0.105845
0.097401 0.501545 0.107965
0.121468 0.501545 0.107965
0.145535 0.501545 0.107965
0.169602 0.501545 0.107965
0.193669 0.501545 0.107965
0.217736 0.501545 0.107965
0.241803 0.501545 0.107965
0.265870 0.501545 0.107965
0.289937 0.501545 0.107965
0.314004 0.501545 0.107965
0.338071 0.501545 0.107965
0.362138 0.501545 0.107965
0.386205 0.501545 0.107965
0.410272 0.501545 0.107965
0.434339 0.501545 0.107965
0.458406 0.501545 0.107965
0.482204 0.501266 0.108206
0.502805 0.498059 0.111297
0.523341 0.495438 0.114409
0.543819 0.493319 0.117539
0.564242 0.491632 0.120684
0.584615 0.490320 0.123841
0.604940 0.489337 0.127008
0.625221 0.488642 0.130184
0.645459 0.488202 0.133367
0.665658 0.487989 0.136555
0.685818 0.487978 0.139749
0.705942 0.488148 0.142947
0.727902 0.489735 0.146512
0.751517 0.492505 0.150403
0.761362 0.494303 0.171019
0.076002 0.525539 0.108916
0.076002 0.525539 0.108916
0.099855 0.523109 0.111054
0.123572 0.523109 0.111054
0.147290 0.523109 0.111054
0.171007 0.523109 0.111054
0.194724 0.523109 0.111054
0.218442 0.523109 0.111054
0.242159 0.523109 0.111054
0.265877 0.523109 0.111054
0.289594 0.523109 0.111054
0.313312 0.523109 0.111054
0.337029 0.523109 0.111054
0.360747 0.523109 0.111054
0.384464 0.523109 0.111054
0.408182 0.523109 0.111054
0.431899 0.523109 0.111054
0.455616 0.523109 0.111054
0.479334 0.523109 0.111054
0.502805 0.522852 0.111297
0.523341 0.519904 0.114409
0.543819 0.517487 0.117539
0.564242 0.515529 0.120684
0.584615 0.513968 0.123841
0.604940 0.512755 0.127008
0.625221 0.511849 0.130184
0.645459 0.511212 0.133367
0.665658 0.510816 0.136555
0.685818 0.510635 0.139749
0.705942 0.510645 0.142947
0.727902 0.512141 0.146512
0.751517 0.514876 0.150403
0.761362 0.515689 0.171019
0.078777 0.546837 0.112012
0.078777 0.546837 0.112012
0.102334 0.544605 0.114164
0.125736 0.544605 0.114164
0.149138 0.544605 0.114164
0.172540 0.544605 0.114164
0.195942 0.544605 0.114164
0.219344 0.544605 0.114164
0.242745 0.544605 0.114164
0.266147 0.544605 0.114164
0.289549 0.544605 0.114164
0.312951 0.544605 0.114164
0.336353 0.544605 0.114164
0.359755 0.544605 0.114164
0.383157 0.544605 0.114164
0.406559 0.544605 0.114164
0.429960 0.544605 0.114164
0.453362 0.544605 0.114164
0.476764 0.544605 0.114164
0.500166 0.544605 0.114164
0.523341 0.544370 0.114409
0.543819 0.541655 0.117539
0.564242 0.539425 0.120684
0.584615 0.537616 0.123841
0.604940 0.536174 0.127008
0.625221 0.535055 0.130184
0.645459 0.534222 0.133367
0.665658 0.533644 0.136555
0.685818 0.533292 0.139749
0.705942 0.533143 0.142947
0.727902 0.534547 0.146512
0.751517 0.537247 0.150403
0.761362 0.537075 0.171019
0.081547 0.568093 0.115129
0.081547 0.568093 0.115129
0.104835 0.566040 0.117293
0.127951 0.566040 0.117293
0.151066 0.566040 0.117293
0.174181 0.566040 0.117293
0.197297 0.566040 0.117293
0.220412 0.566040 0.117293
0.243528 0.566040 0.117293
0.266643 0.566040 0.117293
0.289758 0.566040 0.117293
0.312874 0.566040 0.117293
0.335989 0.566040 0.117293
0.359105 0.566040 0.117293
0.382220 0.566040 0.117293
0.405335 0.566040 0.117293
0.428451 0.566040 0.117293
0.451566 0.566040 0.117293
0.474682 0.566040 0.117293
0.497797 0.566040 0.117293
0.520912 0.566040 0.117293
0.543819 0.565824 0.117539
0.564242 0.563322 0.120684
0.584615 0.561263 0.123841
0.604940 0.559592 0.127008
0.625221 0.558261 0.130184
0.645459 0.557232 0.133367
0.665658 0.556471 0.136555
0.685818 0.555948 0.139749
0.705942 0.555640 0.142947
0.727902 0.556953 0.146512
0.751517 0.559617 0.150403
0.761362 0.558461 0.171019
0.084311 0.589308 0.118263
0.084311 0.589308 0.118263
0.107354 0.587418 0.120437
0.130208 0.587418 0.120437
0.153063 0.587418 0.120437
0.175917 0.587418 0.120437
0.198771 0.587418 0.120437
0.221625 0.587418 0.120437
0.244479 0.587418 0.120437
0.267333 0.587418 0.120437
0.290187 0.587418 0.120437
0.313041 0.587418 0.120437
0.335895 0.587418 0.120437
0.358749 0.587418 0.120437
0.381603 0.587418 0.120437
0.404457 0.587418 0.120437
0.427311 0.587418 0.120437
0.450165 0.587418 0.120437
0.473019 0.587418 0.120437
0.495873 0.587418 0.120437
0.518727 0.587418 0.120437
0.541581 0.587418 0.120437
0.564242 0.587218 0.120684
0.584615 0.584911 0.123841
0.604940 0.583010 0.127008
0.625221 0.581468 0.130184
0.645459 0.580242 0.133367
0.665658 0.579298 0.136555
0.685818 0.578605 0.139749
0.705942 0.578137 0.142947
0.727902 0.579359 0.146512
0.751517 0.581988 0.150403
0.761362 0.579846 0.171019
0.087071 0.610485 0.121410
0.087071 0.610485 0.121410
0.109889 0.608742 0.123593
0.132503 0.608742 0.123593
0.155118 0.608742 0.123593
0.177732 0.608742 0.123593
0.200347 0.608742 0.123593
0.222961 0.608742 0.123593
0.245576 0.608742 0.123593
0.268190 0.608742 0.123593
0.290805 0.608742 0.123593
0.313419 0.608742 0.123593
0.336034 0.608742 0.123593
0.358648 0.608742 0.123593
0.381263 0.608742 0.123593
0.403877 0.608742 0.123593
0.426491 0.608742 0.123593
0.449106 0.608742 0.123593
0.471720 0.608742 0.123593
0.494335 0.608742 0.123593
0.516949 0.608742 0.123593
0.539564 0.608742 0.123593
0.562178 0.608742 0.123593
0.584615 0.608558 0.123841
0.604940 0.606428 0.127008
0.625221 0.604674 0.130184
0.645459 0.603252 0.133367
0.665658 0.602125 0.136555
0.685818 0.601262 0.139749
0.705942 0.600635 0.142947
0.727902 0.601765 0.146512
0.751517 0.604358 0.150403
0.761362 0.601232 0.171019
0.089825 0.631625 0.124570
0.089825 0.631625 0.124570
0.112436 0.630017 0.126760
0.134830 0.630017 0.126760
0.157224 0.630017 0.126760
0.179618 0.630017 0.126760
0.202012 0.630017 0.126760
0.224406 0.630017 0.126760
0.246800 0.630017 0.126760
0.269194 0.630017 0.126760
0.291588 0.630017 0.126760
0.313982 0.630017 0.126760
0.336376 0.630017 0.126760
0.358770 0.630017 0.126760
0.381164 0.630017 0.126760
0.403558 0.630017 0.126760
0.425952 0.630017 0.126760
0.448346 0.630017 0.126760
0.470740 0.630017 0.126760
0.493134 0.630017 0.126760
0.515528 0.630017 0.126760
0.537922 0.630017 0.126760
0.560316 0.630017 0.126760
0.582710 0.630017 0.126760
0.604940 0.629847 0.127008
0.625221 0.627881 0.130184
0.645459 0.626262 0.133367
0.665658 0.624953 0.136555
0.685818 0.623919 0.139749
0.705942 0.623132 0.142947
0.727902 0.624171 0.146512
0.751517 0.626729 0.150403
0.761362 0.622618 0.171019
0.092575 0.652729 0.127739
0.092575 0.652729 0.127739
0.114995 0.651244 0.129935
0.137185 0.651244 0.129935
0.159375 0.651244 0.129935
0.181566 0.651244 0.129935
0.203756 0.651244 0.129935
0.225946 0.651244 0.129935
0.248137 0.651244 0.129935
0.270327 0.651244 0.129935
0.292517 0.651244 0.129935
0.314708 0.651244 0.129935
0.336898 0.651244 0.129935
0.359088 0.651244 0.129935
0.381279 0.651244 0.129935
0.403469 0.651244 0.129935
0.425659 0.651244 0.129935
0.447850 0.651244 0.129935
0.470040 0.651244 0.129935
0.492230 0.651244 0.129935
0.514421 0.651244 0.129935
0.536611 0.651244 0.129935
0.558801 0.651244 0.129935
0.580992 0.651244 0.129935
0.603182 0.651244 0.129935
0.625221 0.651087 0.130184
0.645459 0.649272 0.133367
0.665658 0.647780 0.136555
0.685818 0.646575 0.139749
0.705942 0.645629 0.142947
0.727902 0.646577 0.146512
0.751517 0.649100 0.150403
0.761362 0.644004 0.171019
0.095321 0.673798 0.130917
0.095321 0.673798 0.130917
0.117563 0.672427 0.133117
0.139564 0.672427 0.133117
0.161566 0.672427 0.133117
0.183567 0.672427 0.133117
0.205569 0.672427 0.133117
0.227570 0.672427 0.133117
0.249572 0.672427 0.133117
0.271573 0.672427 0.133117
0.293575 0.672427 0.133117
0.315576 0.672427 0.133117
0.337578 0.672427 0.133117
0.359579 0.672427 0.133117
0.381581 0.672427 0.133117
0.403582 0.672427 0.133117
0.425584 0.672427 0.133117
0.447585 0.672427 0.133117
0.469587 0.672427 0.133117
0.491588 0.672427 0.133117
0.513590 0.672427 0.133117
0.535591 0.672427 0.133117
0.557593 0.672427 0.133117
0.579594 0.672427 0.133117
0.601596 0.672427 0.133117
0.623597 0.672427 0.133117
0.645459 0.672282 0.133367
0.665658 0.670607 0.136555
0.685818 0.669232 0.139749
0.705942 0.668126 0.142947
0.727902 0.668983 0.146512
0.751517 0.671470 0.150403
0.761362 0.665389 0.171019
0.098062 0.694835 0.134101
0.098062 0.694835 0.134101
0.120138 0.693568 0.136305
0.141964 0.693568 0.136305
0.163790 0.693568 0.136305
0.185616 0.693568 0.136305
0.207442 0.693568 0.136305
0.229268 0.693568 0.136305
0.251094 0.693568 0.136305
0.272920 0.693568 0.136305
0.294746 0.693568 0.136305
0.316572 0.693568 0.136305
0.338398 0.693568 0.136305
0.360224 0.693568 0.136305
0.382050 0.693568 0.136305
0.403875 0.693568 0.136305
0.425701 0.693568 0.136305
0.447527 0.693568 0.136305
0.469353 0.693568 0.136305
0.491179 0.693568 0.136305
0.513005 0.693568 0.136305
0.534831 0.693568 0.136305
0.556657 0.693568 0.136305
0.578483 0.693568 0.136305
0.600309 0.693568 0.136305
0.622135 0.693568 0.136305
0.643961 0.693568 0.136305
0.665658 0.693434 0.136555
0.685818 0.691889 0.139749
