assets/luts/film03.cube
TITLE "film03"
LUT_3D_SIZE 9
0.083167 0.017046 0.006278
0.193638 0.010367 0.007935
0.313659 0.011883 0.009580
0.439154 0.013573 0.011218
0.566019 0.015307 0.012855
0.690190 0.017061 0.014490
0.807655 0.018826 0.016126
0.914441 0.020598 0.017764
0.996857 0.032868 0.029012
0.020044 0.182240 0.007840
0.193638 0.177990 0.007935
0.313659 0.143479 0.009580
0.439154 0.132905 0.011218
0.566019 0.128489 0.012855
0.690190 0.126578 0.014490
0.807655 0.125935 0.016126
0.914441 0.126026 0.017764
0.996857 0.136776 0.029012
0.019702 0.299156 0.009485
0.156939 0.299156 0.009485
0.313659 0.296812 0.009580
0.439154 0.270909 0.011218
0.566019 0.258745 0.012855
0.690190 0.252164 0.014490
0.807655 0.248409 0.016126
0.914441 0.246287 0.017764
0.996857 0.254141 0.029012
0.020800 0.421809 0.011124
0.144616 0.421809 0.011124
0.287275 0.421809 0.011124
0.439154 0.420180 0.011218
0.566019 0.399728 0.012855
0.690190 0.388075 0.014490
0.807655 0.380893 0.016126
0.914441 0.376299 0.017764
0.996857 0.380350 0.029012
0.022261 0.546319 0.012761
0.139443 0.546319 0.012761
0.273848 0.546319 0.012761
0.418716 0.546319 0.012761
0.566019 0.545093 0.012855
0.690190 0.528566 0.014490
0.807655 0.518030 0.016126
0.914441 0.510981 0.017764
0.996857 0.510792 0.029012
0.023869 0.668845 0.014396
0.137125 0.668845 0.014396
0.266589 0.668845 0.014396
0.406155 0.668845 0.014396
0.549716 0.668845 0.014396
0.690190 0.667893 0.014490
0.807655 0.654466 0.016126
0.914441 0.645250 0.017764
0.996857 0.640855 0.029012
0.025554 0.785590 0.016032
0.136240 0.785590 0.016032
0.262423 0.785590 0.016032
0.398417 0.785590 0.016032
0.538536 0.785590 0.016032
0.677095 0.785590 0.016032
0.807655 0.784846 0.016126
0.914441 0.774025 0.017764
0.996857 0.765924 0.029012
0.027283 0.892797 0.017669
0.136178 0.892797 0.017669
0.260033 0.892797 0.017669
0.393456 0.892797 0.017669
0.531056 0.892797 0.017669
0.667443 0.892797 0.017669
0.797226 0.892797 0.017669
0.914441 0.892224 0.017764
0.996857 0.881390 0.029012
0.039876 0.981749 0.029012
0.147053 0.981749 0.029012
0.267762 0.981749 0.029012
0.397125 0.981749 0.029012
0.530262 0.981749 0.029012
0.662292 0.981749 0.029012
0.788336 0.981749 0.029012
0.903514 0.981749 0.029012
0.996857 0.981749 0.029012
0.020161 0.010246 0.159703
0.192915 0.010380 0.152511
0.313260 0.011899 0.123598
0.438878 0.013589 0.114750
0.565811 0.015324 0.111107
0.690030 0.017078 0.109587
0.807531 0.018843 0.109145
0.914347 0.020615 0.109328
0.996876 0.032894 0.119227
0.019895 0.177329 0.152511
0.156660 0.144217 0.124358
0.287010 0.133190 0.115042
0.418484 0.128615 0.111233
0.549518 0.126629 0.109635
0.676929 0.125945 0.109150
0.797090 0.126011 0.109307
0.903571 0.136850 0.119267
0.996949 0.139699 0.121844
0.019754 0.296435 0.123598
0.144948 0.272665 0.115375
0.287010 0.271646 0.115042
0.418484 0.259125 0.111233
0.549518 0.252378 0.109635
0.676929 0.248532 0.109150
0.797090 0.246355 0.109307
0.903571 0.254219 0.119267
0.996949 0.257246 0.121844
0.020890 0.419915 0.114750
0.139591 0.401281 0.111376
0.274267 0.401281 0.111376
0.418484 0.400383 0.111233
0.549518 0.388467 0.109635
0.676929 0.381140 0.109150
0.797090 0.376459 0.109307
0.903571 0.380430 0.119267
0.996949 0.383507 0.121844
0.022365 0.544892 0.111107
0.137189 0.529902 0.109690
0.266825 0.529902 0.109690
0.406577 0.529902 0.109690
0.549518 0.529131 0.109635
0.676929 0.518401 0.109150
0.797090 0.511233 0.109307
0.903571 0.510870 0.119267
0.996949 0.513880 0.121844
0.023981 0.667737 0.109587
0.136258 0.655595 0.109158
0.262560 0.655595 0.109158
0.398684 0.655595 0.109158
0.538929 0.655595 0.109158
0.676929 0.654945 0.109150
0.797090 0.645584 0.109307
0.903571 0.640928 0.119267
0.996949 0.643765 0.121844
0.025669 0.784724 0.109145
0.136169 0.774960 0.109285
0.260110 0.774960 0.109285
0.393629 0.774960 0.109285
0.531324 0.774960 0.109285
0.667793 0.774960 0.109285
0.797090 0.774422 0.109307
0.903571 0.765991 0.119267
0.996949 0.768562 0.121844
0.027400 0.892130 0.109328
0.144128 0.884091 0.116544
0.265617 0.884091 0.116544
0.395991 0.884091 0.116544
0.530245 0.884091 0.116544
0.663375 0.884091 0.116544
0.790376 0.884091 0.116544
0.903571 0.881447 0.119267
0.996949 0.883671 0.121844
0.040065 0.981880 0.119387
0.150058 0.983607 0.121844
0.270945 0.983607 0.121844
0.400348 0.983607 0.121844
0.533398 0.983607 0.121844
0.665230 0.983607 0.121844
0.790975 0.983607 0.121844
0.905768 0.983607 0.121844
0.996949 0.983607 0.121844
0.019671 0.011718 0.265785
0.157802 0.011718 0.265785
0.313260 0.011899 0.261761
0.438878 0.013589 0.239200
0.565811 0.015324 0.228619
0.690030 0.017078 0.222915
0.807531 0.018843 0.219684
0.914347 0.020615 0.217883
0.996876 0.032894 0.225215
0.019713 0.144217 0.263627
0.144948 0.133587 0.240881
0.286058 0.132843 0.239200
0.417650 0.128462 0.228619
0.548805 0.126567 0.222915
0.676331 0.125933 0.219684
0.796599 0.126030 0.217883
0.903696 0.137012 0.225414
0.996949 0.139859 0.228154
0.019754 0.296435 0.261761
0.144122 0.270749 0.239200
0.273711 0.259125 0.229023
0.406016 0.252378 0.223142
0.538406 0.248532 0.219813
0.667327 0.246355 0.217953
0.788402 0.254219 0.225257
0.905926 0.257463 0.228196
0.996949 0.260449 0.230901
0.020890 0.419915 0.239200
0.139221 0.399585 0.228619
0.266825 0.389003 0.223396
0.406016 0.388467 0.223142
0.538406 0.381140 0.219813
0.667327 0.376459 0.217953
0.788402 0.380430 0.225257
0.905926 0.383727 0.228196
0.996949 0.386764 0.230901
0.022365 0.544892 0.228619
0.137030 0.528442 0.222915
0.262560 0.518906 0.219958
0.398684 0.518906 0.219958
0.538406 0.518401 0.219813
0.667327 0.511233 0.217953
0.788402 0.510870 0.225257
0.905926 0.514095 0.228196
0.996949 0.517069 0.230901
0.023981 0.667737 0.222915
0.136214 0.654361 0.219684
0.260110 0.646038 0.218031
0.393629 0.646038 0.218031
0.531324 0.646038 0.218031
0.667327 0.645584 0.217953
0.788402 0.640928 0.225257
0.905926 0.643968 0.228196
0.996949 0.646775 0.230901
0.025669 0.784724 0.219684
0.136195 0.773937 0.217883
0.265617 0.767899 0.223194
0.395991 0.767899 0.223194
0.530245 0.767899 0.223194
0.663375 0.767899 0.223194
0.788402 0.765991 0.225257
0.905926 0.768746 0.228196
0.996949 0.771294 0.230901
0.027400 0.892130 0.217883
0.147295 0.881574 0.225414
0.270977 0.883694 0.228028
0.400380 0.883694 0.228028
0.533429 0.883694 0.228028
0.665259 0.883694 0.228028
0.791002 0.883694 0.228028
0.905926 0.883831 0.228196
0.996949 0.886037 0.230901
0.040065 0.981880 0.225385
0.150402 0.983820 0.228322
0.274227 0.985536 0.230901
0.403673 0.985536 0.230901
0.536638 0.985536 0.230901
0.668268 0.985536 0.230901
0.793709 0.985536 0.230901
0.908106 0.985536 0.230901
0.996949 0.985536 0.230901
0.020742 0.013400 0.377405
0.144948 0.013400 0.377405
0.288091 0.013400 0.377405
0.438878 0.013589 0.374579
0.565811 0.015324 0.356418
0.690030 0.017078 0.346087
0.807531 0.018843 0.339734
0.914347 0.020615 0.335687
0.996876 0.032894 0.339635
0.020819 0.133190 0.375903
0.139591 0.128790 0.357931
0.274267 0.128790 0.357931
0.417650 0.128462 0.356418
0.548805 0.126567 0.346087
0.676331 0.125933 0.339734
0.796599 0.126030 0.335687
0.903696 0.137012 0.339838
0.996949 0.139859 0.342641
0.020819 0.271646 0.375903
0.139394 0.259125 0.357130
0.266825 0.252671 0.346988
0.405515 0.252117 0.346087
0.537937 0.248382 0.339734
0.666908 0.246273 0.335687
0.788549 0.254392 0.339838
0.906050 0.257633 0.342841
0.996949 0.260617 0.345608
0.020890 0.419915 0.374579
0.139221 0.399585 0.356418
0.266232 0.387989 0.346087
0.398329 0.381140 0.340002
0.530968 0.376459 0.335859
0.662366 0.380430 0.339679
0.791160 0.383727 0.342684
0.908263 0.386982 0.345651
0.996949 0.389985 0.348389
0.022365 0.544892 0.356418
0.137030 0.528442 0.346087
0.262216 0.517949 0.339734
0.393629 0.511575 0.336051
0.530968 0.511233 0.335859
0.662366 0.510870 0.339679
0.791160 0.514095 0.342684
0.908263 0.517282 0.345651
0.996949 0.520225 0.348389
0.023981 0.667737 0.346087
0.136214 0.654361 0.339734
0.259918 0.645176 0.335687
0.395991 0.641863 0.338488
0.530245 0.641863 0.338488
0.662366 0.640928 0.339679
0.791160 0.643968 0.342684
0.908263 0.646976 0.345651
0.996949 0.649757 0.348389
0.025669 0.784724 0.339734
0.136195 0.773937 0.335687
0.268020 0.766137 0.339838
0.400380 0.768588 0.342512
0.533429 0.768588 0.342512
0.665259 0.768588 0.342512
0.791160 0.768746 0.342684
0.908263 0.771476 0.345651
0.996949 0.774003 0.348389
0.027400 0.892130 0.335687
0.147295 0.881574 0.339838
0.271341 0.883956 0.342841
0.403705 0.886060 0.345481
0.536669 0.886060 0.345481
0.668297 0.886060 0.345481
0.793735 0.886060 0.345481
0.908263 0.886195 0.345651
0.996949 0.888386 0.348389
0.040065 0.981880 0.339809
0.150402 0.983820 0.342813
0.274587 0.985748 0.345778
0.406961 0.987453 0.348389
0.539844 0.987453 0.348389
0.671278 0.987453 0.348389
0.796420 0.987453 0.348389
0.910427 0.987453 0.348389
0.996949 0.987453 0.348389
0.022194 0.015131 0.491709
0.139591 0.015131 0.491709
0.274267 0.015131 0.491709
0.419423 0.015131 0.491709
0.565811 0.015324 0.489553
0.690030 0.017078 0.474618
0.807531 0.018843 0.465115
0.914347 0.020615 0.458771
0.996876 0.032894 0.458886
0.022283 0.128615 0.490568
0.137189 0.126701 0.475941
0.266825 0.126701 0.475941
0.406577 0.126701 0.475941
0.548805 0.126567 0.474618
0.676331 0.125933 0.465115
0.796599 0.126030 0.458771
0.903696 0.137012 0.459087
0.996949 0.139859 0.461858
0.022283 0.259125 0.490568
0.137104 0.252378 0.475243
0.262560 0.248700 0.465981
0.398684 0.248700 0.465981
0.537937 0.248382 0.465115
0.666908 0.246273 0.458771
0.788549 0.254392 0.459087
0.906050 0.257633 0.462056
0.996949 0.260617 0.464795
0.022283 0.400383 0.490568
0.137104 0.388467 0.475243
0.262378 0.381140 0.465525
0.393629 0.376677 0.459358
0.530648 0.376264 0.458771
0.662529 0.380605 0.459087
0.791305 0.383900 0.462056
0.908385 0.387153 0.464991
0.996949 0.390154 0.467703
0.022365 0.544892 0.489553
0.137030 0.528442 0.474618
0.262216 0.517949 0.465115
0.393193 0.510925 0.458771
0.530341 0.510870 0.458929
0.665435 0.514095 0.461900
0.793892 0.517282 0.464837
0.910582 0.520436 0.467745
0.996949 0.523352 0.470433
0.023981 0.667737 0.474618
0.136214 0.654361 0.465115
0.259918 0.645176 0.458771
0.397386 0.641089 0.459087
0.533429 0.643794 0.461730
0.665435 0.643968 0.461900
0.793892 0.646976 0.464837
0.910582 0.649956 0.467745
0.996949 0.652714 0.470433
0.025669 0.784724 0.465115
0.136195 0.773937 0.458771
0.268020 0.766137 0.459087
0.400749 0.768891 0.462056
0.536669 0.771320 0.464669
0.668297 0.771320 0.464669
0.793892 0.771476 0.464837
0.910582 0.774184 0.467745
0.996949 0.776692 0.470433
0.027400 0.892130 0.458771
0.147295 0.881574 0.459087
0.271341 0.883956 0.462056
0.404069 0.886320 0.464991
0.539875 0.888409 0.467578
0.671307 0.888409 0.467578
0.796446 0.888409 0.467578
0.910582 0.888543 0.467745
0.996949 0.890720 0.470433
0.040065 0.981880 0.459058
0.150402 0.983820 0.462028
0.274587 0.985748 0.464963
0.407322 0.987664 0.467870
0.543021 0.989359 0.470433
0.674263 0.989359 0.470433
0.799110 0.989359 0.470433
0.912731 0.989359 0.470433
0.996949 0.989359 0.470433
0.023798 0.016884 0.605730
0.137189 0.016884 0.605730
0.266825 0.016884 0.605730
0.406577 0.016884 0.605730
0.550315 0.016884 0.605730
0.690030 0.017078 0.604026
0.807531 0.018843 0.591647
0.914347 0.020615 0.583169
0.996876 0.032894 0.579364
0.023893 0.126629 0.604831
0.136258 0.125961 0.592787
0.262560 0.125961 0.592787
0.398684 0.125961 0.592787
0.538929 0.125961 0.592787
0.676331 0.125933 0.591647
0.796599 0.126030 0.583169
0.903696 0.137012 0.579557
0.996949 0.139859 0.582211
0.023893 0.252378 0.604831
0.136234 0.248532 0.592186
0.260110 0.246447 0.583964
0.393629 0.246447 0.583964
0.531324 0.246447 0.583964
0.666908 0.246273 0.583169
0.788549 0.254392 0.579557
0.906050 0.257633 0.582402
0.996949 0.260617 0.585029
0.023893 0.388467 0.604831
0.136234 0.381140 0.592186
0.260008 0.376459 0.583545
0.395991 0.379179 0.580225
0.530245 0.379179 0.580225
0.662529 0.380605 0.579557
0.791305 0.383900 0.582402
0.908385 0.387153 0.585218
0.996949 0.390154 0.587822
0.023893 0.529131 0.604831
0.136234 0.518401 0.592186
0.260008 0.511233 0.583545
0.397207 0.510870 0.579406
0.533429 0.513910 0.582089
0.665596 0.514264 0.582402
0.794035 0.517449 0.585218
0.910704 0.520602 0.588009
0.996949 0.523517 0.590593
0.023981 0.667737 0.604026
0.136214 0.654361 0.591647
0.259918 0.645176 0.583169
0.397386 0.641089 0.579557
0.533789 0.644127 0.582402
0.668471 0.646976 0.585070
0.796601 0.649956 0.587862
0.912886 0.652912 0.590632
0.996949 0.655648 0.593198
0.025669 0.784724 0.591647
0.136195 0.773937 0.583169
0.268020 0.766137 0.579557
0.400749 0.768891 0.582402
0.537024 0.771620 0.585218
0.671307 0.774029 0.587702
0.796601 0.774184 0.587862
0.912886 0.776872 0.590632
0.996949 0.779362 0.593198
0.027400 0.892130 0.583169
0.147295 0.881574 0.579557
0.271341 0.883956 0.582402
0.404069 0.886320 0.585218
0.540227 0.888667 0.588009
0.674291 0.890742 0.590473
0.799136 0.890742 0.590473
0.912886 0.890876 0.590632
0.996949 0.893038 0.593198
0.040065 0.981880 0.579529
0.150402 0.983820 0.582374
0.274587 0.985748 0.585191
0.407322 0.987664 0.587982
0.543370 0.989568 0.590752
0.677224 0.991253 0.593198
0.801781 0.991253 0.593198
0.915021 0.991253 0.593198
0.996949 0.991253 0.593198
0.025480 0.018647 0.716512
0.136258 0.018647 0.716512
0.262560 0.018647 0.716512
0.398684 0.018647 0.716512
0.538929 0.018647 0.716512
0.677596 0.018647 0.716512
0.807531 0.018843 0.715148
0.914347 0.020615 0.704912
0.996876 0.032894 0.697469
0.025578 0.125945 0.715794
0.136169 0.125993 0.705881
0.260110 0.125993 0.705881
0.393629 0.125993 0.705881
0.531324 0.125993 0.705881
0.667793 0.125993 0.705881
0.796599 0.126030 0.704912
0.903696 0.137012 0.697647
0.996949 0.139859 0.700110
0.025578 0.248532 0.715794
0.136182 0.246355 0.705371
0.265617 0.251992 0.699280
0.395991 0.251992 0.699280
0.530245 0.251992 0.699280
0.663375 0.251992 0.699280
0.788549 0.254392 0.697647
0.906050 0.257633 0.700286
0.996949 0.260617 0.702728
0.025578 0.381140 0.715794
0.136182 0.376459 0.705371
0.267843 0.380430 0.697507
0.400380 0.383538 0.699996
0.533429 0.383538 0.699996
0.665259 0.383538 0.699996
0.791305 0.383900 0.700286
0.908385 0.387153 0.702903
0.996949 0.390154 0.705326
0.025578 0.518401 0.715794
0.136182 0.511233 0.705371
0.267843 0.510870 0.697507
0.400572 0.514095 0.700148
0.536669 0.517099 0.702615
0.668297 0.517099 0.702615
0.794035 0.517449 0.702903
0.910704 0.520602 0.705500
0.996949 0.523517 0.707906
0.025578 0.654945 0.715794
0.136182 0.645584 0.705371
0.267843 0.640928 0.697507
0.400572 0.643968 0.700148
0.536854 0.646976 0.702766
0.671307 0.649785 0.705214
0.796744 0.650113 0.705500
0.913007 0.653067 0.708079
0.996949 0.655802 0.710470
0.025669 0.784724 0.715148
0.136195 0.773937 0.704912
0.268020 0.766137 0.697647
0.400749 0.768891 0.700286
0.537024 0.771620 0.702903
0.671637 0.774327 0.705500
0.799290 0.776872 0.707943
0.915174 0.779541 0.710507
0.996949 0.782015 0.712884
0.027400 0.892130 0.704912
0.147295 0.881574 0.697647
0.271341 0.883956 0.700286
0.404069 0.886320 0.702903
0.540227 0.888667 0.705500
0.674619 0.890999 0.708079
0.801806 0.893060 0.710360
0.915174 0.893194 0.710507
0.996949 0.895343 0.712884
0.040065 0.981880 0.697622
0.150402 0.983820 0.700261
0.274587 0.985748 0.702878
0.407322 0.987664 0.705475
0.543370 0.989568 0.708054
0.677550 0.991461 0.710617
0.804434 0.993135 0.712884
0.917296 0.993135 0.712884
0.996949 0.993135 0.712884
0.027207 0.020419 0.821122
0.136169 0.020419 0.821122
0.260110 0.020419 0.821122
0.393629 0.020419 0.821122
0.531324 0.020419 0.821122
0.667793 0.020419 0.821122
0.797636 0.020419 0.821122
0.914347 0.020615 0.820034
0.996876 0.032894 0.809597
0.027308 0.126011 0.820550
0.144128 0.133882 0.812199
0.265617 0.133882 0.812199
0.395991 0.133882 0.812199
0.530245 0.133882 0.812199
0.663375 0.133882 0.812199
0.790376 0.133882 0.812199
0.903696 0.137012 0.809756
0.996949 0.139859 0.811960
0.027308 0.246355 0.820550
0.147128 0.254219 0.809631
0.270977 0.257277 0.811859
0.400380 0.257277 0.811859
0.533429 0.257277 0.811859
0.665259 0.257277 0.811859
0.791002 0.257277 0.811859
0.906050 0.257633 0.812119
0.996949 0.260617 0.814308
0.027308 0.376459 0.820550
0.147128 0.380430 0.809631
0.271167 0.383727 0.811994
0.403705 0.386795 0.814207
0.536669 0.386795 0.814207
0.668297 0.386795 0.814207
0.793735 0.386795 0.814207
0.908385 0.387153 0.814465
0.996949 0.390154 0.816641
0.027308 0.511233 0.820550
0.147128 0.510870 0.809631
0.271167 0.514095 0.811994
0.403895 0.517282 0.814342
0.539875 0.520255 0.816540
0.671307 0.520255 0.816540
0.796446 0.520255 0.816540
0.910704 0.520602 0.816797
0.996949 0.523517 0.818960
0.027308 0.645584 0.820550
0.147128 0.640928 0.809631
0.271167 0.643968 0.811994
0.403895 0.646976 0.814342
0.540059 0.649956 0.816674
0.674291 0.652742 0.818860
0.799136 0.652742 0.818860
0.913007 0.653067 0.819115
0.996949 0.655802 0.821266
0.027308 0.774422 0.820550
0.147128 0.765991 0.809631
0.271167 0.768746 0.811994
0.403895 0.771476 0.814342
0.540059 0.774184 0.816674
0.674462 0.776872 0.818993
0.801806 0.779388 0.821166
0.915294 0.779681 0.821420
0.996949 0.782155 0.823560
0.027400 0.892130 0.820034
0.147295 0.881574 0.809756
0.271341 0.883956 0.812119
0.404069 0.886320 0.814465
0.540227 0.888667 0.816797
0.674619 0.890999 0.819115
0.802100 0.893316 0.821420
0.917448 0.895497 0.823593
0.996949 0.897634 0.825723
0.040065 0.981880 0.809733
0.150402 0.983820 0.812096
0.274587 0.985748 0.814443
0.407322 0.987664 0.816775
0.543370 0.989568 0.819093
0.677550 0.991461 0.821398
0.804726 0.993343 0.823692
0.919557 0.995007 0.825723
0.996949 0.995007 0.825723
0.036528 0.029581 0.915287
0.144128 0.029581 0.915287
0.265617 0.029581 0.915287
0.395991 0.029581 0.915287
0.530245 0.029581 0.915287
0.663375 0.029581 0.915287
0.790376 0.029581 0.915287
0.906242 0.029581 0.915287
0.996876 0.032894 0.912145
0.039943 0.136850 0.912175
0.150087 0.139728 0.914084
0.270977 0.139728 0.914084
0.400380 0.139728 0.914084
0.533429 0.139728 0.914084
0.665259 0.139728 0.914084
0.791002 0.139728 0.914084
0.905791 0.139728 0.914084
0.996949 0.139859 0.914171
0.039943 0.254219 0.912175
0.150267 0.257463 0.914200
0.274258 0.260480 0.916099
0.403705 0.260480 0.916099
0.536669 0.260480 0.916099
0.668297 0.260480 0.916099
0.793735 0.260480 0.916099
0.908128 0.260480 0.916099
0.996949 0.260617 0.916186
0.039943 0.380430 0.912175
0.150267 0.383727 0.914200
0.274446 0.386982 0.916215
0.406992 0.390016 0.918104
0.539875 0.390016 0.918104
0.671307 0.390016 0.918104
0.796446 0.390016 0.918104
0.910449 0.390016 0.918104
0.996949 0.390154 0.918191
0.039943 0.510870 0.912175
0.150267 0.514095 0.914200
0.274446 0.517282 0.916215
0.407180 0.520436 0.918219
0.543051 0.523382 0.920100
0.674291 0.523382 0.920100
0.799136 0.523382 0.920100
0.912753 0.523382 0.920100
0.996949 0.523517 0.920186
0.039943 0.640928 0.912175
0.150267 0.643968 0.914200
0.274446 0.646976 0.916215
0.407180 0.649956 0.918219
0.543233 0.652912 0.920215
0.677252 0.655676 0.922086
0.801806 0.655676 0.922086
0.915043 0.655676 0.922086
0.996949 0.655802 0.922172
0.039943 0.765991 0.912175
0.150267 0.768746 0.914200
0.274446 0.771476 0.916215
0.407180 0.774184 0.918219
0.543233 0.776872 0.920215
0.677422 0.779541 0.922201
0.804460 0.782040 0.924064
0.917317 0.782040 0.924064
0.996949 0.782155 0.924149
0.039943 0.881447 0.912175
0.150267 0.883831 0.914200
0.274446 0.886195 0.916215
0.407180 0.888543 0.918219
0.543233 0.890876 0.920215
0.677422 0.893194 0.922201
0.804612 0.895497 0.924177
0.919579 0.897656 0.926032
0.996949 0.897755 0.926117
0.040065 0.981880 0.912262
0.150402 0.983820 0.914287
0.274587 0.985748 0.916301
0.407322 0.987664 0.918306
0.543370 0.989568 0.920301
0.677550 0.991461 0.922286
0.804726 0.993343 0.924263
0.919806 0.995213 0.926230
0.996949 0.996868 0.927974
