assets/luts/film98.cube
# MoodFilm Filter — film98
TITLE "film98"
LUT_3D_SIZE 9
0.190944 0.146603 0.146603
0.264211 0.150748 0.150748
0.336021 0.154810 0.154810
0.406990 0.158825 0.158825
0.477364 0.162806 0.162806
0.547279 0.166761 0.166761
0.616818 0.170695 0.170695
0.686042 0.174611 0.174611
0.721772 0.176633 0.176633
0.200372 0.224072 0.159437
0.273744 0.228223 0.163588
0.345606 0.232289 0.167653
0.416609 0.236305 0.171670
0.487008 0.240288 0.175653
0.556942 0.244244 0.179609
0.626498 0.248179 0.183544
0.695736 0.252096 0.187461
0.734810 0.254307 0.189671
0.210357 0.307617 0.173269
0.283856 0.311775 0.177427
0.355777 0.315844 0.181496
0.426818 0.319863 0.185515
0.497246 0.323847 0.189499
0.567203 0.327805 0.193457
0.636778 0.331741 0.197392
0.706032 0.335658 0.201310
0.748873 0.338082 0.203734
0.220096 0.389770 0.186867
0.293730 0.393936 0.191032
0.365712 0.398008 0.195105
0.436792 0.402029 0.199126
0.507249 0.406015 0.203112
0.577265 0.409976 0.207073
0.647984 0.413977 0.211073
0.718369 0.417958 0.215055
0.762702 0.420466 0.217563
0.229673 0.471053 0.200318
0.303454 0.475227 0.204492
0.375957 0.479328 0.208593
0.448219 0.483416 0.212681
0.519831 0.487467 0.216733
0.590949 0.491491 0.220756
0.661667 0.495491 0.224756
0.732052 0.499473 0.228738
0.776385 0.501981 0.231246
0.241287 0.551823 0.213784
0.316319 0.556067 0.218028
0.389533 0.560209 0.222170
0.461796 0.564297 0.226258
0.533408 0.568349 0.230309
0.604525 0.572372 0.234333
0.675349 0.576478 0.238355
0.746178 0.580909 0.242430
0.790096 0.583662 0.244957
0.254780 0.632205 0.227277
0.329812 0.636450 0.231521
0.403027 0.640592 0.235663
0.475560 0.644948 0.239807
0.547621 0.649446 0.243951
0.619183 0.653917 0.248067
0.690344 0.658364 0.252160
0.761167 0.662793 0.256234
0.803829 0.665473 0.258690
0.268665 0.712608 0.240792
0.344147 0.717298 0.245129
0.417806 0.721885 0.249363
0.490510 0.726418 0.253543
0.562560 0.730914 0.257686
0.634114 0.735382 0.261801
0.705267 0.739827 0.265894
0.776085 0.744254 0.269967
0.817491 0.746861 0.272352
0.283642 0.793728 0.254473
0.359070 0.798413 0.258807
0.432708 0.802997 0.263040
0.505398 0.807528 0.267219
0.577438 0.812022 0.271361
0.648984 0.816487 0.275476
0.720130 0.820931 0.279567
0.790943 0.825355 0.283640
0.831093 0.827891 0.285954
0.191620 0.147560 0.195408
0.264903 0.151713 0.199939
0.336725 0.155784 0.204389
0.407705 0.159806 0.208790
0.478089 0.163796 0.213157
0.548012 0.167758 0.217499
0.617561 0.171700 0.221819
0.686793 0.175624 0.226121
0.722805 0.177666 0.228401
0.201070 0.225053 0.209396
0.274459 0.229212 0.213933
0.346333 0.233285 0.218385
0.417346 0.237310 0.222788
0.487755 0.241300 0.227157
0.557699 0.245264 0.231499
0.627264 0.249207 0.235820
0.696510 0.253132 0.240122
0.735866 0.255363 0.242592
0.211080 0.308624 0.224527
0.284597 0.312790 0.229071
0.356529 0.316866 0.233526
0.427581 0.320893 0.237930
0.498019 0.324885 0.242300
0.567986 0.328851 0.246644
0.637570 0.332794 0.250965
0.706832 0.336720 0.255268
0.749955 0.339164 0.257951
0.220844 0.390802 0.239422
0.294496 0.394976 0.243974
0.366490 0.399056 0.248432
0.437581 0.403085 0.252838
0.508048 0.407079 0.257210
0.578351 0.411061 0.261464
0.649070 0.415062 0.265465
0.719455 0.419044 0.269447
0.763787 0.421552 0.271955
0.230446 0.472111 0.254170
0.304246 0.476293 0.258729
0.377042 0.480414 0.262985
0.449305 0.484502 0.267073
0.520917 0.488553 0.271124
0.592034 0.492576 0.275147
0.662753 0.496577 0.279148
0.733138 0.500559 0.283130
0.777471 0.503067 0.285638
0.242372 0.552908 0.268175
0.317405 0.557153 0.272420
0.390619 0.561295 0.276562
0.462882 0.565383 0.280650
0.534494 0.569434 0.284701
0.605611 0.573457 0.288724
0.676545 0.577674 0.292770
0.747374 0.582106 0.296845
0.791199 0.584853 0.299367
0.255865 0.633291 0.281668
0.330898 0.637536 0.285913
0.404112 0.641678 0.290055
0.476758 0.646144 0.294222
0.548818 0.650643 0.298366
0.620380 0.655113 0.302482
0.691539 0.659561 0.306575
0.762363 0.663989 0.310649
0.804932 0.666664 0.313100
0.269869 0.713804 0.295207
0.345347 0.718494 0.299544
0.419004 0.723081 0.303778
0.491707 0.727614 0.307958
0.563757 0.732110 0.312101
0.635310 0.736578 0.316216
0.706463 0.741023 0.320308
0.777281 0.745449 0.324382
0.818594 0.748052 0.326761
0.284846 0.794924 0.308888
0.360271 0.799609 0.313222
0.433906 0.804193 0.317454
0.506595 0.808723 0.321634
0.578635 0.813217 0.325776
0.650180 0.817683 0.329890
0.721326 0.822126 0.333982
0.792138 0.826550 0.338055
0.832196 0.829080 0.340363
0.192641 0.148968 0.267069
0.265935 0.153121 0.271591
0.337763 0.157192 0.276029
0.408746 0.161215 0.280420
0.479133 0.165203 0.284778
0.549058 0.169166 0.289109
0.618609 0.173108 0.293418
0.687842 0.177032 0.297710
0.724234 0.179095 0.300006
0.202089 0.226460 0.281025
0.275490 0.230619 0.285553
0.347370 0.234693 0.289995
0.418387 0.238717 0.294388
0.488798 0.242708 0.298746
0.558744 0.246672 0.303078
0.628311 0.250614 0.307389
0.697559 0.254539 0.311681
0.737295 0.256791 0.314166
0.212097 0.310030 0.296121
0.285627 0.314196 0.300656
0.357565 0.318273 0.305101
0.428621 0.322300 0.309496
0.499062 0.326292 0.313856
0.569030 0.330257 0.318189
0.638616 0.334201 0.322500
0.707880 0.338126 0.326794
0.751383 0.340592 0.329492
0.221858 0.392208 0.310982
0.295525 0.396382 0.315525
0.367525 0.400462 0.319973
0.438620 0.404491 0.324370
0.509090 0.408485 0.328731
0.579776 0.412487 0.332873
0.650495 0.416487 0.336874
0.720880 0.420469 0.340856
0.765213 0.422977 0.343364
0.231459 0.473515 0.325696
0.305273 0.477698 0.330247
0.378467 0.481839 0.334394
0.450730 0.485927 0.338482
0.522342 0.489978 0.342533
0.593459 0.494001 0.346556
0.664178 0.498002 0.350557
0.734563 0.501984 0.354539
0.778896 0.504492 0.357047
0.243797 0.554333 0.339584
0.318830 0.558578 0.343829
0.392044 0.562720 0.347971
0.464307 0.566808 0.352059
0.535919 0.570859 0.356110
0.607036 0.574883 0.360133
0.678122 0.579252 0.364210
0.748950 0.583684 0.368285
0.792649 0.586424 0.370800
0.257291 0.634716 0.353077
0.332323 0.638961 0.357322
0.405622 0.643186 0.361481
0.478337 0.647721 0.365662
0.550397 0.652220 0.369806
0.621957 0.656690 0.373922
0.693116 0.661138 0.378015
0.763939 0.665566 0.382089
0.806382 0.668234 0.384533
0.271457 0.715381 0.366647
0.346929 0.720071 0.370984
0.420585 0.724657 0.375218
0.493286 0.729190 0.379398
0.565335 0.733686 0.383541
0.636887 0.738154 0.387656
0.708040 0.742599 0.391749
0.778857 0.747025 0.395822
0.820044 0.749621 0.398195
0.286433 0.796500 0.380329
0.361853 0.801185 0.384662
0.435487 0.805769 0.388895
0.508174 0.810299 0.393074
0.580213 0.814793 0.397216
0.651757 0.819258 0.401330
0.722903 0.823702 0.405422
0.793714 0.828126 0.409495
0.833645 0.830649 0.411796
0.193634 0.150348 0.337344
0.266939 0.154502 0.341861
0.338773 0.158572 0.346295
0.409760 0.162595 0.350681
0.480149 0.166584 0.355033
0.550077 0.170547 0.359359
0.619629 0.174489 0.363664
0.688864 0.178413 0.367950
0.725636 0.180497 0.370264
0.203080 0.227839 0.351285
0.276494 0.231999 0.355808
0.348379 0.236073 0.360245
0.419400 0.240098 0.364632
0.489815 0.244088 0.368986
0.559762 0.248052 0.373313
0.629331 0.251995 0.377619
0.698581 0.255919 0.381906
0.738697 0.258193 0.384409
0.213087 0.311409 0.366363
0.286630 0.315576 0.370893
0.358574 0.319653 0.375333
0.429634 0.323680 0.379723
0.500077 0.327672 0.384078
0.570048 0.331637 0.388406
0.639636 0.335581 0.392713
0.708901 0.339507 0.397001
0.752782 0.341992 0.399634
0.222846 0.393586 0.381206
0.296528 0.397761 0.385744
0.368533 0.401842 0.390188
0.439632 0.405871 0.394580
0.510105 0.409865 0.398936
0.581175 0.413886 0.402972
0.651894 0.417886 0.406973
0.722279 0.421868 0.410955
0.766612 0.424376 0.413463
0.232445 0.474893 0.395903
0.306652 0.479096 0.400351
0.379866 0.483238 0.404493
0.452129 0.487326 0.408581
0.523741 0.491377 0.412632
0.594858 0.495400 0.416656
0.665577 0.499401 0.420656
0.735962 0.503383 0.424638
0.780295 0.505891 0.427146
0.245196 0.555732 0.409683
0.320229 0.559977 0.413928
0.393443 0.564119 0.418070
0.465706 0.568207 0.422158
0.537318 0.572258 0.426209
0.608507 0.576354 0.430247
0.679672 0.580804 0.434341
0.750501 0.585235 0.438416
0.794072 0.587968 0.440924
0.258690 0.636115 0.423177
0.333722 0.640360 0.427421
0.407176 0.644737 0.431612
0.479891 0.649272 0.435793
0.551949 0.653771 0.439937
0.623509 0.658241 0.444053
0.694667 0.662689 0.448146
0.765489 0.667117 0.452220
0.807805 0.669778 0.454656
0.273019 0.716932 0.436779
0.348486 0.721621 0.441115
0.422139 0.726208 0.445349
0.494839 0.730741 0.449529
0.566887 0.735236 0.453672
0.638439 0.739704 0.457787
0.709590 0.744149 0.461879
0.780407 0.748576 0.465953
0.821467 0.751164 0.468318
0.287995 0.798050 0.450460
0.363409 0.802735 0.454793
0.437041 0.807319 0.459026
0.509727 0.811849 0.463205
0.581765 0.816342 0.467347
0.653308 0.820808 0.471461
0.724453 0.825251 0.475553
0.795264 0.829675 0.479625
0.835068 0.832191 0.481919
0.194610 0.151711 0.406808
0.267928 0.155866 0.411322
0.339767 0.159937 0.415753
0.410758 0.163960 0.420135
0.481150 0.167949 0.424484
0.551080 0.171912 0.428807
0.620634 0.175854 0.433108
0.689870 0.179777 0.437391
0.727022 0.181883 0.439725
0.204056 0.229202 0.420738
0.277482 0.233363 0.425258
0.349373 0.237437 0.429692
0.420397 0.241462 0.434076
0.490815 0.245453 0.438427
0.560765 0.249417 0.442750
0.630335 0.253359 0.447052
0.699586 0.257284 0.451336
0.740083 0.259579 0.453859
0.214061 0.312772 0.435804
0.287617 0.316940 0.440332
0.359567 0.321017 0.444769
0.430631 0.325044 0.449155
0.501077 0.329036 0.453507
0.571050 0.333002 0.457832
0.640640 0.336945 0.462135
0.709907 0.340871 0.466420
0.754166 0.343375 0.468948
0.223818 0.394949 0.450636
0.297514 0.399125 0.455171
0.369526 0.403206 0.459611
0.440629 0.407235 0.464000
0.511441 0.411246 0.468263
0.582558 0.415269 0.472287
0.653277 0.419270 0.476287
0.723662 0.423251 0.480269
0.767995 0.425759 0.482777
0.233415 0.476256 0.465320
0.308035 0.480479 0.469666
0.381250 0.484621 0.473807
0.453512 0.488709 0.477895
0.525124 0.492761 0.481947
0.596242 0.496784 0.485970
0.666960 0.500784 0.489971
0.737345 0.504766 0.493952
0.781678 0.507274 0.496460
0.246580 0.557116 0.478998
0.321612 0.561361 0.483242
0.394826 0.565502 0.487384
0.467089 0.569590 0.491472
0.538701 0.573642 0.495523
0.610043 0.577890 0.499593
0.681207 0.582340 0.503687
0.752035 0.586771 0.507762
0.795480 0.589497 0.510262
0.260073 0.637499 0.492491
0.335105 0.641743 0.496736
0.408715 0.646272 0.500958
0.481428 0.650808 0.505139
0.553485 0.655306 0.509283
0.625044 0.659776 0.513399
0.696202 0.664224 0.517492
0.767024 0.668652 0.521566
0.809213 0.671306 0.523995
0.274565 0.718467 0.506125
0.350027 0.723156 0.510461
0.423678 0.727743 0.514695
0.496376 0.732275 0.518875
0.568423 0.736771 0.523018
0.639974 0.741239 0.527133
0.711125 0.745684 0.531225
0.781941 0.750110 0.535298
0.822874 0.752691 0.537656
0.289541 0.799585 0.519806
0.364950 0.804269 0.524139
0.438579 0.808853 0.528371
0.511264 0.813383 0.532550
0.583301 0.817877 0.536692
0.654844 0.822342 0.540807
0.725988 0.826785 0.544898
0.796798 0.831209 0.548971
0.836476 0.833718 0.551258
0.195575 0.153063 0.475695
0.268905 0.157219 0.480208
0.340750 0.161290 0.484636
0.411744 0.165313 0.489016
0.482139 0.169302 0.493362
0.552071 0.173265 0.497683
0.621627 0.177207 0.501981
0.690865 0.181131 0.506262
0.728397 0.183258 0.508615
0.205019 0.230554 0.489618
0.278458 0.234716 0.494136
0.350355 0.238790 0.498567
0.421383 0.242815 0.502949
0.491804 0.246806 0.507297
0.561756 0.250770 0.511618
0.631328 0.254713 0.515918
0.700581 0.258637 0.520199
0.741457 0.260954 0.522742
0.215023 0.314123 0.504675
0.288593 0.318292 0.509201
0.360549 0.322370 0.513635
0.431617 0.326397 0.518019
0.502066 0.330389 0.522369
0.572041 0.334355 0.526691
0.641632 0.338298 0.530992
0.711205 0.342239 0.535192
0.755538 0.344747 0.537700
0.224779 0.396300 0.519497
0.298489 0.400477 0.524031
0.370507 0.404558 0.528469
0.441614 0.408587 0.532855
0.512813 0.412618 0.537015
0.583931 0.416641 0.541039
0.654649 0.420642 0.545039
0.725034 0.424624 0.549021
0.769367 0.427132 0.551529
0.234375 0.477607 0.534173
0.309408 0.481852 0.538417
0.382622 0.485993 0.542559
0.454884 0.490081 0.546647
0.526496 0.494133 0.550698
0.597614 0.498156 0.554722
0.668332 0.502157 0.558722
0.738717 0.506138 0.562704
0.783058 0.508693 0.565220
0.247952 0.558488 0.547749
0.322984 0.562733 0.551994
0.396199 0.566875 0.556136
0.468461 0.570963 0.560224
0.540073 0.575014 0.564275
0.611567 0.579415 0.568377
0.682731 0.583865 0.572471
0.753558 0.588296 0.576545
0.796877 0.591015 0.579039
0.261445 0.638871 0.561243
0.336572 0.643207 0.565506
0.410243 0.647796 0.569742
0.482954 0.652332 0.573922
0.555010 0.656830 0.578066
0.626569 0.661300 0.582182
0.697726 0.665748 0.586275
0.768547 0.670176 0.590349
0.810609 0.672822 0.592771
0.276100 0.719991 0.574909
0.351556 0.724680 0.579245
0.425205 0.729266 0.583478
0.497902 0.733799 0.587658
0.569948 0.738295 0.591801
0.641498 0.742762 0.595916
0.712649 0.747207 0.600008
0.783464 0.751633 0.604081
0.824271 0.754207 0.606432
0.291075 0.801108 0.588590
0.366479 0.805792 0.592923
0.440107 0.810376 0.597155
0.512790 0.814906 0.601333
0.584826 0.819399 0.605475
0.656368 0.823865 0.609590
0.727511 0.828308 0.613681
0.798321 0.832732 0.617754
0.837872 0.835234 0.620034
0.196531 0.154406 0.544136
0.269872 0.158562 0.548647
0.341723 0.162634 0.553074
0.412722 0.166657 0.557452
0.483119 0.170647 0.561796
0.553054 0.174610 0.566114
0.622611 0.178552 0.570411
0.691851 0.182475 0.574690
0.729763 0.184624 0.577063
0.205974 0.231897 0.558052
0.279426 0.236059 0.562569
0.351328 0.240134 0.566999
0.422361 0.244159 0.571379
0.492784 0.248150 0.575725
0.562738 0.252114 0.580044
0.632313 0.256057 0.584341
0.701567 0.259982 0.588621
0.742823 0.262320 0.591183
0.215976 0.315466 0.573102
0.289559 0.319636 0.577627
0.361522 0.323713 0.582059
0.432593 0.327741 0.586442
0.503045 0.331733 0.590789
0.573023 0.335699 0.595109
0.642616 0.339643 0.599408
0.712568 0.343603 0.603505
0.756901 0.346111 0.606013
0.225730 0.397643 0.587918
0.299455 0.401820 0.592450
0.371480 0.405902 0.596886
0.442591 0.409931 0.601271
0.514177 0.413981 0.605329
0.585294 0.418004 0.609352
0.656013 0.422005 0.613353
0.726398 0.425987 0.617335
0.770730 0.428495 0.619843
0.235738 0.478970 0.602486
0.310771 0.483215 0.606731
0.383985 0.487357 0.610873
0.456248 0.491445 0.614961
0.527860 0.495496 0.619012
0.598977 0.499519 0.623035
0.669696 0.503520 0.627036
0.740081 0.507502 0.631018
0.784446 0.510203 0.633558
0.249315 0.559851 0.616063
0.324348 0.564096 0.620308
0.397562 0.568238 0.624450
0.469825 0.572326 0.628538
0.541517 0.576458 0.632606
0.613083 0.580931 0.636722
0.684246 0.585381 0.640816
0.755073 0.589812 0.644890
0.798265 0.592524 0.647377
0.262808 0.640234 0.629556
0.338093 0.644722 0.633852
0.411761 0.649312 0.638087
0.484472 0.653847 0.642268
0.556527 0.658345 0.646411
0.628084 0.662816 0.650527
0.699241 0.667263 0.654620
0.770061 0.671691 0.658694
0.811997 0.674331 0.661109
0.277626 0.721506 0.643255
0.353077 0.726195 0.647590
0.426724 0.730781 0.651824
0.499420 0.735313 0.656003
0.571465 0.739809 0.660146
0.643014 0.744277 0.664261
0.714163 0.748722 0.668353
0.784978 0.753148 0.672426
0.825658 0.755715 0.674770
0.292601 0.802623 0.656935
0.368000 0.807307 0.661268
0.441625 0.811890 0.665500
0.514307 0.816420 0.669678
0.586342 0.820913 0.673820
0.657883 0.825379 0.677935
0.729026 0.829822 0.682026
0.799835 0.834246 0.686099
0.839259 0.836740 0.688371
0.197479 0.155742 0.612213
0.270833 0.159899 0.616723
0.342690 0.163971 0.621148
0.413692 0.167994 0.625524
0.484092 0.171984 0.629867
0.554029 0.175947 0.634184
0.623588 0.179889 0.638479
0.692830 0.183813 0.642756
0.731122 0.185983 0.645149
0.206921 0.233233 0.626123
0.280386 0.237396 0.630639
0.352294 0.241471 0.635067
0.423330 0.245496 0.639446
0.493756 0.249487 0.643790
0.563713 0.253451 0.648108
0.633289 0.257394 0.652404
0.702545 0.261319 0.656681
0.744182 0.263679 0.659264
0.216922 0.316801 0.641167
0.290519 0.320972 0.645691
0.362488 0.325050 0.650122
0.433563 0.329078 0.654503
0.504018 0.333070 0.658849
0.573998 0.337036 0.663167
0.643593 0.340980 0.667464
0.713925 0.344959 0.671460
0.758258 0.347467 0.673968
0.226674 0.398978 0.655977
0.300414 0.403156 0.660508
0.372445 0.407238 0.664943
0.443921 0.411286 0.669233
0.515533 0.415337 0.673284
0.586650 0.419361 0.677307
0.657369 0.423361 0.681308
0.727754 0.427343 0.685290
0.772087 0.429851 0.687797
0.237095 0.480326 0.670441
0.312127 0.484571 0.674686
0.385341 0.488713 0.678828
0.457604 0.492801 0.682916
0.529216 0.496852 0.686967
0.600333 0.500876 0.690990
0.671052 0.504876 0.694991
0.741506 0.508928 0.698987
0.785827 0.511705 0.701538
0.250671 0.561208 0.684018
0.325704 0.565452 0.688263
0.398918 0.569594 0.692405
0.471181 0.573682 0.696493
0.543027 0.577967 0.700592
0.614592 0.582440 0.704709
0.685754 0.586890 0.708802
0.756580 0.591321 0.712877
0.799645 0.594025 0.715356
0.264165 0.641590 0.697511
0.339607 0.646231 0.701839
0.413273 0.650820 0.706074
0.485982 0.655355 0.710254
0.558036 0.659854 0.714398
0.629593 0.664324 0.718514
0.700748 0.668771 0.722606
0.771568 0.673200 0.726680
0.813377 0.675831 0.729088
0.279145 0.723014 0.711241
0.354591 0.727702 0.715577
0.428235 0.732289 0.719810
0.500930 0.736821 0.723990
0.572974 0.741317 0.728132
0.644522 0.745784 0.732247
0.715671 0.750229 0.736339
0.786485 0.754655 0.740413
0.827038 0.757215 0.742749
0.294119 0.804130 0.724922
0.369514 0.808814 0.729254
0.443137 0.813397 0.733486
0.515817 0.817927 0.737665
0.587851 0.822420 0.741807
0.659391 0.826886 0.745921
0.730534 0.831329 0.750012
0.801342 0.835753 0.754085
0.840640 0.838240 0.756350
0.198421 0.157072 0.679981
0.271787 0.161229 0.684490
0.343650 0.165301 0.688914
0.414656 0.169325 0.693290
0.485059 0.173315 0.697631
0.554998 0.177278 0.701946
0.624559 0.181220 0.706240
0.693802 0.185144 0.710516
0.732475 0.187336 0.712930
0.207862 0.234563 0.693887
0.281340 0.238726 0.698403
0.353254 0.242801 0.702829
0.424294 0.246827 0.707207
0.494723 0.250818 0.711550
0.564682 0.254782 0.715866
0.634260 0.258725 0.720160
0.703518 0.262650 0.724437
0.745535 0.265031 0.727040
0.217861 0.318131 0.708926
0.291472 0.322302 0.713449
0.363447 0.326380 0.717879
0.434526 0.330408 0.722259
0.504984 0.334401 0.726603
0.574966 0.338367 0.730921
0.644890 0.342327 0.735130
0.715275 0.346309 0.739112
0.759608 0.348817 0.741620
0.227612 0.400307 0.723730
0.301367 0.404486 0.728261
0.373404 0.408568 0.732695
0.445271 0.412636 0.736884
0.516883 0.416688 0.740935
0.588000 0.420711 0.744958
0.658719 0.424712 0.748959
0.729104 0.428693 0.752941
0.773437 0.431201 0.755449
0.238445 0.481677 0.738093
0.313477 0.485921 0.742337
0.386691 0.490063 0.746479
0.458954 0.494151 0.750567
0.530566 0.498202 0.754618
0.601684 0.502226 0.758642
0.672402 0.506226 0.762642
0.743008 0.510432 0.766670
0.787202 0.513202 0.769214
0.252022 0.562558 0.751669
0.327054 0.566802 0.755914
0.400268 0.570944 0.760056
0.472531 0.575032 0.764144
0.544530 0.579470 0.768275
0.616094 0.583943 0.772392
0.687256 0.588393 0.776485
0.758082 0.592824 0.780560
0.801020 0.595521 0.783032
0.265622 0.643040 0.765184
0.341115 0.647733 0.769522
0.414779 0.652322 0.773757
0.487486 0.656858 0.777937
0.559539 0.661356 0.782081
0.631095 0.665826 0.786196
0.702250 0.670273 0.790289
0.773070 0.674702 0.794363
0.814752 0.677326 0.796764
0.280658 0.724516 0.778925
0.356098 0.729204 0.783260
0.429741 0.733790 0.787493
0.502434 0.738323 0.791673
0.574477 0.742818 0.795815
0.646024 0.747286 0.799930
0.717173 0.751731 0.804022
0.787986 0.756157 0.808095
0.828413 0.758709 0.810425
0.295632 0.805632 0.792606
0.371021 0.810315 0.796937
0.444642 0.814898 0.801169
0.517321 0.819428 0.805348
0.589354 0.823921 0.809489
0.660894 0.828387 0.813603
0.732035 0.832829 0.817695
0.802843 0.837253 0.821768
0.842014 0.839734 0.824026
