assets/luts/film03.cube
TITLE "film03"
LUT_3D_SIZE 33
0.083167 0.017046 0.006278
0.109677 0.010356 0.006694
0.136962 0.009967 0.007109
0.164970 0.010092 0.007523
0.193638 0.010367 0.007935
0.222905 0.010708 0.008347
0.252707 0.011083 0.008758
0.282980 0.011477 0.009169
0.313659 0.011883 0.009580
0.344681 0.012298 0.009990
0.375980 0.012719 0.010400
0.407492 0.013144 0.010809
0.439154 0.013573 0.011218
0.470901 0.014004 0.011628
0.502670 0.014437 0.012037
0.534397 0.014871 0.012446
0.566019 0.015307 0.012855
0.597471 0.015744 0.013264
0.628693 0.016182 0.013673
0.659620 0.016621 0.014082
0.690190 0.017061 0.014490
0.720341 0.017501 0.014899
0.750010 0.017942 0.015308
0.779135 0.018384 0.015717
0.807655 0.018826 0.016126
0.835507 0.019268 0.016536
0.862630 0.019711 0.016945
0.888961 0.020154 0.017354
0.914441 0.020598 0.017764
0.939421 0.021050 0.018180
0.965217 0.021540 0.018629
0.989759 0.022031 0.019079
0.996857 0.032868 0.029012
0.031421 0.100637 0.006598
0.109677 0.087470 0.006694
0.136962 0.062278 0.007109
0.164970 0.053037 0.007523
0.193638 0.048394 0.007935
0.222905 0.045702 0.008347
0.252707 0.044020 0.008758
0.282980 0.042928 0.009169
0.313659 0.042210 0.009580
0.344681 0.041746 0.009990
0.375980 0.041460 0.010400
0.407492 0.041305 0.010809
0.439154 0.041250 0.011218
0.470901 0.041271 0.011628
0.502670 0.041353 0.012037
0.534397 0.041484 0.012446
0.566019 0.041655 0.012855
0.597471 0.041859 0.013264
0.628693 0.042090 0.013673
0.659620 0.042345 0.014082
0.690190 0.042620 0.014490
0.720341 0.042912 0.014899
0.750010 0.043218 0.015308
0.779135 0.043538 0.015717
0.807655 0.043870 0.016126
0.835507 0.044211 0.016536
0.862630 0.044562 0.016945
0.888961 0.044921 0.017354
0.914441 0.045287 0.017764
0.939421 0.045681 0.018180
0.965217 0.046179 0.018629
0.989759 0.046678 0.019079
0.996857 0.057331 0.029012
0.023425 0.127142 0.007014
0.081849 0.127142 0.007014
0.136962 0.119537 0.007109
0.164970 0.099461 0.007523
0.193638 0.089205 0.007935
0.222905 0.083082 0.008347
0.252707 0.079086 0.008758
0.282980 0.076328 0.009169
0.313659 0.074354 0.009580
0.344681 0.072908 0.009990
0.375980 0.071835 0.010400
0.407492 0.071035 0.010809
0.439154 0.070442 0.011218
0.470901 0.070007 0.011628
0.502670 0.069699 0.012037
0.534397 0.069492 0.012446
0.566019 0.069367 0.012855
0.597471 0.069311 0.013264
0.628693 0.069312 0.013673
0.659620 0.069361 0.014082
0.690190 0.069452 0.014490
0.720341 0.069578 0.014899
0.750010 0.069734 0.015308
0.779135 0.069918 0.015717
0.807655 0.070125 0.016126
0.835507 0.070353 0.016536
0.862630 0.070600 0.016945
0.888961 0.070863 0.017354
0.914441 0.071140 0.017764
0.939421 0.071468 0.018180
0.965217 0.071971 0.018629
0.989759 0.072475 0.019079
0.996857 0.082851 0.029012
0.021025 0.154361 0.007427
0.067463 0.154361 0.007427
0.117627 0.154361 0.007427
0.164970 0.148940 0.007523
0.193638 0.132502 0.007935
0.222905 0.122614 0.008347
0.252707 0.116085 0.008758
0.282980 0.111506 0.009169
0.313659 0.108161 0.009580
0.344681 0.105645 0.009990
0.375980 0.103714 0.010400
0.407492 0.102212 0.010809
0.439154 0.101032 0.011218
0.470901 0.100101 0.011628
0.502670 0.099367 0.012037
0.534397 0.098792 0.012446
0.566019 0.098345 0.012855
0.597471 0.098005 0.013264
0.628693 0.097755 0.013673
0.659620 0.097579 0.014082
0.690190 0.097468 0.014490
0.720341 0.097412 0.014899
0.750010 0.097404 0.015308
0.779135 0.097438 0.015717
0.807655 0.097508 0.016126
0.835507 0.097611 0.016536
0.862630 0.097743 0.016945
0.888961 0.097900 0.017354
0.914441 0.098080 0.017764
0.939421 0.098333 0.018180
0.965217 0.098838 0.018629
0.989759 0.099344 0.019079
0.996857 0.109357 0.029012
0.020044 0.182240 0.007840
0.060548 0.182240 0.007840
0.103980 0.182240 0.007840
0.150004 0.182240 0.007840
0.193638 0.177990 0.007935
0.222905 0.164066 0.008347
0.252707 0.154822 0.008758
0.282980 0.148293 0.009169
0.313659 0.143479 0.009580
0.344681 0.139818 0.009990
0.375980 0.136968 0.010400
0.407492 0.134713 0.010809
0.439154 0.132905 0.011218
0.470901 0.131442 0.011628
0.502670 0.130252 0.012037
0.534397 0.129282 0.012446
0.566019 0.128489 0.012855
0.597471 0.127845 0.013264
0.628693 0.127323 0.013673
0.659620 0.126906 0.014082
0.690190 0.126578 0.014490
0.720341 0.126326 0.014899
0.750010 0.126140 0.015308
0.779135 0.126012 0.015717
0.807655 0.125935 0.016126
0.835507 0.125903 0.016536
0.862630 0.125910 0.016945
0.888961 0.125952 0.017354
0.914441 0.126026 0.017764
0.939421 0.126198 0.018180
0.965217 0.126701 0.018629
0.989759 0.127207 0.019079
0.996857 0.136776 0.029012
0.019636 0.210718 0.008252
0.056596 0.210718 0.008252
0.096042 0.210718 0.008252
0.137713 0.210718 0.008252
0.181351 0.210718 0.008252
0.222905 0.207205 0.008347
0.252707 0.195103 0.008758
0.282980 0.186519 0.009169
0.313659 0.180156 0.009580
0.344681 0.175286 0.009990
0.375980 0.171467 0.010400
0.407492 0.168416 0.010809
0.439154 0.165944 0.011218
0.470901 0.163920 0.011628
0.502670 0.162248 0.012037
0.534397 0.160859 0.012446
0.566019 0.159701 0.012855
0.597471 0.158733 0.013264
0.628693 0.157925 0.013673
0.659620 0.157251 0.014082
0.690190 0.156692 0.014490
0.720341 0.156232 0.014899
0.750010 0.155858 0.015308
0.779135 0.155557 0.015717
0.807655 0.155322 0.016126
0.835507 0.155145 0.016536
0.862630 0.155019 0.016945
0.888961 0.154939 0.017354
0.914441 0.154899 0.017764
0.939421 0.154983 0.018180
0.965217 0.155483 0.018629
0.989759 0.155986 0.019079
0.996857 0.165036 0.029012
0.019514 0.239738 0.008664
0.054120 0.239738 0.008664
0.090930 0.239738 0.008664
0.129729 0.239738 0.008664
0.170304 0.239738 0.008664
0.212440 0.239738 0.008664
0.252707 0.236732 0.008758
0.282980 0.226013 0.009169
0.313659 0.218039 0.009580
0.344681 0.211910 0.009990
0.375980 0.207080 0.010400
0.407492 0.203200 0.010809
0.439154 0.200036 0.011218
0.470901 0.197424 0.011628
0.502670 0.195247 0.012037
0.534397 0.193421 0.012446
0.566019 0.191880 0.012855
0.597471 0.190574 0.013264
0.628693 0.189465 0.013673
0.659620 0.188522 0.014082
0.690190 0.187722 0.014490
0.720341 0.187042 0.014899
0.750010 0.186469 0.015308
0.779135 0.185987 0.015717
0.807655 0.185586 0.016126
0.835507 0.185257 0.016536
0.862630 0.184990 0.016945
0.888961 0.184780 0.017354
0.914441 0.184620 0.017764
0.939421 0.184611 0.018180
0.965217 0.185104 0.018629
0.989759 0.185602 0.019079
0.996857 0.194064 0.029012
0.019556 0.269237 0.009075
0.052485 0.269237 0.009075
0.087423 0.269237 0.009075
0.124185 0.269237 0.009075
0.162587 0.269237 0.009075
0.202443 0.269237 0.009075
0.243569 0.269237 0.009075
0.282980 0.266605 0.009169
0.313659 0.256975 0.009580
0.344681 0.249550 0.009990
0.375980 0.243678 0.010400
0.407492 0.238943 0.010809
0.439154 0.235062 0.011218
0.470901 0.231843 0.011628
0.502670 0.229145 0.012037
0.534397 0.226866 0.012446
0.566019 0.224928 0.012855
0.597471 0.223271 0.013264
0.628693 0.221850 0.013673
0.659620 0.220628 0.014082
0.690190 0.219575 0.014490
0.720341 0.218668 0.014899
0.750010 0.217888 0.015308
0.779135 0.217217 0.015717
0.807655 0.216643 0.016126
0.835507 0.216154 0.016536
0.862630 0.215741 0.016945
0.888961 0.215395 0.017354
0.914441 0.215109 0.017764
0.939421 0.215001 0.018180
0.965217 0.215487 0.018629
0.989759 0.215976 0.019079
0.996857 0.223790 0.029012
0.019702 0.299156 0.009485
0.051374 0.299156 0.009485
0.084914 0.299156 0.009485
0.120158 0.299156 0.009485
0.156939 0.299156 0.009485
0.195093 0.299156 0.009485
0.234454 0.299156 0.009485
0.274858 0.299156 0.009485
0.313659 0.296812 0.009580
0.344681 0.288067 0.009990
0.375980 0.281132 0.010400
0.407492 0.275521 0.010809
0.439154 0.270909 0.011218
0.470901 0.267068 0.011628
0.502670 0.263836 0.012037
0.534397 0.261091 0.012446
0.566019 0.258745 0.012855
0.597471 0.256728 0.013264
0.628693 0.254986 0.013673
0.659620 0.253476 0.014082
0.690190 0.252164 0.014490
0.720341 0.251022 0.014899
0.750010 0.250028 0.015308
0.779135 0.249162 0.015717
0.807655 0.248409 0.016126
0.835507 0.247756 0.016536
0.862630 0.247190 0.016945
0.888961 0.246704 0.017354
0.914441 0.246287 0.017764
0.939421 0.246077 0.018180
0.965217 0.246551 0.018629
0.989759 0.247032 0.019079
0.996857 0.254141 0.029012
0.019916 0.329433 0.009895
0.050613 0.329433 0.009895
0.083070 0.329433 0.009895
0.117137 0.329433 0.009895
0.152663 0.329433 0.009895
0.189498 0.329433 0.009895
0.227490 0.329433 0.009895
0.266489 0.329433 0.009895
0.306345 0.329433 0.009895
0.344681 0.327320 0.009990
0.375980 0.319310 0.010400
0.407492 0.312814 0.010809
0.439154 0.307460 0.011218
0.470901 0.302988 0.011628
0.502670 0.299212 0.012037
0.534397 0.295995 0.012446
0.566019 0.293233 0.012855
0.597471 0.290849 0.013264
0.628693 0.288779 0.013673
0.659620 0.286975 0.014082
0.690190 0.285398 0.014490
0.720341 0.284016 0.014899
0.750010 0.282803 0.015308
0.779135 0.281738 0.015717
0.807655 0.280801 0.016126
0.835507 0.279978 0.016536
0.862630 0.279257 0.016945
0.888961 0.278625 0.017354
0.914441 0.278075 0.017764
0.939421 0.277758 0.018180
0.965217 0.278220 0.018629
0.989759 0.278689 0.019079
0.996857 0.285044 0.029012
0.020178 0.360008 0.010305
0.050097 0.360008 0.010305
0.081690 0.360008 0.010305
0.114819 0.360008 0.010305
0.149344 0.360008 0.010305
0.185126 0.360008 0.010305
0.222025 0.360008 0.010305
0.259901 0.360008 0.010305
0.298615 0.360008 0.010305
0.338028 0.360008 0.010305
0.375980 0.358084 0.010400
0.407492 0.350700 0.010809
0.439154 0.344599 0.011218
0.470901 0.339492 0.011628
0.502670 0.335168 0.012037
0.534397 0.331473 0.012446
0.566019 0.328293 0.012855
0.597471 0.325536 0.013264
0.628693 0.323135 0.013673
0.659620 0.321034 0.014082
0.690190 0.319188 0.014490
0.720341 0.317562 0.014899
0.750010 0.316127 0.015308
0.779135 0.314858 0.015717
0.807655 0.313734 0.016126
0.835507 0.312740 0.016536
0.862630 0.311859 0.016945
0.888961 0.311080 0.017354
0.914441 0.310392 0.017764
0.939421 0.309967 0.018180
0.965217 0.310415 0.018629
0.989759 0.310870 0.019079
0.996857 0.316428 0.029012
0.020476 0.390820 0.010715
0.049758 0.390820 0.010715
0.080647 0.390820 0.010715
0.113011 0.390820 0.010715
0.146720 0.390820 0.010715
0.181643 0.390820 0.010715
0.217648 0.390820 0.010715
0.254606 0.390820 0.010715
0.292384 0.390820 0.010715
0.330853 0.390820 0.010715
0.369881 0.390820 0.010715
0.407492 0.389056 0.010809
0.439154 0.382211 0.011218
0.470901 0.376469 0.011628
0.502670 0.371597 0.012037
0.534397 0.367425 0.012446
0.566019 0.363824 0.012855
0.597471 0.360695 0.013264
0.628693 0.357960 0.013673
0.659620 0.355560 0.014082
0.690190 0.353444 0.014490
0.720341 0.351572 0.014899
0.750010 0.349913 0.015308
0.779135 0.348438 0.015717
0.807655 0.347126 0.016126
0.835507 0.345957 0.016536
0.862630 0.344916 0.016945
0.888961 0.343987 0.017354
0.914441 0.343160 0.017764
0.939421 0.342625 0.018180
0.965217 0.343057 0.018629
0.989759 0.343496 0.019079
0.996857 0.348221 0.029012
0.020800 0.421809 0.011124
0.049553 0.421809 0.011124
0.079857 0.421809 0.011124
0.111585 0.421809 0.011124
0.144616 0.421809 0.011124
0.178824 0.421809 0.011124
0.214086 0.421809 0.011124
0.250277 0.421809 0.011124
0.287275 0.421809 0.011124
0.324956 0.421809 0.011124
0.363195 0.421809 0.011124
0.401868 0.421809 0.011124
0.439154 0.420180 0.011218
0.470901 0.413810 0.011628
0.502670 0.408395 0.012037
0.534397 0.403748 0.012446
0.566019 0.399728 0.012855
0.597471 0.396228 0.013264
0.628693 0.393161 0.013673
0.659620 0.390462 0.014082
0.690190 0.388075 0.014490
0.720341 0.385958 0.014899
0.750010 0.384074 0.015308
0.779135 0.382394 0.015717
0.807655 0.380893 0.016126
0.835507 0.379549 0.016536
0.862630 0.378345 0.016945
0.888961 0.377266 0.017354
0.914441 0.376299 0.017764
0.939421 0.375653 0.018180
0.965217 0.376067 0.018629
0.989759 0.376490 0.019079
0.996857 0.380350 0.029012
0.021144 0.452913 0.011533
0.049452 0.452913 0.011533
0.079261 0.452913 0.011533
0.110453 0.452913 0.011533
0.142911 0.452913 0.011533
0.176515 0.452913 0.011533
0.211148 0.452913 0.011533
0.246693 0.452913 0.011533
0.283029 0.452913 0.011533
0.320041 0.452913 0.011533
0.357609 0.452913 0.011533
0.395616 0.452913 0.011533
0.433942 0.452913 0.011533
0.470901 0.451404 0.011628
0.502670 0.445454 0.012037
0.534397 0.440339 0.012446
0.566019 0.435907 0.012855
0.597471 0.432039 0.013264
0.628693 0.428643 0.013673
0.659620 0.425648 0.014082
0.690190 0.422993 0.014490
0.720341 0.420632 0.014899
0.750010 0.418525 0.015308
0.779135 0.416640 0.015717
0.807655 0.414950 0.016126
0.835507 0.413432 0.016536
0.862630 0.412067 0.016945
0.888961 0.410838 0.017354
0.914441 0.409730 0.017764
0.939421 0.408972 0.018180
0.965217 0.409368 0.018629
0.989759 0.409773 0.019079
0.996857 0.412744 0.029012
0.021504 0.484073 0.011943
0.049431 0.484073 0.011943
0.078818 0.484073 0.011943
0.109552 0.484073 0.011943
0.141519 0.484073 0.011943
0.174607 0.484073 0.011943
0.208702 0.484073 0.011943
0.243691 0.484073 0.011943
0.279461 0.484073 0.011943
0.315898 0.484073 0.011943
0.352889 0.484073 0.011943
0.390320 0.484073 0.011943
0.428080 0.484073 0.011943
0.466053 0.484073 0.011943
0.502670 0.482668 0.012037
0.534397 0.477097 0.012446
0.566019 0.472260 0.012855
0.597471 0.468032 0.013264
0.628693 0.464313 0.013673
0.659620 0.461026 0.014082
0.690190 0.458107 0.014490
0.720341 0.455505 0.014899
0.750010 0.453178 0.015308
0.779135 0.451091 0.015717
0.807655 0.449214 0.016126
0.835507 0.447524 0.016536
0.862630 0.445998 0.016945
0.888961 0.444620 0.017354
0.914441 0.443374 0.017764
0.939421 0.442504 0.018180
0.965217 0.442880 0.018629
0.989759 0.443265 0.019079
0.996857 0.445331 0.029012
0.021877 0.515228 0.012352
0.049475 0.515228 0.012352
0.078497 0.515228 0.012352
0.108835 0.515228 0.012352
0.140379 0.515228 0.012352
0.173020 0.515228 0.012352
0.206649 0.515228 0.012352
0.241157 0.515228 0.012352
0.276434 0.515228 0.012352
0.312372 0.515228 0.012352
0.348861 0.515228 0.012352
0.385792 0.515228 0.012352
0.423056 0.515228 0.012352
0.460544 0.515228 0.012352
0.498146 0.515228 0.012352
0.534397 0.513918 0.012446
0.566019 0.508688 0.012855
0.597471 0.504110 0.013264
0.628693 0.500077 0.013673
0.659620 0.496505 0.014082
0.690190 0.493328 0.014490
0.720341 0.490491 0.014899
0.750010 0.487948 0.015308
0.779135 0.485662 0.015717
0.807655 0.483602 0.016126
0.835507 0.481742 0.016536
0.862630 0.480059 0.016945
0.888961 0.478534 0.017354
0.914441 0.477150 0.017764
0.939421 0.476171 0.018180
0.965217 0.476525 0.018629
0.989759 0.476890 0.019079
0.996857 0.478037 0.029012
0.022261 0.546319 0.012761
0.049572 0.546319 0.012761
0.078276 0.546319 0.012761
0.108268 0.546319 0.012761
0.139443 0.546319 0.012761
0.171693 0.546319 0.012761
0.204915 0.546319 0.012761
0.239002 0.546319 0.012761
0.273848 0.546319 0.012761
0.309348 0.546319 0.012761
0.345397 0.546319 0.012761
0.381888 0.546319 0.012761
0.418716 0.546319 0.012761
0.455776 0.546319 0.012761
0.492960 0.546319 0.012761
0.530165 0.546319 0.012761
0.566019 0.545093 0.012855
0.597471 0.540177 0.013264
0.628693 0.535840 0.013673
0.659620 0.531993 0.014082
0.690190 0.528566 0.014490
0.720341 0.525500 0.014899
0.750010 0.522747 0.015308
0.779135 0.520269 0.015717
0.807655 0.518030 0.016126
0.835507 0.516004 0.016536
0.862630 0.514167 0.016945
0.888961 0.512498 0.017354
0.914441 0.510981 0.017764
0.939421 0.509893 0.018180
0.965217 0.510225 0.018629
0.989759 0.510569 0.019079
0.996857 0.510792 0.029012
0.022653 0.577286 0.013170
0.049712 0.577286 0.013170
0.078137 0.577286 0.013170
0.107825 0.577286 0.013170
0.138674 0.577286 0.013170
0.170581 0.577286 0.013170
0.203444 0.577286 0.013170
0.237159 0.577286 0.013170
0.271625 0.577286 0.013170
0.306738 0.577286 0.013170
0.342397 0.577286 0.013170
0.378499 0.577286 0.013170
0.414940 0.577286 0.013170
0.451619 0.577286 0.013170
0.488432 0.577286 0.013170
0.525278 0.577286 0.013170
0.562053 0.577286 0.013170
0.597471 0.576137 0.013264
0.628693 0.571509 0.013673
0.659620 0.567399 0.014082
0.690190 0.563731 0.014490
0.720341 0.560445 0.014899
0.750010 0.557491 0.015308
0.779135 0.554825 0.015717
0.807655 0.552414 0.016126
0.835507 0.550228 0.016536
0.862630 0.548241 0.016945
0.888961 0.546433 0.017354
0.914441 0.544785 0.017764
0.939421 0.543592 0.018180
0.965217 0.543902 0.018629
0.989759 0.544223 0.019079
0.996857 0.543524 0.029012
0.023053 0.608068 0.013578
0.049889 0.608068 0.013578
0.078066 0.608068 0.013578
0.107485 0.608068 0.013578
0.138045 0.608068 0.013578
0.169647 0.608068 0.013578
0.202191 0.608068 0.013578
0.235577 0.608068 0.013578
0.269704 0.608068 0.013578
0.304473 0.608068 0.013578
0.339785 0.608068 0.013578
0.375538 0.608068 0.013578
0.411634 0.608068 0.013578
0.447972 0.608068 0.013578
0.484453 0.608068 0.013578
0.520976 0.608068 0.013578
0.557442 0.608068 0.013578
0.593750 0.608068 0.013578
0.628693 0.606990 0.013673
0.659620 0.602630 0.014082
0.690190 0.598734 0.014490
0.720341 0.595239 0.014899
0.750010 0.592091 0.015308
0.779135 0.589247 0.015717
0.807655 0.586671 0.016126
0.835507 0.584331 0.016536
0.862630 0.582201 0.016945
0.888961 0.580258 0.017354
0.914441 0.578484 0.017764
0.939421 0.577189 0.018180
0.965217 0.577476 0.018629
0.989759 0.577775 0.019079
0.996857 0.576159 0.029012
0.023458 0.638608 0.013987
0.050096 0.638608 0.013987
0.078053 0.638608 0.013987
0.107232 0.638608 0.013987
0.137535 0.638608 0.013987
0.168865 0.638608 0.013987
0.201123 0.638608 0.013987
0.234214 0.638608 0.013987
0.268038 0.638608 0.013987
0.302499 0.638608 0.013987
0.337499 0.638608 0.013987
0.372940 0.638608 0.013987
0.408725 0.638608 0.013987
0.444757 0.638608 0.013987
0.480938 0.638608 0.013987
0.517169 0.638608 0.013987
0.553355 0.638608 0.013987
0.589397 0.638608 0.013987
0.625197 0.638608 0.013987
0.659620 0.637595 0.014082
0.690190 0.633485 0.014490
0.720341 0.629792 0.014899
0.750010 0.626462 0.015308
0.779135 0.623449 0.015717
0.807655 0.620716 0.016126
0.835507 0.618230 0.016536
0.862630 0.615963 0.016945
0.888961 0.613893 0.017354
0.914441 0.611999 0.017764
0.939421 0.610606 0.018180
0.965217 0.610869 0.018629
0.989759 0.611145 0.019079
0.996857 0.608627 0.029012
0.023869 0.668845 0.014396
0.050330 0.668845 0.014396
0.078089 0.668845 0.014396
0.107053 0.668845 0.014396
0.137125 0.668845 0.014396
0.168210 0.668845 0.014396
0.200213 0.668845 0.014396
0.233037 0.668845 0.014396
0.266589 0.668845 0.014396
0.300772 0.668845 0.014396
0.335491 0.668845 0.014396
0.370650 0.668845 0.014396
0.406155 0.668845 0.014396
0.441909 0.668845 0.014396
0.477817 0.668845 0.014396
0.513785 0.668845 0.014396
0.549716 0.668845 0.014396
0.585514 0.668845 0.014396
0.621086 0.668845 0.014396
0.656334 0.668845 0.014396
0.690190 0.667893 0.014490
0.720341 0.664017 0.014899
0.750010 0.660517 0.015308
0.779135 0.657347 0.015717
0.807655 0.654466 0.016126
0.835507 0.651843 0.016536
0.862630 0.649448 0.016945
0.888961 0.647257 0.017354
0.914441 0.645250 0.017764
0.939421 0.643764 0.018180
0.965217 0.644003 0.018629
0.989759 0.644255 0.019079
0.996857 0.640855 0.029012
0.024285 0.698721 0.014805
0.050586 0.698721 0.014805
0.078168 0.698721 0.014805
0.106937 0.698721 0.014805
0.136801 0.698721 0.014805
0.167665 0.698721 0.014805
0.199437 0.698721 0.014805
0.232021 0.698721 0.014805
0.265326 0.698721 0.014805
0.299257 0.698721 0.014805
0.333721 0.698721 0.014805
0.368625 0.698721 0.014805
0.403874 0.698721 0.014805
0.439376 0.698721 0.014805
0.475037 0.698721 0.014805
0.510763 0.698721 0.014805
0.546461 0.698721 0.014805
0.582037 0.698721 0.014805
0.617398 0.698721 0.014805
0.652451 0.698721 0.014805
0.687101 0.698721 0.014805
0.720341 0.697825 0.014899
0.750010 0.694170 0.015308
0.779135 0.690854 0.015717
0.807655 0.687838 0.016126
0.835507 0.685088 0.016536
0.862630 0.682574 0.016945
0.888961 0.680271 0.017354
0.914441 0.678157 0.017764
0.939421 0.676584 0.018180
0.965217 0.676799 0.018629
0.989759 0.677027 0.019079
0.996857 0.672770 0.029012
0.024704 0.728176 0.015214
0.050861 0.728176 0.015214
0.078283 0.728176 0.015214
0.106877 0.728176 0.015214
0.136552 0.728176 0.015214
0.167216 0.728176 0.015214
0.198777 0.728176 0.015214
0.231144 0.728176 0.015214
0.264224 0.728176 0.015214
0.297926 0.728176 0.015214
0.332158 0.728176 0.015214
0.366829 0.728176 0.015214
0.401845 0.728176 0.015214
0.437117 0.728176 0.015214
0.472551 0.728176 0.015214
0.508056 0.728176 0.015214
0.543540 0.728176 0.015214
0.578912 0.728176 0.015214
0.614079 0.728176 0.015214
0.648950 0.728176 0.015214
0.683433 0.728176 0.015214
0.717436 0.728176 0.015214
0.750010 0.727334 0.015308
0.779135 0.723887 0.015717
0.807655 0.720748 0.016126
0.835507 0.717882 0.016536
0.862630 0.715259 0.016945
0.888961 0.712853 0.017354
0.914441 0.710642 0.017764
0.939421 0.708988 0.018180
0.965217 0.709178 0.018629
0.989759 0.709383 0.019079
0.996857 0.704302 0.029012
0.025127 0.757152 0.015623
0.051154 0.757152 0.015623
0.078430 0.757152 0.015623
0.106864 0.757152 0.015623
0.136367 0.757152 0.015623
0.166849 0.757152 0.015623
0.198219 0.757152 0.015623
0.230387 0.757152 0.015623
0.263262 0.757152 0.015623
0.296755 0.757152 0.015623
0.330775 0.757152 0.015623
0.365232 0.757152 0.015623
0.400035 0.757152 0.015623
0.435095 0.757152 0.015623
0.470321 0.757152 0.015623
0.505623 0.757152 0.015623
0.540910 0.757152 0.015623
0.576093 0.757152 0.015623
0.611081 0.757152 0.015623
0.645784 0.757152 0.015623
0.680112 0.757152 0.015623
0.713973 0.757152 0.015623
0.747279 0.757152 0.015623
0.779135 0.756360 0.015717
0.807655 0.753112 0.016126
0.835507 0.750143 0.016536
0.862630 0.747421 0.016945
0.888961 0.744923 0.017354
0.914441 0.742624 0.017764
0.939421 0.740898 0.018180
0.965217 0.741063 0.018629
0.989759 0.741245 0.019079
0.996857 0.735377 0.029012
0.025554 0.785590 0.016032
0.051461 0.785590 0.016032
0.078604 0.785590 0.016032
0.106893 0.785590 0.016032
0.136240 0.785590 0.016032
0.166555 0.785590 0.016032
0.197750 0.785590 0.016032
0.229735 0.785590 0.016032
0.262423 0.785590 0.016032
0.295724 0.785590 0.016032
0.329549 0.785590 0.016032
0.363809 0.785590 0.016032
0.398417 0.785590 0.016032
0.433282 0.785590 0.016032
0.468316 0.785590 0.016032
0.503430 0.785590 0.016032
0.538536 0.785590 0.016032
0.573544 0.785590 0.016032
0.608366 0.785590 0.016032
0.642912 0.785590 0.016032
0.677095 0.785590 0.016032
0.710824 0.785590 0.016032
0.744012 0.785590 0.016032
0.776570 0.785590 0.016032
0.807655 0.784846 0.016126
0.835507 0.781787 0.016536
0.862630 0.778981 0.016945
0.888961 0.776401 0.017354
0.914441 0.774025 0.017764
0.939421 0.772233 0.018180
0.965217 0.772375 0.018629
0.989759 0.772533 0.019079
0.996857 0.765924 0.029012
0.025982 0.813432 0.016441
0.051782 0.813432 0.016441
0.078804 0.813432 0.016441
0.106960 0.813432 0.016441
0.136163 0.813432 0.016441
0.166325 0.813432 0.016441
0.197359 0.813432 0.016441
0.229177 0.813432 0.016441
0.261692 0.813432 0.016441
0.294816 0.813432 0.016441
0.328461 0.813432 0.016441
0.362541 0.813432 0.016441
0.396967 0.813432 0.016441
0.431653 0.813432 0.016441
0.466509 0.813432 0.016441
0.501450 0.813432 0.016441
0.536387 0.813432 0.016441
0.571232 0.813432 0.016441
0.605900 0.813432 0.016441
0.640300 0.813432 0.016441
0.674347 0.813432 0.016441
0.707953 0.813432 0.016441
0.741030 0.813432 0.016441
0.773490 0.813432 0.016441
0.805247 0.813432 0.016441
0.835507 0.812734 0.016536
0.862630 0.809856 0.016945
0.888961 0.807207 0.017354
0.914441 0.804764 0.017764
0.939421 0.802916 0.018180
0.965217 0.803035 0.018629
0.989759 0.803171 0.019079
0.996857 0.795871 0.029012
0.026414 0.840619 0.016851
0.052114 0.840619 0.016851
0.079025 0.840619 0.016851
0.107059 0.840619 0.016851
0.136130 0.840619 0.016851
0.166151 0.840619 0.016851
0.197037 0.840619 0.016851
0.228701 0.840619 0.016851
0.261057 0.840619 0.016851
0.294017 0.840619 0.016851
0.327497 0.840619 0.016851
0.361409 0.840619 0.016851
0.395668 0.840619 0.016851
0.430186 0.840619 0.016851
0.464878 0.840619 0.016851
0.499658 0.840619 0.016851
0.534438 0.840619 0.016851
0.569132 0.840619 0.016851
0.603655 0.840619 0.016851
0.637919 0.840619 0.016851
0.671839 0.840619 0.016851
0.705329 0.840619 0.016851
0.738300 0.840619 0.016851
0.770669 0.840619 0.016851
0.802347 0.840619 0.016851
0.833249 0.840619 0.016851
0.862630 0.839964 0.016945
0.888961 0.837260 0.017354
0.914441 0.834764 0.017764
