assets/luts/film98.cube
# MoodFilm Filter — film98
TITLE "film98"
LUT_3D_SIZE 5
0.190944 0.146603 0.146603
0.336021 0.154810 0.154810
0.477364 0.162806 0.162806
0.616818 0.170695 0.170695
0.721772 0.176633 0.176633
0.210357 0.307617 0.173269
0.355777 0.315844 0.181496
0.497246 0.323847 0.189499
0.636778 0.331741 0.197392
0.748873 0.338082 0.203734
0.229673 0.471053 0.200318
0.375957 0.479328 0.208593
0.519831 0.487467 0.216733
0.661667 0.495491 0.224756
0.776385 0.501981 0.231246
0.254780 0.632205 0.227277
0.403027 0.640592 0.235663
0.547621 0.649446 0.243951
0.690344 0.658364 0.252160
0.803829 0.665473 0.258690
0.283642 0.793728 0.254473
0.432708 0.802997 0.263040
0.577438 0.812022 0.271361
0.720130 0.820931 0.279567
0.831093 0.827891 0.285954
0.192641 0.148968 0.267069
0.337763 0.157192 0.276029
0.479133 0.165203 0.284778
0.618609 0.173108 0.293418
0.724234 0.179095 0.300006
0.212097 0.310030 0.296121
0.357565 0.318273 0.305101
0.499062 0.326292 0.313856
0.638616 0.334201 0.322500
0.751383 0.340592 0.329492
0.231459 0.473515 0.325696
0.378467 0.481839 0.334394
0.522342 0.489978 0.342533
0.664178 0.498002 0.350557
0.778896 0.504492 0.357047
0.257291 0.634716 0.353077
0.405622 0.643186 0.361481
0.550397 0.652220 0.369806
0.693116 0.661138 0.378015
0.806382 0.668234 0.384533
0.286433 0.796500 0.380329
0.435487 0.805769 0.388895
0.580213 0.814793 0.397216
0.722903 0.823702 0.405422
0.833645 0.830649 0.411796
0.194610 0.151711 0.406808
0.339767 0.159937 0.415753
0.481150 0.167949 0.424484
0.620634 0.175854 0.433108
0.727022 0.181883 0.439725
0.214061 0.312772 0.435804
0.359567 0.321017 0.444769
0.501077 0.329036 0.453507
0.640640 0.336945 0.462135
0.754166 0.343375 0.468948
0.233415 0.476256 0.465320
0.381250 0.484621 0.473807
0.525124 0.492761 0.481947
0.666960 0.500784 0.489971
0.781678 0.507274 0.496460
0.260073 0.637499 0.492491
0.408715 0.646272 0.500958
0.553485 0.655306 0.509283
0.696202 0.664224 0.517492
0.809213 0.671306 0.523995
0.289541 0.799585 0.519806
0.438579 0.808853 0.528371
0.583301 0.817877 0.536692
0.725988 0.826785 0.544898
0.836476 0.833718 0.551258
0.196531 0.154406 0.544136
0.341723 0.162634 0.553074
0.483119 0.170647 0.561796
0.622611 0.178552 0.570411
0.729763 0.184624 0.577063
0.215976 0.315466 0.573102
0.361522 0.323713 0.582059
0.503045 0.331733 0.590789
0.642616 0.339643 0.599408
0.756901 0.346111 0.606013
0.235738 0.478970 0.602486
0.383985 0.487357 0.610873
0.527860 0.495496 0.619012
0.669696 0.503520 0.627036
0.784446 0.510203 0.633558
0.262808 0.640234 0.629556
0.411761 0.649312 0.638087
0.556527 0.658345 0.646411
0.699241 0.667263 0.654620
0.811997 0.674331 0.661109
0.292601 0.802623 0.656935
0.441625 0.811890 0.665500
0.586342 0.820913 0.673820
0.729026 0.829822 0.682026
0.839259 0.836740 0.688371
0.198421 0.157072 0.679981
0.343650 0.165301 0.688914
0.485059 0.173315 0.697631
0.624559 0.181220 0.706240
0.732475 0.187336 0.712930
0.217861 0.318131 0.708926
0.363447 0.326380 0.717879
0.504984 0.334401 0.726603
0.644890 0.342327 0.735130
0.759608 0.348817 0.741620
0.238445 0.481677 0.738093
0.386691 0.490063 0.746479
0.530566 0.498202 0.754618
0.672402 0.506226 0.762642
0.787202 0.513202 0.769214
0.265622 0.643040 0.765184
0.414779 0.652322 0.773757
0.559539 0.661356 0.782081
0.702250 0.670273 0.790289
0.814752 0.677326 0.796764
0.295632 0.805632 0.792606
0.444642 0.814898 0.801169
0.589354 0.823921 0.809489
0.732035 0.832829 0.817695
0.842014 0.839734 0.824026
