assets/luts/film98.cube
# MoodFilm Filter — film98
TITLE "film98"
LUT_3D_SIZE 17
0.190944 0.146603 0.146603
0.227834 0.148690 0.148690
0.264211 0.150748 0.150748
0.300245 0.152786 0.152786
0.336021 0.154810 0.154810
0.371592 0.156822 0.156822
0.406990 0.158825 0.158825
0.442242 0.160819 0.160819
0.477364 0.162806 0.162806
0.512373 0.164787 0.164787
0.547279 0.166761 0.166761
0.582091 0.168731 0.168731
0.616818 0.170695 0.170695
0.651466 0.172655 0.172655
0.686042 0.174611 0.174611
0.720549 0.176564 0.176564
0.721772 0.176633 0.176633
0.195208 0.181306 0.152354
0.232126 0.183394 0.154442
0.268520 0.185453 0.156501
0.304566 0.187492 0.158541
0.340353 0.189517 0.160565
0.375931 0.191530 0.162578
0.411336 0.193533 0.164581
0.446594 0.195527 0.166575
0.481721 0.197514 0.168563
0.516735 0.199495 0.170543
0.551644 0.201470 0.172518
0.586461 0.203440 0.174488
0.621191 0.205404 0.176453
0.655843 0.207365 0.178413
0.690421 0.209321 0.180369
0.724931 0.211273 0.182321
0.727612 0.211425 0.182473
0.200372 0.224072 0.159437
0.237328 0.226163 0.161528
0.273744 0.228223 0.163588
0.309807 0.230263 0.165628
0.345606 0.232289 0.167653
0.381195 0.234302 0.169667
0.416609 0.236305 0.171670
0.451873 0.238300 0.173665
0.487008 0.240288 0.175653
0.522027 0.242269 0.177634
0.556942 0.244244 0.179609
0.591763 0.246214 0.181579
0.626498 0.248179 0.183544
0.661154 0.250140 0.185504
0.695736 0.252096 0.187461
0.730249 0.254049 0.189413
0.734810 0.254307 0.189671
0.205405 0.266077 0.166392
0.242400 0.268169 0.168485
0.278840 0.270231 0.170546
0.314919 0.272272 0.172587
0.350731 0.274298 0.174613
0.386330 0.276312 0.176627
0.421752 0.278316 0.178631
0.457025 0.280311 0.180627
0.492166 0.282299 0.182615
0.527191 0.284281 0.184596
0.562112 0.286256 0.186572
0.596938 0.288226 0.188542
0.631677 0.290192 0.190507
0.666337 0.292152 0.192468
0.700923 0.294109 0.194424
0.735440 0.296062 0.196377
0.741880 0.296426 0.196741
0.210357 0.307617 0.173269
0.247392 0.309712 0.175364
0.283856 0.311775 0.177427
0.319952 0.313817 0.179469
0.355777 0.315844 0.181496
0.391386 0.317858 0.183510
0.426818 0.319863 0.185515
0.462098 0.321859 0.187511
0.497246 0.323847 0.189499
0.532277 0.325829 0.191481
0.567203 0.327805 0.193457
0.602034 0.329775 0.195427
0.636778 0.331741 0.197392
0.671442 0.333702 0.199354
0.706032 0.335658 0.201310
0.740553 0.337611 0.203263
0.748873 0.338082 0.203734
0.215250 0.348824 0.180090
0.252328 0.350922 0.182187
0.288816 0.352986 0.184252
0.324929 0.355029 0.186295
0.360766 0.357056 0.188322
0.396387 0.359071 0.190337
0.431827 0.361076 0.192342
0.467115 0.363073 0.194338
0.502270 0.365061 0.196327
0.537307 0.367043 0.198309
0.572238 0.369020 0.200285
0.607074 0.370990 0.202256
0.641823 0.372956 0.204222
0.676491 0.374917 0.206183
0.711476 0.376897 0.208162
0.746559 0.378881 0.210147
0.755809 0.379405 0.210670
0.220096 0.389770 0.186867
0.257217 0.391870 0.188967
0.293730 0.393936 0.191032
0.329861 0.395980 0.193076
0.365712 0.398008 0.195105
0.401343 0.400024 0.197120
0.436792 0.402029 0.199126
0.472088 0.404026 0.201122
0.507249 0.406015 0.203112
0.542293 0.407997 0.205094
0.577265 0.409976 0.207073
0.612670 0.411979 0.209075
0.647984 0.413977 0.211073
0.683215 0.415970 0.213066
0.718369 0.417958 0.215055
0.753451 0.419943 0.217040
0.762702 0.420466 0.217563
0.224902 0.430502 0.193608
0.262070 0.432605 0.195710
0.298608 0.434672 0.197777
0.334756 0.436717 0.199822
0.370620 0.438746 0.201851
0.406262 0.440762 0.203868
0.441721 0.442768 0.205873
0.477268 0.444779 0.207884
0.513005 0.446801 0.209906
0.548618 0.448815 0.211921
0.584122 0.450824 0.213929
0.619527 0.452827 0.215932
0.654841 0.454825 0.217930
0.690072 0.456818 0.219923
0.725226 0.458806 0.221912
0.760308 0.460791 0.223897
0.769559 0.461314 0.224420
0.229673 0.471053 0.200318
0.266890 0.473158 0.202423
0.303454 0.475227 0.204492
0.339620 0.477273 0.206538
0.375957 0.479328 0.208593
0.412183 0.481378 0.210643
0.448219 0.483416 0.212681
0.484095 0.485446 0.214711
0.519831 0.487467 0.216733
0.555445 0.489482 0.218747
0.590949 0.491491 0.220756
0.626353 0.493494 0.222759
0.661667 0.495491 0.224756
0.696898 0.497484 0.226750
0.732052 0.499473 0.228738
0.767135 0.501458 0.230723
0.776385 0.501981 0.231246
0.234510 0.511451 0.207007
0.272371 0.513593 0.209149
0.309542 0.515696 0.211251
0.346298 0.517776 0.213331
0.382757 0.519838 0.215393
0.418983 0.521887 0.217443
0.455019 0.523926 0.219481
0.490895 0.525956 0.221511
0.526631 0.527977 0.223533
0.562245 0.529992 0.225547
0.597749 0.532001 0.227556
0.633153 0.534003 0.229559
0.668467 0.536001 0.231556
0.703698 0.537994 0.233550
0.738852 0.539983 0.235538
0.773958 0.541991 0.237528
0.783198 0.542570 0.238060
0.241287 0.551823 0.213784
0.279148 0.553965 0.215925
0.316319 0.556067 0.218028
0.353075 0.558147 0.220108
0.389533 0.560209 0.222170
0.425760 0.562259 0.224219
0.461796 0.564297 0.226258
0.497672 0.566327 0.228288
0.533408 0.568349 0.230309
0.569022 0.570363 0.232324
0.604525 0.572372 0.234333
0.639930 0.574375 0.236336
0.675349 0.576478 0.238355
0.710802 0.578696 0.240395
0.746178 0.580909 0.242430
0.781482 0.583118 0.244461
0.790096 0.583662 0.244957
0.248043 0.592070 0.220540
0.285904 0.594212 0.222681
0.323075 0.596315 0.224784
0.359831 0.598394 0.226864
0.396289 0.600457 0.228926
0.432516 0.602506 0.230975
0.468552 0.604545 0.233014
0.504428 0.606574 0.235044
0.540164 0.608596 0.237065
0.575965 0.610797 0.239119
0.611692 0.613030 0.241174
0.647320 0.615257 0.243223
0.682856 0.617479 0.245267
0.718308 0.619696 0.247307
0.753683 0.621909 0.249342
0.788985 0.624118 0.251373
0.796972 0.624625 0.251833
0.254780 0.632205 0.227277
0.292641 0.634347 0.229419
0.329812 0.636450 0.231521
0.366568 0.638530 0.233601
0.403027 0.640592 0.235663
0.439297 0.642685 0.237722
0.475560 0.644948 0.239807
0.511661 0.647201 0.241883
0.547621 0.649446 0.243951
0.583458 0.651685 0.246012
0.619183 0.653917 0.248067
0.654809 0.656143 0.250116
0.690344 0.658364 0.252160
0.725794 0.660581 0.254199
0.761167 0.662793 0.256234
0.796469 0.665001 0.258265
0.803829 0.665473 0.258690
0.261500 0.672239 0.233997
0.299361 0.674380 0.236139
0.336662 0.676608 0.238268
0.373647 0.678911 0.240394
0.410332 0.681197 0.242503
0.446783 0.683470 0.244598
0.483043 0.685732 0.246683
0.519141 0.687984 0.248759
0.555099 0.690229 0.250827
0.590933 0.692466 0.252888
0.626657 0.694698 0.254942
0.662281 0.696924 0.256991
0.697814 0.699144 0.259035
0.733263 0.701360 0.261074
0.768634 0.703572 0.263109
0.803934 0.705779 0.265140
0.810668 0.706216 0.265529
0.268665 0.712608 0.240792
0.306752 0.714972 0.242980
0.344147 0.717298 0.245129
0.381125 0.719600 0.247254
0.417806 0.721885 0.249363
0.454253 0.724157 0.251459
0.490510 0.726418 0.253543
0.526605 0.728670 0.255619
0.562560 0.730914 0.257686
0.598392 0.733151 0.259747
0.634114 0.735382 0.261801
0.669736 0.737607 0.263850
0.705267 0.739827 0.265894
0.740715 0.742043 0.267933
0.776085 0.744254 0.269967
0.811384 0.746460 0.271998
0.817491 0.746861 0.272352
0.276161 0.753210 0.247639
0.314230 0.755573 0.249827
0.351616 0.757897 0.251975
0.388588 0.760199 0.254100
0.425264 0.762483 0.256208
0.461707 0.764754 0.258304
0.497961 0.767015 0.260388
0.534053 0.769266 0.262463
0.570006 0.771510 0.264531
0.605836 0.773746 0.266591
0.641556 0.775976 0.268646
0.677176 0.778201 0.270694
0.712706 0.780421 0.272738
0.748152 0.782635 0.274776
0.783521 0.784846 0.276811
0.818818 0.787052 0.278841
0.824299 0.787418 0.279160
0.283642 0.793728 0.254473
0.321694 0.796090 0.256659
0.359070 0.798413 0.258807
0.396037 0.800714 0.260932
0.432708 0.802997 0.263040
0.469148 0.805268 0.265135
0.505398 0.807528 0.267219
0.541488 0.809779 0.269294
0.577438 0.812022 0.271361
0.613266 0.814258 0.273422
0.648984 0.816487 0.275476
0.684602 0.818712 0.277524
0.720130 0.820931 0.279567
0.755575 0.823145 0.281606
0.790943 0.825355 0.283640
0.826238 0.827561 0.285670
0.831093 0.827891 0.285954
0.191086 0.146833 0.158377
0.227981 0.148924 0.160665
0.264363 0.150986 0.162925
0.300402 0.153028 0.165165
0.336183 0.155056 0.167391
0.371758 0.157073 0.169605
0.407161 0.159079 0.171809
0.442417 0.161077 0.174004
0.477544 0.163068 0.176192
0.512557 0.165053 0.178374
0.547467 0.167032 0.180550
0.582283 0.169005 0.182720
0.617014 0.170974 0.184885
0.651667 0.172938 0.187046
0.686246 0.174898 0.189203
0.720757 0.176854 0.191355
0.722068 0.176929 0.191482
0.195360 0.181546 0.164654
0.232284 0.183639 0.166945
0.268683 0.185702 0.169205
0.304734 0.187745 0.171446
0.340525 0.189774 0.173671
0.376108 0.191790 0.175885
0.411517 0.193797 0.178090
0.446779 0.195796 0.180285
0.481911 0.197787 0.182473
0.516929 0.199772 0.184655
0.551843 0.201751 0.186831
0.586663 0.203725 0.189001
0.621398 0.205693 0.191166
0.656053 0.207658 0.193327
0.690636 0.209618 0.195484
0.725150 0.211574 0.197636
0.727919 0.211732 0.197846
0.200537 0.224326 0.172415
0.237499 0.226421 0.174707
0.273920 0.228485 0.176969
0.309988 0.230529 0.179210
0.345792 0.232559 0.181436
0.381385 0.234576 0.183650
0.416803 0.236584 0.185855
0.452072 0.238583 0.188050
0.487211 0.240574 0.190239
0.522234 0.242559 0.192420
0.557154 0.244539 0.194596
0.591979 0.246512 0.196766
0.626718 0.248482 0.198932
0.661378 0.250446 0.201092
0.695964 0.252406 0.203249
0.730482 0.254363 0.205402
0.735130 0.254627 0.205717
0.205584 0.266344 0.180047
0.242584 0.268441 0.182341
0.279029 0.270506 0.184603
0.315113 0.272551 0.186845
0.350930 0.274581 0.189072
0.386533 0.276599 0.191286
0.421960 0.278607 0.193491
0.457237 0.280607 0.195687
0.492383 0.282599 0.197875
0.527412 0.284584 0.200057
0.562337 0.286564 0.202233
0.597167 0.288538 0.204403
0.631911 0.290507 0.206568
0.666575 0.292472 0.208729
0.701165 0.294433 0.210885
0.735686 0.296389 0.213038
0.742214 0.296760 0.213460
0.210549 0.307898 0.187600
0.247591 0.309997 0.189896
0.284059 0.312064 0.192159
0.320160 0.314110 0.194402
0.355989 0.316141 0.196629
0.391603 0.318159 0.198844
0.427040 0.320168 0.201048
0.462324 0.322168 0.203244
0.497476 0.324160 0.205433
0.532511 0.326146 0.207615
0.567442 0.328126 0.209790
0.602277 0.330100 0.211961
0.637025 0.332070 0.214126
0.671693 0.334035 0.216287
0.706287 0.335996 0.218443
0.740812 0.337953 0.220596
0.749220 0.338429 0.221124
0.215455 0.349118 0.195095
0.252539 0.351220 0.197393
0.289032 0.353288 0.199658
0.325150 0.355335 0.201901
0.360992 0.357367 0.204129
0.396617 0.359386 0.206344
0.432062 0.361395 0.208549
0.467354 0.363395 0.210745
0.502513 0.365388 0.212934
0.537555 0.367374 0.215115
0.572490 0.369354 0.217291
0.607331 0.371329 0.219462
0.642083 0.373299 0.221627
0.676756 0.375264 0.223788
0.711828 0.377249 0.225801
0.746911 0.379233 0.227786
0.756161 0.379757 0.228309
0.220314 0.390078 0.202546
0.257442 0.392182 0.204846
0.293960 0.394252 0.207112
0.330095 0.396300 0.209356
0.365951 0.398332 0.211584
0.401586 0.400352 0.213799
0.437041 0.402361 0.216005
0.472340 0.404362 0.218201
0.507506 0.406355 0.220390
0.542554 0.408341 0.222572
0.577617 0.410328 0.224711
0.613022 0.412331 0.226714
0.648336 0.414329 0.228712
0.683567 0.416322 0.230705
0.718721 0.418310 0.232694
0.753804 0.420295 0.234678
0.763054 0.420818 0.235202
0.225134 0.430823 0.209959
0.262308 0.432930 0.212262
0.298851 0.435001 0.214529
0.335004 0.437050 0.216774
0.370873 0.439083 0.219002
0.406519 0.441103 0.221218
0.441983 0.443113 0.223424
0.477620 0.445131 0.225523
0.513357 0.447153 0.227545
0.548970 0.449167 0.229559
0.584474 0.451176 0.231568
0.619879 0.453179 0.233571
0.655193 0.455177 0.235569
0.690424 0.457170 0.237562
0.725578 0.459158 0.239550
0.760660 0.461143 0.241535
0.769911 0.461666 0.242058
0.229919 0.471387 0.217342
0.267141 0.473497 0.219647
0.303711 0.475569 0.221915
0.339881 0.477619 0.224160
0.376309 0.479680 0.226232
0.412535 0.481730 0.228281
0.448571 0.483768 0.230320
0.484447 0.485798 0.232349
0.520183 0.487820 0.234371
0.555797 0.489834 0.236386
0.591301 0.491843 0.238394
0.626705 0.493846 0.240397
0.662019 0.495843 0.242395
0.697250 0.497837 0.244388
0.732404 0.499825 0.246377
0.767487 0.501810 0.248361
0.776737 0.502333 0.248885
0.234862 0.511804 0.224645
0.272723 0.513945 0.226787
0.309894 0.516048 0.228890
0.346650 0.518128 0.230969
0.383109 0.520190 0.233032
0.419335 0.522239 0.235081
0.455371 0.524278 0.237120
0.491247 0.526308 0.239149
0.526983 0.528329 0.241171
0.562597 0.530344 0.243186
0.598101 0.532353 0.245194
0.633505 0.534355 0.247197
0.668819 0.536353 0.249195
0.704050 0.538346 0.251188
0.739204 0.540335 0.253177
0.774344 0.542378 0.255174
0.783556 0.542955 0.255704
0.241639 0.552175 0.231422
0.279500 0.554317 0.233564
0.316671 0.556420 0.235667
0.353427 0.558499 0.237746
0.389885 0.560561 0.239809
0.426112 0.562611 0.241858
0.462148 0.564649 0.243897
0.498024 0.566679 0.245926
0.533760 0.568701 0.247948
0.569374 0.570715 0.249963
0.604877 0.572724 0.251971
0.640282 0.574727 0.253974
0.675735 0.576865 0.256001
0.711189 0.579082 0.258040
0.746565 0.581296 0.260076
0.781869 0.583505 0.262107
0.790454 0.584047 0.262601
0.248395 0.592422 0.238178
0.286256 0.594564 0.240320
0.323427 0.596667 0.242423
0.360183 0.598746 0.244502
0.396641 0.600809 0.246565
0.432868 0.602858 0.248614
0.468904 0.604897 0.250653
0.504780 0.606926 0.252682
0.540516 0.608948 0.254704
0.576351 0.611184 0.256765
0.612079 0.613417 0.258820
0.647706 0.615644 0.260869
0.683242 0.617866 0.262913
0.718695 0.620083 0.264952
0.754069 0.622296 0.266987
0.789372 0.624504 0.269018
0.797330 0.625010 0.269478
0.255132 0.632557 0.244915
0.292993 0.634699 0.247057
0.330164 0.636802 0.249160
0.366920 0.638882 0.251239
0.403379 0.640944 0.253302
0.439685 0.643072 0.255368
0.475948 0.645334 0.257453
0.512048 0.647588 0.259529
0.548008 0.649833 0.261597
0.583845 0.652071 0.263658
0.619570 0.654303 0.265713
0.655196 0.656530 0.267762
0.690730 0.658751 0.269806
0.726181 0.660968 0.271845
0.761554 0.663180 0.273880
0.796855 0.665388 0.275911
0.804187 0.665858 0.276334
0.261852 0.672591 0.251635
0.299713 0.674732 0.253777
0.337050 0.676995 0.255913
0.374035 0.679298 0.258039
0.410720 0.681584 0.260148
0.447171 0.683856 0.262244
0.483430 0.686118 0.264329
0.519528 0.688371 0.266405
0.555486 0.690615 0.268473
0.591320 0.692853 0.270533
0.627044 0.695085 0.272588
0.662667 0.697310 0.274637
0.698200 0.699531 0.276681
0.733649 0.701747 0.278720
0.769021 0.703958 0.280755
0.804321 0.706166 0.282785
0.811026 0.706601 0.283173
0.269055 0.712994 0.258437
0.307140 0.715359 0.260626
0.344534 0.717685 0.262775
0.381513 0.719986 0.264900
0.418193 0.722272 0.267009
0.454640 0.724543 0.269104
0.490897 0.726805 0.271189
0.526992 0.729057 0.273264
0.562947 0.731301 0.275332
0.598779 0.733538 0.277393
0.634501 0.735768 0.279447
0.670123 0.737994 0.281496
0.705654 0.740214 0.283540
0.741101 0.742429 0.285578
0.776472 0.744640 0.287613
0.811770 0.746847 0.289643
0.817849 0.747246 0.289996
0.276550 0.753596 0.265285
0.314618 0.755959 0.267472
0.352003 0.758284 0.269621
0.388976 0.760585 0.271746
0.425651 0.762869 0.273854
0.462095 0.765141 0.275949
0.498348 0.767401 0.278034
0.534440 0.769653 0.280109
0.570393 0.771896 0.282177
0.606223 0.774133 0.284237
0.641943 0.776363 0.286291
0.677563 0.778587 0.288340
0.713092 0.780807 0.290383
0.748538 0.783022 0.292422
0.783907 0.785232 0.294456
0.819204 0.787439 0.296487
0.824656 0.787802 0.296804
0.284031 0.794114 0.272119
0.322082 0.796476 0.274305
0.359458 0.798800 0.276453
0.396425 0.801100 0.278578
0.433095 0.803384 0.280686
0.469535 0.805654 0.282780
0.505785 0.807914 0.284865
0.541875 0.810165 0.286940
0.577825 0.812408 0.289007
0.613653 0.814644 0.291067
0.649371 0.816874 0.293121
0.684989 0.819098 0.295170
0.720517 0.821317 0.297213
0.755962 0.823531 0.299252
0.791329 0.825741 0.301286
0.826625 0.827947 0.303316
0.831450 0.828275 0.303598
0.191620 0.147560 0.195408
0.228519 0.149651 0.197688
0.264903 0.151713 0.199939
0.300943 0.153756 0.202171
0.336725 0.155784 0.204389
0.372301 0.157800 0.206594
0.407705 0.159806 0.208790
0.442961 0.161805 0.210977
0.478089 0.163796 0.213157
0.513102 0.165780 0.215331
0.548012 0.167758 0.217499
0.582829 0.169732 0.219661
0.617561 0.171700 0.221819
0.652214 0.173664 0.223972
0.686793 0.175624 0.226121
0.721305 0.177580 0.228266
0.722805 0.177666 0.228401
0.195894 0.182273 0.201663
0.232821 0.184366 0.203945
0.269222 0.186429 0.206197
0.305275 0.188472 0.208430
0.341067 0.190501 0.210648
0.376650 0.192517 0.212853
0.412061 0.194524 0.215049
0.447323 0.196523 0.217237
0.482456 0.198514 0.219417
0.517474 0.200498 0.221591
0.552388 0.202477 0.223759
0.587209 0.204451 0.225922
0.621944 0.206419 0.228079
0.656600 0.208384 0.230233
0.691182 0.210344 0.232382
0.725697 0.212300 0.234527
0.728655 0.212468 0.234745
0.201070 0.225053 0.209396
0.238035 0.227148 0.211680
0.274459 0.229212 0.213933
0.310528 0.231256 0.216167
0.346333 0.233285 0.218385
0.381927 0.235303 0.220592
0.417346 0.237310 0.222788
0.452616 0.239309 0.224976
0.487755 0.241300 0.227157
0.522779 0.243285 0.229331
0.557699 0.245264 0.231499
0.592524 0.247238 0.233662
0.627264 0.249207 0.235820
0.661924 0.251172 0.237973
0.696510 0.253132 0.240122
0.731028 0.255088 0.242267
0.735866 0.255363 0.242592
0.206116 0.267070 0.217000
0.243120 0.269167 0.219287
0.279567 0.271233 0.221541
0.315653 0.273278 0.223775
0.351470 0.275307 0.225994
0.387075 0.277325 0.228201
0.422503 0.279333 0.230398
0.457780 0.281333 0.232587
0.492926 0.283324 0.234768
0.527956 0.285310 0.236942
0.562881 0.287289 0.239110
0.597712 0.289263 0.241273
0.632456 0.291232 0.243431
0.667120 0.293197 0.245585
0.701710 0.295157 0.247734
0.736232 0.297114 0.249880
0.742949 0.297495 0.250310
0.211080 0.308624 0.224527
0.248126 0.310723 0.226815
0.284597 0.312790 0.229071
0.320699 0.314836 0.231306
0.356529 0.316866 0.233526
0.392144 0.318885 0.235733
0.427581 0.320893 0.237930
0.462866 0.322893 0.240119
0.498019 0.324885 0.242300
0.533055 0.326871 0.244475
0.567986 0.328851 0.246644
0.602821 0.330825 0.248807
0.637570 0.332794 0.250965
0.672238 0.334759 0.253119
0.706832 0.336720 0.255268
0.741357 0.338677 0.257414
0.749955 0.339164 0.257951
0.215986 0.349843 0.231996
0.253074 0.351945 0.234287
0.289569 0.354013 0.236544
0.325688 0.356060 0.238780
0.361532 0.358092 0.241001
0.397158 0.360111 0.243209
0.432603 0.362120 0.245406
0.467896 0.364120 0.247596
0.503056 0.366113 0.249777
0.538098 0.368099 0.251952
0.573034 0.370079 0.254121
0.607874 0.372053 0.256284
0.642627 0.374023 0.258443
0.677408 0.375993 0.260565
0.712562 0.377982 0.262554
0.747644 0.379967 0.264539
0.756895 0.380490 0.265062
0.220844 0.390802 0.239422
0.257976 0.392907 0.241715
0.294496 0.394976 0.243974
0.330633 0.397024 0.246211
0.366490 0.399056 0.248432
0.402126 0.401076 0.250640
0.437581 0.403085 0.252838
0.472882 0.405086 0.255028
0.508048 0.407079 0.257210
0.543096 0.409065 0.259385
0.578351 0.411061 0.261464
0.613756 0.413064 0.263467
0.649070 0.415062 0.265465
0.684301 0.417055 0.267458
0.719455 0.419044 0.269447
0.754537 0.421029 0.271431
0.763787 0.421552 0.271955
0.225662 0.431547 0.246811
0.262841 0.433654 0.249107
0.299387 0.435725 0.251367
0.335541 0.437774 0.253605
0.371411 0.439807 0.255826
0.407059 0.441827 0.258035
0.442523 0.443837 0.260234
0.478354 0.445864 0.262276
0.514090 0.447886 0.264298
0.549704 0.449901 0.266313
0.585208 0.451909 0.268321
0.620612 0.453912 0.270324
0.655926 0.455910 0.272322
0.691157 0.457903 0.274315
0.726311 0.459892 0.276304
0.761394 0.461877 0.278288
0.770644 0.462400 0.278812
0.230446 0.472111 0.254170
0.267674 0.474220 0.256468
0.304246 0.476293 0.258729
0.340584 0.478351 0.260922
0.377042 0.480414 0.262985
0.413268 0.482463 0.265034
0.449305 0.484502 0.267073
0.485180 0.486531 0.269103
0.520917 0.488553 0.271124
0.556530 0.490568 0.273139
0.592034 0.492576 0.275147
0.627439 0.494579 0.277150
0.662753 0.496577 0.279148
0.697984 0.498570 0.281141
0.733138 0.500559 0.283130
0.768220 0.502543 0.285115
0.777471 0.503067 0.285638
0.235595 0.512537 0.261398
0.273457 0.514679 0.263540
0.310628 0.516782 0.265643
0.347384 0.518861 0.267722
0.383842 0.520924 0.269785
0.420068 0.522973 0.271834
0.456105 0.525012 0.273873
0.491980 0.527041 0.275903
0.527717 0.529063 0.277924
0.563330 0.531078 0.279939
0.598834 0.533086 0.281947
0.634239 0.535089 0.283950
0.669553 0.537087 0.285948
0.704784 0.539080 0.287941
0.739938 0.541069 0.289930
0.775153 0.543188 0.291943
0.784302 0.543762 0.292469
0.242372 0.552908 0.268175
0.280234 0.555050 0.270317
0.317405 0.557153 0.272420
0.354161 0.559232 0.274499
0.390619 0.561295 0.276562
0.426845 0.563344 0.278611
0.462882 0.565383 0.280650
0.498757 0.567412 0.282679
0.534494 0.569434 0.284701
0.570107 0.571449 0.286716
0.605611 0.573457 0.288724
0.641016 0.575460 0.290727
0.676545 0.577674 0.292770
0.711998 0.579892 0.294809
0.747374 0.582106 0.296845
0.782678 0.584315 0.298876
0.791199 0.584853 0.299367
0.249128 0.593156 0.274931
0.286990 0.595298 0.277073
0.324161 0.597400 0.279176
0.360917 0.599480 0.281255
0.397375 0.601542 0.283318
0.433601 0.603592 0.285367
0.469638 0.605630 0.287406
0.505513 0.607660 0.289435
0.541323 0.609755 0.291472
0.577161 0.611994 0.293533
0.612889 0.614226 0.295588
0.648516 0.616454 0.297638
0.684052 0.618675 0.299682
0.719504 0.620893 0.301721
0.754878 0.623105 0.303756
0.790180 0.625314 0.305787
0.798076 0.625817 0.306243
0.255865 0.633291 0.281668
0.293727 0.635433 0.283810
0.330898 0.637536 0.285913
0.367654 0.639615 0.287992
0.404112 0.641678 0.290055
0.440496 0.643882 0.292137
0.476758 0.646144 0.294222
0.512859 0.648397 0.296298
0.548818 0.650643 0.298366
0.584654 0.652881 0.300427
0.620380 0.655113 0.302482
0.656005 0.657339 0.304531
0.691539 0.659561 0.306575
0.726990 0.661777 0.308614
0.762363 0.663989 0.310649
0.797664 0.666197 0.312680
0.804932 0.666664 0.313100
0.262585 0.673324 0.288388
0.300460 0.675478 0.290533
0.337863 0.677805 0.292682
0.374847 0.680107 0.294808
0.411531 0.682393 0.296917
0.447981 0.684666 0.299013
0.484241 0.686927 0.301098
0.520338 0.689180 0.303174
0.556296 0.691425 0.305242
0.592130 0.693662 0.307302
0.627853 0.695894 0.309357
0.663477 0.698120 0.311406
0.699009 0.700340 0.313450
0.734458 0.702556 0.315489
0.769830 0.704768 0.317523
0.805129 0.706975 0.319554
0.811771 0.707406 0.319939
0.269869 0.713804 0.295207
0.307953 0.716168 0.297395
0.345347 0.718494 0.299544
0.382325 0.720796 0.301669
0.419004 0.723081 0.303778
0.455451 0.725353 0.305873
0.491707 0.727614 0.307958
0.527802 0.729866 0.310033
0.563757 0.732110 0.312101
0.599589 0.734347 0.314162
0.635310 0.736578 0.316216
0.670932 0.738803 0.318265
0.706463 0.741023 0.320308
0.741910 0.743238 0.322347
0.777281 0.745449 0.324382
0.812579 0.747656 0.326412
0.818594 0.748052 0.326761
0.277365 0.754406 0.302054
0.315431 0.756769 0.304241
0.352816 0.759093 0.306390
0.389787 0.761394 0.308515
0.426462 0.763679 0.310623
0.462905 0.765950 0.312718
0.499158 0.768210 0.314803
0.535250 0.770462 0.316878
0.571203 0.772705 0.318945
0.607033 0.774942 0.321006
0.642752 0.777172 0.323060
0.678372 0.779396 0.325109
0.713902 0.781616 0.327152
0.749347 0.783831 0.329191
0.784716 0.786041 0.331225
0.820013 0.788247 0.333256
0.825402 0.788608 0.333569
0.284846 0.794924 0.308888
0.322895 0.797285 0.311074
0.360271 0.799609 0.313222
0.397236 0.801909 0.315347
0.433906 0.804193 0.317454
0.470346 0.806463 0.319549
0.506595 0.808723 0.321634
0.542685 0.810974 0.323709
0.578635 0.813217 0.325776
0.614462 0.815453 0.327836
0.650180 0.817683 0.329890
0.685798 0.819907 0.331939
0.721326 0.822126 0.333982
0.756771 0.824340 0.336020
0.792138 0.826550 0.338055
0.827434 0.828756 0.340085
0.832196 0.829080 0.340363
0.192135 0.148269 0.231480
0.229038 0.150360 0.233758
0.265424 0.152422 0.236006
0.301465 0.154465 0.238234
0.337249 0.156493 0.240448
0.372826 0.158509 0.242651
0.408230 0.160515 0.244843
0.443487 0.162513 0.247027
0.478615 0.164504 0.249204
0.513629 0.166489 0.251375
0.548540 0.168467 0.253539
0.583357 0.170440 0.255699
0.618089 0.172409 0.257853
0.652742 0.174373 0.260003
0.687322 0.176333 0.262149
0.721834 0.178289 0.264291
0.723524 0.178385 0.264437
0.196408 0.182982 0.237727
0.233339 0.185075 0.240006
