assets/luts/film03.cube
TITLE "film03"
LUT_3D_SIZE 5
0.083167 0.017046 0.006278
0.313659 0.011883 0.009580
0.566019 0.015307 0.012855
0.807655 0.018826 0.016126
0.996857 0.032868 0.029012
0.019702 0.299156 0.009485
0.313659 0.296812 0.009580
0.566019 0.258745 0.012855
0.807655 0.248409 0.016126
0.996857 0.254141 0.029012
0.022261 0.546319 0.012761
0.273848 0.546319 0.012761
0.566019 0.545093 0.012855
0.807655 0.518030 0.016126
0.996857 0.510792 0.029012
0.025554 0.785590 0.016032
0.262423 0.785590 0.016032
0.538536 0.785590 0.016032
0.807655 0.784846 0.016126
0.996857 0.765924 0.029012
0.039876 0.981749 0.029012
0.267762 0.981749 0.029012
0.530262 0.981749 0.029012
0.788336 0.981749 0.029012
0.996857 0.981749 0.029012
0.019671 0.011718 0.265785
0.313260 0.011899 0.261761
0.565811 0.015324 0.228619
0.807531 0.018843 0.219684
0.996876 0.032894 0.225215
0.019754 0.296435 0.261761
0.273711 0.259125 0.229023
0.538406 0.248532 0.219813
0.788402 0.254219 0.225257
0.996949 0.260449 0.230901
0.022365 0.544892 0.228619
0.262560 0.518906 0.219958
0.538406 0.518401 0.219813
0.788402 0.510870 0.225257
0.996949 0.517069 0.230901
0.025669 0.784724 0.219684
0.265617 0.767899 0.223194
0.530245 0.767899 0.223194
0.788402 0.765991 0.225257
0.996949 0.771294 0.230901
0.040065 0.981880 0.225385
0.274227 0.985536 0.230901
0.536638 0.985536 0.230901
0.793709 0.985536 0.230901
0.996949 0.985536 0.230901
0.022194 0.015131 0.491709
0.274267 0.015131 0.491709
0.565811 0.015324 0.489553
0.807531 0.018843 0.465115
0.996876 0.032894 0.458886
0.022283 0.259125 0.490568
0.262560 0.248700 0.465981
0.537937 0.248382 0.465115
0.788549 0.254392 0.459087
0.996949 0.260617 0.464795
0.022365 0.544892 0.489553
0.262216 0.517949 0.465115
0.530341 0.510870 0.458929
0.793892 0.517282 0.464837
0.996949 0.523352 0.470433
0.025669 0.784724 0.465115
0.268020 0.766137 0.459087
0.536669 0.771320 0.464669
0.793892 0.771476 0.464837
0.996949 0.776692 0.470433
0.040065 0.981880 0.459058
0.274587 0.985748 0.464963
0.543021 0.989359 0.470433
0.799110 0.989359 0.470433
0.996949 0.989359 0.470433
0.025480 0.018647 0.716512
0.262560 0.018647 0.716512
0.538929 0.018647 0.716512
0.807531 0.018843 0.715148
0.996876 0.032894 0.697469
0.025578 0.248532 0.715794
0.265617 0.251992 0.699280
0.530245 0.251992 0.699280
0.788549 0.254392 0.697647
0.996949 0.260617 0.702728
0.025578 0.518401 0.715794
0.267843 0.510870 0.697507
0.536669 0.517099 0.702615
0.794035 0.517449 0.702903
0.996949 0.523517 0.707906
0.025669 0.784724 0.715148
0.268020 0.766137 0.697647
0.537024 0.771620 0.702903
0.799290 0.776872 0.707943
0.996949 0.782015 0.712884
0.040065 0.981880 0.697622
0.274587 0.985748 0.702878
0.543370 0.989568 0.708054
0.804434 0.993135 0.712884
0.996949 0.993135 0.712884
0.036528 0.029581 0.915287
0.265617 0.029581 0.915287
0.530245 0.029581 0.915287
0.790376 0.029581 0.915287
0.996876 0.032894 0.912145
0.039943 0.254219 0.912175
0.274258 0.260480 0.916099
0.536669 0.260480 0.916099
0.793735 0.260480 0.916099
0.996949 0.260617 0.916186
0.039943 0.510870 0.912175
0.274446 0.517282 0.916215
0.543051 0.523382 0.920100
0.799136 0.523382 0.920100
0.996949 0.523517 0.920186
0.039943 0.765991 0.912175
0.274446 0.771476 0.916215
0.543233 0.776872 0.920215
0.804460 0.782040 0.924064
0.996949 0.782155 0.924149
0.040065 0.981880 0.912262
0.274587 0.985748 0.916301
0.543370 0.989568 0.920301
0.804726 0.993343 0.924263
0.996949 0.996868 0.927974
