assets/luts/honey.cube
TITLE "honey"
LUT_3D_SIZE 33
0.081948 0.010063 0.000000
0.109846 0.008779 0.000000
0.138857 0.008159 0.000000
0.168882 0.007798 0.000000
0.199829 0.007566 0.000000
0.231612 0.007405 0.000000
0.264146 0.007289 0.000000
0.297349 0.007202 0.000000
0.331135 0.007136 0.000000
0.365423 0.007083 0.000000
0.400128 0.007042 0.000000
0.435166 0.007008 0.000000
0.470452 0.006980 0.000000
0.505901 0.006958 0.000000
0.541428 0.006939 0.000000
0.576945 0.006923 0.000000
0.612366 0.006911 0.000000
0.647603 0.006900 0.000000
0.682569 0.006891 0.000000
0.717173 0.006883 0.000000
0.751328 0.006877 0.000000
0.784943 0.006872 0.000000
0.817928 0.006867 0.000000
0.850191 0.006864 0.000000
0.881643 0.006861 0.000000
0.912190 0.006859 0.000000
0.941741 0.006857 0.000000
0.970202 0.006856 0.000000
0.998560 0.006864 0.000000
1.000000 0.006874 0.000000
1.000000 0.006883 0.000000
1.000000 0.006883 0.000000
1.000000 0.006883 0.000000
0.081948 0.047236 0.000000
0.109846 0.041058 0.000000
0.138857 0.038087 0.000000
0.168882 0.036366 0.000000
0.199829 0.035258 0.000000
0.231612 0.034494 0.000000
0.264146 0.033942 0.000000
0.297349 0.033529 0.000000
0.331135 0.033212 0.000000
0.365423 0.032963 0.000000
0.400128 0.032764 0.000000
0.435166 0.032604 0.000000
0.470452 0.032474 0.000000
0.505901 0.032367 0.000000
0.541428 0.032278 0.000000
0.576945 0.032204 0.000000
0.612366 0.032142 0.000000
0.647603 0.032091 0.000000
0.682569 0.032048 0.000000
0.717173 0.032012 0.000000
0.751328 0.031982 0.000000
0.784943 0.031958 0.000000
0.817928 0.031937 0.000000
0.850191 0.031921 0.000000
0.881643 0.031907 0.000000
0.912190 0.031897 0.000000
0.941741 0.031889 0.000000
0.970202 0.031883 0.000000
0.998560 0.031923 0.000000
1.000000 0.031968 0.000000
1.000000 0.032011 0.000000
1.000000 0.032013 0.000000
1.000000 0.032013 0.000000
0.077492 0.081779 0.000000
0.109846 0.074953 0.000000
0.138857 0.069423 0.000000
0.168882 0.066226 0.000000
0.199829 0.064171 0.000000
0.231612 0.062755 0.000000
0.264146 0.061732 0.000000
0.297349 0.060967 0.000000
0.331135 0.060380 0.000000
0.365423 0.059919 0.000000
0.400128 0.059553 0.000000
0.435166 0.059256 0.000000
0.470452 0.059015 0.000000
0.505901 0.058817 0.000000
0.541428 0.058652 0.000000
0.576945 0.058516 0.000000
0.612366 0.058402 0.000000
0.647603 0.058307 0.000000
0.682569 0.058228 0.000000
0.717173 0.058162 0.000000
0.751328 0.058106 0.000000
0.784943 0.058061 0.000000
0.817928 0.058023 0.000000
0.850191 0.057992 0.000000
0.881643 0.057968 0.000000
0.912190 0.057948 0.000000
0.941741 0.057933 0.000000
0.970202 0.057922 0.000000
0.998560 0.057997 0.000000
1.000000 0.058080 0.000000
1.000000 0.058160 0.000000
1.000000 0.058162 0.000000
1.000000 0.058162 0.000000
0.069053 0.107186 0.000000
0.106721 0.107186 0.000000
0.138857 0.102056 0.000000
0.168882 0.097282 0.000000
0.199829 0.094215 0.000000
0.231612 0.092104 0.000000
0.264146 0.090580 0.000000
0.297349 0.089441 0.000000
0.331135 0.088566 0.000000
0.365423 0.087880 0.000000
0.400128 0.087334 0.000000
0.435166 0.086893 0.000000
0.470452 0.086534 0.000000
0.505901 0.086238 0.000000
0.541428 0.085994 0.000000
0.576945 0.085791 0.000000
0.612366 0.085622 0.000000
0.647603 0.085480 0.000000
0.682569 0.085362 0.000000
0.717173 0.085264 0.000000
0.751328 0.085182 0.000000
0.784943 0.085114 0.000000
0.817928 0.085058 0.000000
0.850191 0.085012 0.000000
0.881643 0.084975 0.000000
0.912190 0.084946 0.000000
0.941741 0.084924 0.000000
0.970202 0.084908 0.000000
0.998560 0.085018 0.000000
1.000000 0.085142 0.000000
1.000000 0.085261 0.000000
1.000000 0.085265 0.000000
1.000000 0.085265 0.000000
0.064705 0.133527 0.000000
0.099883 0.133527 0.000000
0.136458 0.133527 0.000000
0.168882 0.129435 0.000000
0.199829 0.125302 0.000000
0.231612 0.122459 0.000000
0.264146 0.120407 0.000000
0.297349 0.118872 0.000000
0.331135 0.117695 0.000000
0.365423 0.116772 0.000000
0.400128 0.116037 0.000000
0.435166 0.115443 0.000000
0.470452 0.114960 0.000000
0.505901 0.114563 0.000000
0.541428 0.114234 0.000000
0.576945 0.113961 0.000000
0.612366 0.113733 0.000000
0.647603 0.113543 0.000000
0.682569 0.113384 0.000000
0.717173 0.113251 0.000000
0.751328 0.113141 0.000000
0.784943 0.113049 0.000000
0.817928 0.112974 0.000000
0.850191 0.112913 0.000000
0.881643 0.112863 0.000000
0.912190 0.112825 0.000000
0.941741 0.112795 0.000000
0.970202 0.112773 0.000000
0.998560 0.112921 0.000000
1.000000 0.113087 0.000000
1.000000 0.113248 0.000000
1.000000 0.113253 0.000000
1.000000 0.113253 0.000000
0.062092 0.160727 0.000000
0.095779 0.160727 0.000000
0.130772 0.160727 0.000000
0.166945 0.160727 0.000000
0.199829 0.157342 0.000000
0.231612 0.153735 0.000000
0.264146 0.151131 0.000000
0.297349 0.149185 0.000000
0.331135 0.147691 0.000000
0.365423 0.146521 0.000000
0.400128 0.145589 0.000000
0.435166 0.144837 0.000000
0.470452 0.144224 0.000000
0.505901 0.143720 0.000000
0.541428 0.143303 0.000000
0.576945 0.142957 0.000000
0.612366 0.142668 0.000000
0.647603 0.142427 0.000000
0.682569 0.142226 0.000000
0.717173 0.142058 0.000000
0.751328 0.141918 0.000000
0.784943 0.141802 0.000000
0.817928 0.141706 0.000000
0.850191 0.141628 0.000000
0.881643 0.141566 0.000000
0.912190 0.141517 0.000000
0.941741 0.141479 0.000000
0.970202 0.141451 0.000000
0.998560 0.141639 0.000000
1.000000 0.141850 0.000000
1.000000 0.142054 0.000000
1.000000 0.142059 0.000000
1.000000 0.142059 0.000000
0.060370 0.188714 0.000000
0.093077 0.188714 0.000000
0.127030 0.188714 0.000000
0.162115 0.188714 0.000000
0.198215 0.188714 0.000000
0.231612 0.185848 0.000000
0.264146 0.182674 0.000000
0.297349 0.180302 0.000000
0.331135 0.178481 0.000000
0.365423 0.177055 0.000000
0.400128 0.175919 0.000000
0.435166 0.175002 0.000000
0.470452 0.174255 0.000000
0.505901 0.173641 0.000000
0.541428 0.173133 0.000000
0.576945 0.172711 0.000000
0.612366 0.172359 0.000000
0.647603 0.172066 0.000000
0.682569 0.171820 0.000000
0.717173 0.171615 0.000000
0.751328 0.171445 0.000000
0.784943 0.171303 0.000000
0.817928 0.171187 0.000000
0.850191 0.171092 0.000000
0.881643 0.171016 0.000000
0.912190 0.170956 0.000000
0.941741 0.170910 0.000000
0.970202 0.170876 0.000000
0.998560 0.171105 0.000000
1.000000 0.171362 0.000000
1.000000 0.171610 0.000000
1.000000 0.171617 0.000000
1.000000 0.171617 0.000000
0.059165 0.217423 0.000000
0.091186 0.217423 0.000000
0.124414 0.217423 0.000000
0.158738 0.217423 0.000000
0.194050 0.217423 0.000000
0.230239 0.217423 0.000000
0.264146 0.214957 0.000000
0.297349 0.212147 0.000000
0.331135 0.209990 0.000000
0.365423 0.208300 0.000000
0.400128 0.206954 0.000000
0.435166 0.205868 0.000000
0.470452 0.204984 0.000000
0.505901 0.204256 0.000000
0.541428 0.203655 0.000000
0.576945 0.203155 0.000000
0.612366 0.202738 0.000000
0.647603 0.202390 0.000000
0.682569 0.202100 0.000000
0.717173 0.201857 0.000000
0.751328 0.201655 0.000000
0.784943 0.201488 0.000000
0.817928 0.201350 0.000000
0.850191 0.201238 0.000000
0.881643 0.201147 0.000000
0.912190 0.201076 0.000000
0.941741 0.201022 0.000000
0.970202 0.200982 0.000000
0.998560 0.201253 0.000000
1.000000 0.201557 0.000000
1.000000 0.201851 0.000000
1.000000 0.201860 0.000000
1.000000 0.201860 0.000000
0.058283 0.246789 0.000000
0.089804 0.246789 0.000000
0.122502 0.246789 0.000000
0.156271 0.246789 0.000000
0.191008 0.246789 0.000000
0.226606 0.246789 0.000000
0.262962 0.246789 0.000000
0.297349 0.244642 0.000000
0.331135 0.242142 0.000000
0.365423 0.240183 0.000000
0.400128 0.238624 0.000000
0.435166 0.237365 0.000000
0.470452 0.236340 0.000000
0.505901 0.235497 0.000000
0.541428 0.234800 0.000000
0.576945 0.234220 0.000000
0.612366 0.233737 0.000000
0.647603 0.233334 0.000000
0.682569 0.232997 0.000000
0.717173 0.232716 0.000000
0.751328 0.232482 0.000000
0.784943 0.232288 0.000000
0.817928 0.232128 0.000000
0.850191 0.231998 0.000000
0.881643 0.231893 0.000000
0.912190 0.231811 0.000000
0.941741 0.231748 0.000000
0.970202 0.231701 0.000000
0.998560 0.232016 0.000000
1.000000 0.232368 0.000000
1.000000 0.232709 0.000000
1.000000 0.232719 0.000000
1.000000 0.232719 0.000000
0.057618 0.276748 0.000000
0.088762 0.276748 0.000000
0.121060 0.276748 0.000000
0.154411 0.276748 0.000000
0.188714 0.276748 0.000000
0.223867 0.276748 0.000000
0.259768 0.276748 0.000000
0.296317 0.276748 0.000000
0.331135 0.274863 0.000000
0.365423 0.272632 0.000000
0.400128 0.270855 0.000000
0.435166 0.269422 0.000000
0.470452 0.268253 0.000000
0.505901 0.267293 0.000000
0.541428 0.266499 0.000000
0.576945 0.265839 0.000000
0.612366 0.265289 0.000000
0.647603 0.264829 0.000000
0.682569 0.264445 0.000000
0.717173 0.264125 0.000000
0.751328 0.263858 0.000000
0.784943 0.263637 0.000000
0.817928 0.263455 0.000000
0.850191 0.263307 0.000000
0.881643 0.263187 0.000000
0.912190 0.263093 0.000000
0.941741 0.263021 0.000000
0.970202 0.262969 0.000000
0.998560 0.263327 0.000000
1.000000 0.263728 0.000000
1.000000 0.264117 0.000000
1.000000 0.264128 0.000000
1.000000 0.264128 0.000000
0.057103 0.307236 0.000000
0.087956 0.307236 0.000000
0.119946 0.307236 0.000000
0.152973 0.307236 0.000000
0.186941 0.307236 0.000000
0.221749 0.307236 0.000000
0.257299 0.307236 0.000000
0.293492 0.307236 0.000000
0.330230 0.307236 0.000000
0.365423 0.305573 0.000000
0.400128 0.303577 0.000000
0.435166 0.301967 0.000000
0.470452 0.300654 0.000000
0.505901 0.299575 0.000000
0.541428 0.298683 0.000000
0.576945 0.297942 0.000000
0.612366 0.297324 0.000000
0.647603 0.296807 0.000000
0.682569 0.296376 0.000000
0.717173 0.296016 0.000000
0.751328 0.295716 0.000000
0.784943 0.295468 0.000000
0.817928 0.295264 0.000000
0.850191 0.295097 0.000000
0.881643 0.294963 0.000000
0.912190 0.294858 0.000000
0.941741 0.294777 0.000000
0.970202 0.294718 0.000000
0.998560 0.295120 0.000000
1.000000 0.295571 0.000000
1.000000 0.296008 0.000000
1.000000 0.296020 0.000000
1.000000 0.296020 0.000000
0.056698 0.338191 0.000000
0.087321 0.338191 0.000000
0.119067 0.338191 0.000000
0.151841 0.338191 0.000000
0.185544 0.338191 0.000000
0.220081 0.338191 0.000000
0.255354 0.338191 0.000000
0.291267 0.338191 0.000000
0.327723 0.338191 0.000000
0.364625 0.338191 0.000000
0.400128 0.336717 0.000000
0.435166 0.334929 0.000000
0.470452 0.333472 0.000000
0.505901 0.332275 0.000000
0.541428 0.331284 0.000000
0.576945 0.330461 0.000000
0.612366 0.329775 0.000000
0.647603 0.329202 0.000000
0.682569 0.328723 0.000000
0.717173 0.328323 0.000000
0.751328 0.327990 0.000000
0.784943 0.327715 0.000000
0.817928 0.327488 0.000000
0.850191 0.327303 0.000000
0.881643 0.327154 0.000000
0.912190 0.327037 0.000000
0.941741 0.326947 0.000000
0.970202 0.326881 0.000000
0.998560 0.327328 0.000000
1.000000 0.327829 0.000000
1.000000 0.328314 0.000000
1.000000 0.328327 0.000000
1.000000 0.328327 0.000000
0.056373 0.369549 0.000000
0.086813 0.369549 0.000000
0.118365 0.369549 0.000000
0.150934 0.369549 0.000000
0.184427 0.369549 0.000000
0.218746 0.369549 0.000000
0.253798 0.369549 0.000000
0.289487 0.369549 0.000000
0.325717 0.369549 0.000000
0.362394 0.369549 0.000000
0.399422 0.369549 0.000000
0.435166 0.368239 0.000000
0.470452 0.366638 0.000000
0.505901 0.365321 0.000000
0.541428 0.364233 0.000000
0.576945 0.363328 0.000000
0.612366 0.362574 0.000000
0.647603 0.361944 0.000000
0.682569 0.361418 0.000000
0.717173 0.360979 0.000000
0.751328 0.360613 0.000000
0.784943 0.360310 0.000000
0.817928 0.360060 0.000000
0.850191 0.359857 0.000000
0.881643 0.359693 0.000000
0.912190 0.359565 0.000000
0.941741 0.359466 0.000000
0.970202 0.359394 0.000000
0.998560 0.359885 0.000000
1.000000 0.360435 0.000000
1.000000 0.360968 0.000000
1.000000 0.360983 0.000000
1.000000 0.360983 0.000000
0.056111 0.401245 0.000000
0.086401 0.401245 0.000000
0.117796 0.401245 0.000000
0.150201 0.401245 0.000000
0.183522 0.401245 0.000000
0.217666 0.401245 0.000000
0.252539 0.401245 0.000000
0.288046 0.401245 0.000000
0.324093 0.401245 0.000000
0.360587 0.401245 0.000000
0.397434 0.401245 0.000000
0.434540 0.401245 0.000000
0.470452 0.400080 0.000000
0.505901 0.398647 0.000000
0.541428 0.397461 0.000000
0.576945 0.396475 0.000000
0.612366 0.395654 0.000000
0.647603 0.394967 0.000000
0.682569 0.394394 0.000000
0.717173 0.393915 0.000000
0.751328 0.393517 0.000000
0.784943 0.393186 0.000000
0.817928 0.392915 0.000000
0.850191 0.392693 0.000000
0.881643 0.392515 0.000000
0.912190 0.392374 0.000000
0.941741 0.392267 0.000000
0.970202 0.392188 0.000000
0.998560 0.392724 0.000000
1.000000 0.393323 0.000000
1.000000 0.393904 0.000000
1.000000 0.393920 0.000000
1.000000 0.393920 0.000000
0.055896 0.433217 0.000000
0.086065 0.433217 0.000000
0.117331 0.433217 0.000000
0.149601 0.433217 0.000000
0.182783 0.433217 0.000000
0.216783 0.433217 0.000000
0.251509 0.433217 0.000000
0.286868 0.433217 0.000000
0.322766 0.433217 0.000000
0.359111 0.433217 0.000000
0.395810 0.433217 0.000000
0.432770 0.433217 0.000000
0.469898 0.433217 0.000000
0.505901 0.432181 0.000000
0.541428 0.430899 0.000000
0.576945 0.429834 0.000000
0.612366 0.428945 0.000000
0.647603 0.428203 0.000000
0.682569 0.427584 0.000000
0.717173 0.427066 0.000000
0.751328 0.426635 0.000000
0.784943 0.426278 0.000000
0.817928 0.425984 0.000000
0.850191 0.425744 0.000000
0.881643 0.425552 0.000000
0.912190 0.425400 0.000000
0.941741 0.425284 0.000000
0.970202 0.425199 0.000000
0.998560 0.425778 0.000000
1.000000 0.426425 0.000000
1.000000 0.427053 0.000000
1.000000 0.427071 0.000000
1.000000 0.427071 0.000000
0.055719 0.465399 0.000000
0.085788 0.465399 0.000000
0.116948 0.465399 0.000000
0.149107 0.465399 0.000000
0.182174 0.465399 0.000000
0.216056 0.465399 0.000000
0.250661 0.465399 0.000000
0.285897 0.465399 0.000000
0.321672 0.465399 0.000000
0.357894 0.465399 0.000000
0.394471 0.465399 0.000000
0.431311 0.465399 0.000000
0.468321 0.465399 0.000000
0.505410 0.465399 0.000000
0.541428 0.464478 0.000000
0.576945 0.463335 0.000000
0.612366 0.462381 0.000000
0.647603 0.461585 0.000000
0.682569 0.460919 0.000000
0.717173 0.460364 0.000000
0.751328 0.459901 0.000000
0.784943 0.459517 0.000000
0.817928 0.459202 0.000000
0.850191 0.458945 0.000000
0.881643 0.458738 0.000000
0.912190 0.458575 0.000000
0.941741 0.458450 0.000000
0.970202 0.458359 0.000000
0.998560 0.458980 0.000000
1.000000 0.459676 0.000000
1.000000 0.460350 0.000000
1.000000 0.460369 0.000000
1.000000 0.460369 0.000000
0.055572 0.497728 0.000000
0.085558 0.497728 0.000000
0.116631 0.497728 0.000000
0.148698 0.497728 0.000000
0.181670 0.497728 0.000000
0.215454 0.497728 0.000000
0.249959 0.497728 0.000000
0.285094 0.497728 0.000000
0.320767 0.497728 0.000000
0.356887 0.497728 0.000000
0.393362 0.497728 0.000000
0.430102 0.497728 0.000000
0.467015 0.497728 0.000000
0.504009 0.497728 0.000000
0.540994 0.497728 0.000000
0.576945 0.496911 0.000000
0.612366 0.495894 0.000000
0.647603 0.495044 0.000000
0.682569 0.494334 0.000000
0.717173 0.493741 0.000000
0.751328 0.493247 0.000000
0.784943 0.492838 0.000000
0.817928 0.492501 0.000000
0.850191 0.492227 0.000000
0.881643 0.492006 0.000000
0.912190 0.491832 0.000000
0.941741 0.491699 0.000000
0.970202 0.491602 0.000000
0.998560 0.492265 0.000000
1.000000 0.493007 0.000000
1.000000 0.493727 0.000000
1.000000 0.493747 0.000000
1.000000 0.493747 0.000000
0.055450 0.530137 0.000000
0.085367 0.530137 0.000000
0.116367 0.530137 0.000000
0.148358 0.530137 0.000000
0.181250 0.530137 0.000000
0.214953 0.530137 0.000000
0.249375 0.530137 0.000000
0.284425 0.530137 0.000000
0.320013 0.530137 0.000000
0.356049 0.530137 0.000000
0.392440 0.530137 0.000000
0.429097 0.530137 0.000000
0.465928 0.530137 0.000000
0.502843 0.530137 0.000000
0.539752 0.530137 0.000000
0.576562 0.530137 0.000000
0.612366 0.529414 0.000000
0.647603 0.528513 0.000000
0.682569 0.527760 0.000000
0.717173 0.527131 0.000000
0.751328 0.526607 0.000000
0.784943 0.526173 0.000000
0.817928 0.525816 0.000000
0.850191 0.525525 0.000000
0.881643 0.525291 0.000000
0.912190 0.525106 0.000000
0.941741 0.524965 0.000000
0.970202 0.524861 0.000000
0.998560 0.525565 0.000000
1.000000 0.526353 0.000000
1.000000 0.527116 0.000000
1.000000 0.527137 0.000000
1.000000 0.527137 0.000000
0.055348 0.562562 0.000000
0.085208 0.562562 0.000000
0.116147 0.562562 0.000000
0.148074 0.562562 0.000000
0.180900 0.562562 0.000000
0.214535 0.562562 0.000000
0.248887 0.562562 0.000000
0.283867 0.562562 0.000000
0.319385 0.562562 0.000000
0.355349 0.562562 0.000000
0.391670 0.562562 0.000000
0.428258 0.562562 0.000000
0.465021 0.562562 0.000000
0.501871 0.562562 0.000000
0.538715 0.562562 0.000000
0.575465 0.562562 0.000000
0.612030 0.562562 0.000000
0.647603 0.561924 0.000000
0.682569 0.561130 0.000000
0.717173 0.560466 0.000000
0.751328 0.559914 0.000000
0.784943 0.559456 0.000000
0.817928 0.559079 0.000000
0.850191 0.558772 0.000000
0.881643 0.558525 0.000000
0.912190 0.558330 0.000000
0.941741 0.558181 0.000000
0.970202 0.558072 0.000000
0.998560 0.558815 0.000000
1.000000 0.559645 0.000000
1.000000 0.560450 0.000000
1.000000 0.560473 0.000000
1.000000 0.560473 0.000000
0.055263 0.594935 0.000000
0.085075 0.594935 0.000000
0.115963 0.594935 0.000000
0.147837 0.594935 0.000000
0.180608 0.594935 0.000000
0.214186 0.594935 0.000000
0.248480 0.594935 0.000000
0.283401 0.594935 0.000000
0.318860 0.594935 0.000000
0.354765 0.594935 0.000000
0.391027 0.594935 0.000000
0.427557 0.594935 0.000000
0.464263 0.594935 0.000000
0.501058 0.594935 0.000000
0.537849 0.594935 0.000000
0.574548 0.594935 0.000000
0.611065 0.594935 0.000000
0.647309 0.594935 0.000000
0.682569 0.594376 0.000000
0.717173 0.593680 0.000000
0.751328 0.593100 0.000000
0.784943 0.592619 0.000000
0.817928 0.592223 0.000000
0.850191 0.591901 0.000000
0.881643 0.591642 0.000000
0.912190 0.591437 0.000000
0.941741 0.591281 0.000000
0.970202 0.591166 0.000000
0.998560 0.591946 0.000000
1.000000 0.592818 0.000000
1.000000 0.593663 0.000000
1.000000 0.593687 0.000000
1.000000 0.593687 0.000000
0.055192 0.627192 0.000000
0.084964 0.627192 0.000000
0.115809 0.627192 0.000000
0.147639 0.627192 0.000000
0.180364 0.627192 0.000000
0.213894 0.627192 0.000000
0.248140 0.627192 0.000000
0.283012 0.627192 0.000000
0.318421 0.627192 0.000000
0.354277 0.627192 0.000000
0.390490 0.627192 0.000000
0.426971 0.627192 0.000000
0.463630 0.627192 0.000000
0.500378 0.627192 0.000000
0.537125 0.627192 0.000000
0.573782 0.627192 0.000000
0.610258 0.627192 0.000000
0.646465 0.627192 0.000000
0.682313 0.627192 0.000000
0.717173 0.626705 0.000000
0.751328 0.626099 0.000000
0.784943 0.625596 0.000000
0.817928 0.625183 0.000000
0.850191 0.624846 0.000000
0.881643 0.624575 0.000000
0.912190 0.624361 0.000000
0.941741 0.624198 0.000000
0.970202 0.624078 0.000000
0.998560 0.624893 0.000000
1.000000 0.625804 0.000000
1.000000 0.626687 0.000000
1.000000 0.626712 0.000000
1.000000 0.626712 0.000000
0.055133 0.659265 0.000000
0.084871 0.659265 0.000000
0.115681 0.659265 0.000000
0.147474 0.659265 0.000000
0.180160 0.659265 0.000000
0.213651 0.659265 0.000000
0.247856 0.659265 0.000000
0.282687 0.659265 0.000000
0.318055 0.659265 0.000000
0.353869 0.659265 0.000000
0.390042 0.659265 0.000000
0.426482 0.659265 0.000000
0.463102 0.659265 0.000000
0.499812 0.659265 0.000000
0.536522 0.659265 0.000000
0.573143 0.659265 0.000000
0.609586 0.659265 0.000000
0.645761 0.659265 0.000000
0.681580 0.659265 0.000000
0.716952 0.659265 0.000000
0.751328 0.658843 0.000000
0.784943 0.658321 0.000000
0.817928 0.657891 0.000000
0.850191 0.657540 0.000000
0.881643 0.657258 0.000000
0.912190 0.657036 0.000000
0.941741 0.656866 0.000000
0.970202 0.656741 0.000000
0.998560 0.657589 0.000000
1.000000 0.658537 0.000000
1.000000 0.659455 0.000000
1.000000 0.659481 0.000000
1.000000 0.659481 0.000000
0.055084 0.691087 0.000000
0.084794 0.691087 0.000000
0.115574 0.691087 0.000000
0.147336 0.691087 0.000000
0.179990 0.691087 0.000000
0.213448 0.691087 0.000000
0.247620 0.691087 0.000000
0.282417 0.691087 0.000000
0.317751 0.691087 0.000000
0.353531 0.691087 0.000000
0.389669 0.691087 0.000000
0.426076 0.691087 0.000000
0.462663 0.691087 0.000000
0.499340 0.691087 0.000000
0.536019 0.691087 0.000000
0.572611 0.691087 0.000000
0.609026 0.691087 0.000000
0.645175 0.691087 0.000000
0.680970 0.691087 0.000000
0.716321 0.691087 0.000000
0.751139 0.691087 0.000000
0.784943 0.690725 0.000000
0.817928 0.690280 0.000000
0.850191 0.689916 0.000000
0.881643 0.689625 0.000000
0.912190 0.689394 0.000000
0.941741 0.689218 0.000000
0.970202 0.689089 0.000000
0.998560 0.689967 0.000000
1.000000 0.690949 0.000000
1.000000 0.691900 0.000000
1.000000 0.691927 0.000000
1.000000 0.691927 0.000000
0.055043 0.722590 0.000000
0.084730 0.722590 0.000000
0.115486 0.722590 0.000000
0.147222 0.722590 0.000000
0.179850 0.722590 0.000000
0.213281 0.722590 0.000000
0.247425 0.722590 0.000000
0.282194 0.722590 0.000000
0.317499 0.722590 0.000000
0.353251 0.722590 0.000000
0.389361 0.722590 0.000000
0.425740 0.722590 0.000000
0.462299 0.722590 0.000000
0.498950 0.722590 0.000000
0.535604 0.722590 0.000000
0.572171 0.722590 0.000000
0.608563 0.722590 0.000000
0.644691 0.722590 0.000000
0.680466 0.722590 0.000000
0.715798 0.722590 0.000000
0.750601 0.722590 0.000000
0.784783 0.722590 0.000000
0.817928 0.722284 0.000000
0.850191 0.721909 0.000000
0.881643 0.721608 0.000000
0.912190 0.721371 0.000000
0.941741 0.721189 0.000000
0.970202 0.721056 0.000000
0.998560 0.721961 0.000000
1.000000 0.722973 0.000000
1.000000 0.723954 0.000000
1.000000 0.723982 0.000000
1.000000 0.723982 0.000000
0.055009 0.753707 0.000000
0.084677 0.753707 0.000000
0.115414 0.753707 0.000000
0.147129 0.753707 0.000000
0.179735 0.753707 0.000000
0.213143 0.753707 0.000000
0.247265 0.753707 0.000000
0.282011 0.753707 0.000000
0.317292 0.753707 0.000000
0.353021 0.753707 0.000000
0.389108 0.753707 0.000000
0.425464 0.753707 0.000000
0.462001 0.753707 0.000000
0.498630 0.753707 0.000000
0.535263 0.753707 0.000000
0.571810 0.753707 0.000000
0.608183 0.753707 0.000000
0.644293 0.753707 0.000000
0.680051 0.753707 0.000000
0.715369 0.753707 0.000000
0.750158 0.753707 0.000000
0.784329 0.753707 0.000000
0.817794 0.753707 0.000000
0.850191 0.753451 0.000000
0.881643 0.753142 0.000000
0.912190 0.752898 0.000000
0.941741 0.752711 0.000000
0.970202 0.752574 0.000000
0.998560 0.753504 0.000000
1.000000 0.754544 0.000000
1.000000 0.755552 0.000000
1.000000 0.755580 0.000000
1.000000 0.755580 0.000000
0.054982 0.784370 0.000000
0.084635 0.784370 0.000000
0.115355 0.784370 0.000000
0.147053 0.784370 0.000000
0.179642 0.784370 0.000000
0.213032 0.784370 0.000000
0.247135 0.784370 0.000000
0.281862 0.784370 0.000000
0.317124 0.784370 0.000000
0.352834 0.784370 0.000000
0.388902 0.784370 0.000000
0.425240 0.784370 0.000000
0.461759 0.784370 0.000000
0.498370 0.784370 0.000000
0.534986 0.784370 0.000000
0.571517 0.784370 0.000000
0.607874 0.784370 0.000000
0.643970 0.784370 0.000000
0.679715 0.784370 0.000000
0.715021 0.784370 0.000000
0.749799 0.784370 0.000000
0.783961 0.784370 0.000000
0.817418 0.784370 0.000000
0.850082 0.784370 0.000000
0.881643 0.784159 0.000000
0.912190 0.783910 0.000000
0.941741 0.783719 0.000000
0.970202 0.783579 0.000000
0.998560 0.784530 0.000000
1.000000 0.785594 0.000000
1.000000 0.786624 0.000000
1.000000 0.786653 0.000000
1.000000 0.786653 0.000000
0.054961 0.814508 0.000000
0.084601 0.814508 0.000000
0.115308 0.814508 0.000000
0.146993 0.814508 0.000000
0.179567 0.814508 0.000000
0.212943 0.814508 0.000000
0.247031 0.814508 0.000000
0.281743 0.814508 0.000000
0.316990 0.814508 0.000000
0.352685 0.814508 0.000000
0.388738 0.814508 0.000000
0.425061 0.814508 0.000000
0.461565 0.814508 0.000000
0.498163 0.814508 0.000000
0.534764 0.814508 0.000000
0.571282 0.814508 0.000000
0.607627 0.814508 0.000000
0.643711 0.814508 0.000000
0.679446 0.814508 0.000000
0.714742 0.814508 0.000000
0.749512 0.814508 0.000000
0.783667 0.814508 0.000000
0.817118 0.814508 0.000000
0.849777 0.814508 0.000000
0.881555 0.814508 0.000000
0.912190 0.814340 0.000000
0.941741 0.814145 0.000000
0.970202 0.814003 0.000000
0.998560 0.814972 0.000000
