assets/luts/honey.cube
TITLE "honey"
LUT_3D_SIZE 5
0.081948 0.010063 0.000000
0.331135 0.007136 0.000000
0.612366 0.006911 0.000000
0.881643 0.006861 0.000000
1.000000 0.006883 0.000000
0.058283 0.246789 0.000000
0.331135 0.242142 0.000000
0.612366 0.233737 0.000000
0.881643 0.231893 0.000000
1.000000 0.232719 0.000000
0.055572 0.497728 0.000000
0.320767 0.497728 0.000000
0.612366 0.495894 0.000000
0.881643 0.492006 0.000000
1.000000 0.493747 0.000000
0.055009 0.753707 0.000000
0.317292 0.753707 0.000000
0.608183 0.753707 0.000000
0.881643 0.753142 0.000000
1.000000 0.755580 0.000000
0.055151 0.976749 0.000000
0.318165 0.976749 0.000000
0.609789 0.976749 0.000000
0.884251 0.976749 0.000000
1.000000 0.976749 0.000000
0.056548 0.002303 0.153048
0.340744 0.000000 0.144495
0.622311 0.000000 0.136091
0.890340 0.000000 0.133691
1.000000 0.000000 0.133631
0.051411 0.247680 0.144564
0.323919 0.234232 0.136052
0.620251 0.224463 0.129464
0.916900 0.206072 0.114731
1.000000 0.216220 0.123470
0.042885 0.510026 0.134599
0.314287 0.502373 0.130711
0.620251 0.500148 0.129464
0.916900 0.493987 0.114731
1.000000 0.492529 0.123470
0.035762 0.773887 0.128361
0.305914 0.771005 0.125517
0.614301 0.771005 0.125517
0.916900 0.782853 0.114731
1.000000 0.769922 0.123470
0.030692 1.000000 0.124764
0.302978 1.000000 0.123470
0.612267 1.000000 0.123470
0.901762 1.000000 0.123470
1.000000 1.000000 0.123470
0.049422 0.000000 0.336483
0.325408 0.000000 0.336483
0.622311 0.000000 0.331266
0.890340 0.000000 0.325244
1.000000 0.000000 0.325093
0.044356 0.234232 0.337425
0.314287 0.226275 0.329729
0.618154 0.222872 0.326748
0.919296 0.200562 0.319498
1.000000 0.215689 0.322002
0.042885 0.510026 0.335185
0.310284 0.498254 0.326748
0.616717 0.493987 0.321604
0.912549 0.483377 0.313102
1.000000 0.490646 0.320785
0.035762 0.773887 0.326748
0.288622 0.784536 0.319498
0.608643 0.779326 0.314766
0.912549 0.777477 0.313102
1.000000 0.769061 0.320785
0.030692 1.000000 0.323309
0.301808 1.000000 0.321672
0.610440 1.000000 0.320785
0.901097 1.000000 0.320785
1.000000 1.000000 0.320785
0.048119 0.000000 0.533130
0.316192 0.000000 0.533130
0.614558 0.000000 0.533130
0.890340 0.000000 0.530403
1.000000 0.000000 0.530162
0.037102 0.224463 0.541192
0.305914 0.218953 0.537210
0.614301 0.218953 0.537210
0.919296 0.200562 0.545746
1.000000 0.215689 0.536024
0.037102 0.500148 0.541192
0.294098 0.493987 0.544940
0.608643 0.485595 0.541374
0.910924 0.481351 0.538411
1.000000 0.490305 0.535199
0.035762 0.773887 0.539646
0.288622 0.784536 0.545746
0.604119 0.775783 0.538411
0.904128 0.768722 0.532531
1.000000 0.768284 0.534593
0.030692 1.000000 0.536746
0.301808 1.000000 0.535842
0.609754 1.000000 0.535036
0.900497 1.000000 0.534593
1.000000 1.000000 0.534593
0.047817 0.000000 0.732201
0.314064 0.000000 0.732201
0.610592 0.000000 0.732201
0.889234 0.000000 0.732201
1.000000 0.000000 0.732905
0.011418 0.206072 0.764167
0.281444 0.194214 0.764081
0.608643 0.194214 0.764081
0.914320 0.194214 0.764081
1.000000 0.215689 0.747021
0.011418 0.493987 0.764167
0.278928 0.483377 0.762792
0.597503 0.475158 0.757956
0.905912 0.475158 0.757956
1.000000 0.490305 0.746915
0.011418 0.782853 0.764167
0.278928 0.777477 0.762792
0.595164 0.768722 0.756655
0.897437 0.761807 0.751778
1.000000 0.768142 0.746818
0.030692 1.000000 0.747114
0.301808 1.000000 0.746998
0.609754 1.000000 0.746894
0.900269 1.000000 0.746799
1.000000 1.000000 0.746747
