assets/luts/honey.cube
TITLE "honey"
LUT_3D_SIZE 9
0.081948 0.010063 0.000000
0.199829 0.007566 0.000000
0.331135 0.007136 0.000000
0.470452 0.006980 0.000000
0.612366 0.006911 0.000000
0.751328 0.006877 0.000000
0.881643 0.006861 0.000000
0.998560 0.006864 0.000000
1.000000 0.006883 0.000000
0.064705 0.133527 0.000000
0.199829 0.125302 0.000000
0.331135 0.117695 0.000000
0.470452 0.114960 0.000000
0.612366 0.113733 0.000000
0.751328 0.113141 0.000000
0.881643 0.112863 0.000000
0.998560 0.112921 0.000000
1.000000 0.113253 0.000000
0.058283 0.246789 0.000000
0.191008 0.246789 0.000000
0.331135 0.242142 0.000000
0.470452 0.236340 0.000000
0.612366 0.233737 0.000000
0.751328 0.232482 0.000000
0.881643 0.231893 0.000000
0.998560 0.232016 0.000000
1.000000 0.232719 0.000000
0.056373 0.369549 0.000000
0.184427 0.369549 0.000000
0.325717 0.369549 0.000000
0.470452 0.366638 0.000000
0.612366 0.362574 0.000000
0.751328 0.360613 0.000000
0.881643 0.359693 0.000000
0.998560 0.359885 0.000000
1.000000 0.360983 0.000000
0.055572 0.497728 0.000000
0.181670 0.497728 0.000000
0.320767 0.497728 0.000000
0.467015 0.497728 0.000000
0.612366 0.495894 0.000000
0.751328 0.493247 0.000000
0.881643 0.492006 0.000000
0.998560 0.492265 0.000000
1.000000 0.493747 0.000000
0.055192 0.627192 0.000000
0.180364 0.627192 0.000000
0.318421 0.627192 0.000000
0.463630 0.627192 0.000000
0.610258 0.627192 0.000000
0.751328 0.626099 0.000000
0.881643 0.624575 0.000000
0.998560 0.624893 0.000000
1.000000 0.626712 0.000000
0.055009 0.753707 0.000000
0.179735 0.753707 0.000000
0.317292 0.753707 0.000000
0.462001 0.753707 0.000000
0.608183 0.753707 0.000000
0.750158 0.753707 0.000000
0.881643 0.753142 0.000000
0.998560 0.753504 0.000000
1.000000 0.755580 0.000000
0.054931 0.872939 0.000000
0.179465 0.872939 0.000000
0.316806 0.872939 0.000000
0.461299 0.872939 0.000000
0.607288 0.872939 0.000000
0.749117 0.872939 0.000000
0.881131 0.872939 0.000000
0.998560 0.873837 0.000000
1.000000 0.876052 0.000000
0.055151 0.976749 0.000000
0.180221 0.976749 0.000000
0.318165 0.976749 0.000000
0.463262 0.976749 0.000000
0.609789 0.976749 0.000000
0.752026 0.976749 0.000000
0.884251 0.976749 0.000000
1.000000 0.976749 0.000000
1.000000 0.976749 0.000000
0.071787 0.006447 0.069517
0.204617 0.002947 0.057231
0.340744 0.000000 0.051714
0.480421 0.000000 0.049773
0.622311 0.000000 0.048827
0.760852 0.000000 0.048306
0.890340 0.000000 0.048001
1.000000 0.000000 0.047905
1.000000 0.000000 0.047980
0.058192 0.126573 0.057231
0.193366 0.119115 0.053379
0.332902 0.111991 0.049345
0.478988 0.107066 0.046292
0.626544 0.102989 0.043615
0.769798 0.099310 0.041113
0.902654 0.095839 0.038702
1.000000 0.077116 0.023896
1.000000 0.092850 0.036465
0.051411 0.247680 0.051621
0.186839 0.245471 0.050862
0.332902 0.241365 0.049345
0.478988 0.234232 0.046292
0.626544 0.228920 0.043615
0.769798 0.224463 0.041113
0.902654 0.220456 0.038702
1.000000 0.206072 0.023896
1.000000 0.217653 0.036465
0.046806 0.376548 0.048095
0.179240 0.374790 0.047516
0.327278 0.374790 0.047516
0.478988 0.371351 0.046292
0.626544 0.364890 0.043615
0.769798 0.359769 0.041113
0.902654 0.355355 0.038702
1.000000 0.346981 0.023896
1.000000 0.352928 0.036465
0.042885 0.510026 0.045226
0.173655 0.508616 0.044716
0.319985 0.508616 0.044716
0.474307 0.508616 0.044716
0.626544 0.505774 0.043615
0.769798 0.500148 0.041113
0.902654 0.495476 0.038702
1.000000 0.493987 0.023896
1.000000 0.493556 0.036465
0.039252 0.643967 0.042631
0.168952 0.642840 0.042155
0.314287 0.642840 0.042155
0.467806 0.642840 0.042155
0.622728 0.642840 0.042155
0.769798 0.640521 0.041113
0.902654 0.635759 0.038702
1.000000 0.641230 0.023896
1.000000 0.634417 0.036465
0.035762 0.773887 0.040171
0.164693 0.773000 0.039712
0.309394 0.773000 0.039712
0.462468 0.773000 0.039712
0.617173 0.773000 0.039712
0.766767 0.773000 0.039712
0.902654 0.771145 0.038702
1.000000 0.782853 0.023896
1.000000 0.770392 0.036465
0.032409 0.896553 0.037852
0.161179 0.896756 0.037444
0.305914 0.896756 0.037444
0.459217 0.896756 0.037444
0.614301 0.896756 0.037444
0.764377 0.896756 0.037444
0.902659 0.896756 0.037444
1.000000 0.912999 0.023896
1.000000 0.896359 0.036465
0.030692 1.000000 0.036688
0.159701 1.000000 0.036465
0.304506 1.000000 0.036465
0.457965 1.000000 0.036465
0.613265 1.000000 0.036465
0.763589 1.000000 0.036465
0.902125 1.000000 0.036465
1.000000 1.000000 0.036465
1.000000 1.000000 0.036465
0.056548 0.002303 0.153048
0.200358 0.002303 0.153048
0.340744 0.000000 0.144495
0.480421 0.000000 0.138841
0.622311 0.000000 0.136091
0.760852 0.000000 0.134578
0.890340 0.000000 0.133691
1.000000 0.000000 0.133412
1.000000 0.000000 0.133631
0.053603 0.119115 0.147926
0.186839 0.114582 0.143202
0.328976 0.109932 0.138674
0.475752 0.105421 0.134599
0.623924 0.101531 0.131291
0.767727 0.097948 0.128361
0.902514 0.094708 0.125874
1.000000 0.070625 0.110355
1.000000 0.092255 0.124124
0.051411 0.247680 0.144564
0.180475 0.238278 0.138674
0.323919 0.234232 0.136052
0.471367 0.228920 0.132513
0.620251 0.224463 0.129464
0.764750 0.220456 0.126673
0.916900 0.206072 0.114731
1.000000 0.197277 0.107996
1.000000 0.216220 0.123470
0.046806 0.376548 0.138674
0.174630 0.368625 0.134599
0.319985 0.367399 0.133927
0.471367 0.364890 0.132513
0.620251 0.359769 0.129464
0.764750 0.355355 0.126673
0.916900 0.346981 0.114731
1.000000 0.339670 0.107996
1.000000 0.351665 0.123470
0.042885 0.510026 0.134599
0.169804 0.503442 0.131291
0.314287 0.502373 0.130711
0.467806 0.502373 0.130711
0.620251 0.500148 0.129464
0.764750 0.495476 0.126673
0.916900 0.493987 0.114731
1.000000 0.488641 0.107996
1.000000 0.492529 0.123470
0.039252 0.643967 0.131291
0.165481 0.638574 0.128361
0.309394 0.637668 0.127830
0.462468 0.637668 0.127830
0.617173 0.637668 0.127830
0.764750 0.635759 0.126673
0.916900 0.641230 0.114731
1.000000 0.638073 0.107996
1.000000 0.633664 0.123470
0.035762 0.773887 0.128361
0.161741 0.770916 0.125874
0.305914 0.771005 0.125517
0.459217 0.771005 0.125517
0.614301 0.771005 0.125517
0.764377 0.771005 0.125517
0.916900 0.782853 0.114731
1.000000 0.781854 0.107996
1.000000 0.769922 0.123470
0.032409 0.896553 0.125874
0.137005 0.916119 0.110355
0.287464 0.915420 0.109619
0.449625 0.915420 0.109619
0.614264 0.915420 0.109619
0.773262 0.915420 0.109619
0.918501 0.915420 0.109619
1.000000 0.913867 0.107996
1.000000 0.896154 0.123470
0.030692 1.000000 0.124764
0.158349 1.000000 0.123671
0.302978 1.000000 0.123470
0.456671 1.000000 0.123470
0.612267 1.000000 0.123470
0.762915 1.000000 0.123470
0.901762 1.000000 0.123470
1.000000 1.000000 0.123470
1.000000 1.000000 0.123470
0.051087 0.000000 0.242985
0.186742 0.000000 0.242985
0.337194 0.000000 0.242985
0.480421 0.000000 0.235709
0.622311 0.000000 0.230936
0.760852 0.000000 0.228309
0.890340 0.000000 0.226770
1.000000 0.000000 0.226286
1.000000 0.000000 0.226665
0.048468 0.111991 0.240068
0.179240 0.108999 0.236171
0.327278 0.108999 0.236171
0.475752 0.105421 0.232009
0.623924 0.101531 0.227993
0.767727 0.097948 0.224628
0.902514 0.094708 0.222050
1.000000 0.070625 0.211451
1.000000 0.092255 0.220472
0.048468 0.241365 0.240068
0.176727 0.234232 0.233860
0.319985 0.231023 0.231172
0.468931 0.227122 0.227993
0.618154 0.222872 0.224628
0.764366 0.219407 0.222050
0.919296 0.200562 0.211451
1.000000 0.195220 0.207480
1.000000 0.215689 0.219517
0.046806 0.376548 0.237343
0.174630 0.368625 0.232009
0.315294 0.362793 0.227993
0.465448 0.359769 0.225877
0.615096 0.355355 0.222753
0.773512 0.346981 0.214824
0.916737 0.339670 0.209010
1.000000 0.334272 0.205076
1.000000 0.350476 0.218960
0.042885 0.510026 0.232009
0.169804 0.503442 0.227993
0.310284 0.498254 0.224628
0.462468 0.497365 0.224034
0.615096 0.495476 0.222753
0.773512 0.493987 0.214824
0.916737 0.488641 0.209010
1.000000 0.483377 0.205076
1.000000 0.491561 0.218960
0.039252 0.643967 0.227993
0.165481 0.638574 0.224628
0.306369 0.635299 0.222050
0.459217 0.635249 0.221768
0.614301 0.635249 0.221768
0.773512 0.641230 0.214824
0.916737 0.638073 0.209010
1.000000 0.633161 0.205076
1.000000 0.632954 0.218960
0.035762 0.773887 0.224628
0.161741 0.770916 0.222050
0.288622 0.784536 0.211451
0.449625 0.783703 0.210690
0.614264 0.783703 0.210690
0.773262 0.783703 0.210690
0.916737 0.781854 0.209010
1.000000 0.777477 0.205076
1.000000 0.769479 0.218960
0.032409 0.896553 0.222050
0.137005 0.916119 0.211451
0.282583 0.912440 0.207480
0.443652 0.911738 0.206731
0.608643 0.911738 0.206731
0.768254 0.911738 0.206731
0.914320 0.911738 0.206731
1.000000 0.910177 0.205076
1.000000 0.895962 0.218960
0.030692 1.000000 0.221052
0.158349 1.000000 0.220062
0.301808 1.000000 0.219131
0.455452 1.000000 0.218960
0.611328 1.000000 0.218960
0.762280 1.000000 0.218960
0.901420 1.000000 0.218960
1.000000 1.000000 0.218960
1.000000 1.000000 0.218960
0.049422 0.000000 0.336483
0.180321 0.000000 0.336483
0.325408 0.000000 0.336483
0.478060 0.000000 0.336483
0.622311 0.000000 0.331266
0.760852 0.000000 0.327469
0.890340 0.000000 0.325244
1.000000 0.000000 0.324544
1.000000 0.000000 0.325093
0.044356 0.107066 0.337425
0.173655 0.104646 0.334188
0.319985 0.104646 0.334188
0.474307 0.104646 0.334188
0.623924 0.101531 0.330497
0.767727 0.097948 0.326748
0.902514 0.094708 0.324147
1.000000 0.070625 0.319498
1.000000 0.092255 0.322815
0.044356 0.234232 0.337425
0.171594 0.228920 0.332166
0.314287 0.226275 0.329729
0.467806 0.226275 0.329729
0.618154 0.222872 0.326748
0.764366 0.219407 0.324147
0.919296 0.200562 0.319498
1.000000 0.195220 0.315518
1.000000 0.215689 0.322002
0.044356 0.371351 0.337425
0.171594 0.364890 0.332166
0.312149 0.359769 0.328122
0.462468 0.357157 0.326101
0.614448 0.354460 0.324147
0.774217 0.343015 0.319498
0.915117 0.337572 0.315518
1.000000 0.332199 0.311583
1.000000 0.350033 0.321235
0.042885 0.510026 0.335185
0.169804 0.503442 0.330497
0.310284 0.498254 0.326748
0.459527 0.494786 0.324147
0.616717 0.493987 0.321604
0.771146 0.488641 0.317054
0.912549 0.483377 0.313102
1.000000 0.478156 0.309191
1.000000 0.490646 0.320785
0.039252 0.643967 0.330497
0.165481 0.638574 0.326748
0.306369 0.635299 0.324147
0.450770 0.641095 0.319498
0.614264 0.640155 0.318737
0.771146 0.638073 0.317054
0.912549 0.633161 0.313102
1.000000 0.628270 0.309191
1.000000 0.632283 0.320785
0.035762 0.773887 0.326748
0.161741 0.770916 0.324147
0.288622 0.784536 0.319498
0.444784 0.780159 0.315518
0.608643 0.779326 0.314766
0.768254 0.779326 0.314766
0.912549 0.777477 0.313102
1.000000 0.773101 0.309191
1.000000 0.769061 0.320785
0.032409 0.896553 0.324147
0.137005 0.916119 0.319498
0.282583 0.912440 0.315518
0.438863 0.908744 0.311583
0.603058 0.908038 0.310838
0.763254 0.908038 0.310838
0.910124 0.908038 0.310838
1.000000 0.906469 0.309191
1.000000 0.895779 0.320785
0.030692 1.000000 0.323309
0.158349 1.000000 0.322466
0.301808 1.000000 0.321672
0.454514 1.000000 0.320923
0.610440 1.000000 0.320785
0.761680 1.000000 0.320785
0.901097 1.000000 0.320785
1.000000 1.000000 0.320785
1.000000 1.000000 0.320785
0.048586 0.000000 0.433819
0.177102 0.000000 0.433819
0.319497 0.000000 0.433819
0.469465 0.000000 0.433819
0.620702 0.000000 0.433819
0.760852 0.000000 0.430028
0.890340 0.000000 0.427120
1.000000 0.000000 0.426205
1.000000 0.000000 0.426922
0.040637 0.102989 0.438423
0.168952 0.100831 0.435719
0.314287 0.100831 0.435719
0.467806 0.100831 0.435719
0.622728 0.100831 0.435719
0.767727 0.097948 0.432496
0.902514 0.094708 0.429934
1.000000 0.070625 0.431822
1.000000 0.092255 0.428900
0.040637 0.228920 0.438423
0.167114 0.224463 0.433970
0.309394 0.222109 0.431808
0.462468 0.222109 0.431808
0.617173 0.222109 0.431808
0.764366 0.219407 0.429934
0.919296 0.200562 0.431822
1.000000 0.195220 0.427946
1.000000 0.215689 0.428259
0.040637 0.364890 0.438423
0.167114 0.359769 0.433970
0.307474 0.355355 0.430353
0.459217 0.354123 0.429853
0.614301 0.354123 0.429853
0.774217 0.343015 0.431822
0.915117 0.337572 0.427946
1.000000 0.332199 0.424099
1.000000 0.350033 0.427655
0.040637 0.505774 0.438423
0.167114 0.500148 0.433970
0.307474 0.495476 0.430353
0.454314 0.493987 0.432500
0.614264 0.490879 0.431081
0.769207 0.486597 0.427946
0.910924 0.481351 0.424099
1.000000 0.476145 0.420278
1.000000 0.490305 0.427082
0.039252 0.643967 0.436565
0.165481 0.638574 0.432496
0.306369 0.635299 0.429934
0.450770 0.641095 0.431822
0.609711 0.636169 0.427946
0.766141 0.633161 0.425585
0.908347 0.628270 0.421755
1.000000 0.623396 0.417948
1.000000 0.631645 0.426746
0.035762 0.773887 0.432496
0.161741 0.770916 0.429934
0.288622 0.784536 0.431822
0.444784 0.780159 0.427946
0.604119 0.775783 0.424099
0.763254 0.774950 0.423370
0.908347 0.773101 0.421755
1.000000 0.768722 0.417948
1.000000 0.768663 0.426746
0.032409 0.896553 0.429934
0.137005 0.916119 0.431822
0.282583 0.912440 0.427946
0.438863 0.908744 0.424099
0.598559 0.905029 0.420278
0.758260 0.904319 0.419553
0.905912 0.904319 0.419553
1.000000 0.902743 0.417948
1.000000 0.895606 0.426746
0.030692 1.000000 0.429289
0.158349 1.000000 0.428624
0.301808 1.000000 0.428000
0.454514 1.000000 0.427409
0.609754 1.000000 0.426849
0.761109 1.000000 0.426746
0.900790 1.000000 0.426746
1.000000 1.000000 0.426746
1.000000 1.000000 0.426746
0.048119 0.000000 0.533130
0.175303 0.000000 0.533130
0.316192 0.000000 0.533130
0.464654 0.000000 0.533130
0.614558 0.000000 0.533130
0.759772 0.000000 0.533130
0.890340 0.000000 0.530403
1.000000 0.000000 0.529285
1.000000 0.000000 0.530162
0.037102 0.099310 0.541192
0.164693 0.097287 0.538931
0.309394 0.097287 0.538931
0.462468 0.097287 0.538931
0.617173 0.097287 0.538931
0.766767 0.097287 0.538931
0.902514 0.094708 0.537180
1.000000 0.070625 0.545746
1.000000 0.092255 0.536473
0.037102 0.224463 0.541192
0.162975 0.220456 0.537432
0.305914 0.218953 0.537210
0.459217 0.218953 0.537210
0.614301 0.218953 0.537210
0.764377 0.218953 0.537210
0.919296 0.200562 0.545746
1.000000 0.195220 0.542072
1.000000 0.215689 0.536024
0.037102 0.359769 0.541192
0.162975 0.355355 0.537432
0.294098 0.346981 0.544940
0.449625 0.341972 0.545046
0.614264 0.341972 0.545046
0.773262 0.341972 0.545046
0.915117 0.337572 0.542072
1.000000 0.332199 0.538411
1.000000 0.350033 0.535601
0.037102 0.500148 0.541192
0.162975 0.495476 0.537432
0.294098 0.493987 0.544940
0.447093 0.488641 0.543493
0.608643 0.485595 0.541374
0.768254 0.485595 0.541374
0.910924 0.481351 0.538411
1.000000 0.476145 0.534763
1.000000 0.490305 0.535199
0.037102 0.640521 0.541192
0.162975 0.635759 0.537432
0.294098 0.641230 0.544940
0.447093 0.638073 0.543493
0.606280 0.633161 0.539827
0.763254 0.630334 0.537716
0.906715 0.626381 0.534763
1.000000 0.621513 0.531123
1.000000 0.631407 0.534818
0.035762 0.773887 0.539646
0.161741 0.770916 0.537180
0.288622 0.784536 0.545746
0.444784 0.780159 0.542072
0.604119 0.775783 0.538411
0.759211 0.771406 0.534763
0.904128 0.768722 0.532531
1.000000 0.764340 0.528898
1.000000 0.768284 0.534593
0.032409 0.896553 0.537180
0.137005 0.916119 0.545746
0.282583 0.912440 0.542072
0.438863 0.908744 0.538411
0.598559 0.905029 0.534763
0.754219 0.901295 0.531123
0.901683 0.900582 0.530432
1.000000 0.898998 0.528898
1.000000 0.895441 0.534593
0.030692 1.000000 0.536746
0.158349 1.000000 0.536280
0.301808 1.000000 0.535842
0.454514 1.000000 0.535429
0.609754 1.000000 0.535036
0.760667 1.000000 0.534662
0.900497 1.000000 0.534593
1.000000 1.000000 0.534593
1.000000 1.000000 0.534593
0.047842 0.000000 0.632526
0.174241 0.000000 0.632526
0.314241 0.000000 0.632526
0.461812 0.000000 0.632526
0.610923 0.000000 0.632526
0.755544 0.000000 0.632526
0.889646 0.000000 0.632526
1.000000 0.000000 0.631803
1.000000 0.000000 0.632820
0.033664 0.095839 0.643735
0.161179 0.094177 0.643791
0.305914 0.094177 0.643791
0.459217 0.094177 0.643791
0.614301 0.094177 0.643791
0.764377 0.094177 0.643791
0.902659 0.094177 0.643791
1.000000 0.070625 0.658598
1.000000 0.092255 0.643284
0.033664 0.220456 0.643735
0.143867 0.206072 0.656353
0.287464 0.199537 0.657952
0.449625 0.199537 0.657952
0.614264 0.199537 0.657952
0.773262 0.199537 0.657952
0.918501 0.199537 0.657952
1.000000 0.195220 0.655207
1.000000 0.215689 0.643033
0.033664 0.355355 0.643735
0.143867 0.346981 0.656353
0.284910 0.339670 0.656520
0.443652 0.336544 0.654561
0.608643 0.336544 0.654561
0.768254 0.336544 0.654561
0.914320 0.336544 0.654561
1.000000 0.332199 0.651816
1.000000 0.350033 0.642797
0.033664 0.495476 0.643735
0.143867 0.493987 0.656353
0.284910 0.488641 0.656520
0.441148 0.483377 0.653129
0.603058 0.480357 0.651170
0.763254 0.480357 0.651170
0.910124 0.480357 0.651170
1.000000 0.476145 0.648423
1.000000 0.490305 0.642573
0.033664 0.635759 0.643735
0.143867 0.641230 0.656353
0.284910 0.638073 0.656520
0.441148 0.633161 0.653129
0.600708 0.628270 0.649737
0.758260 0.625453 0.647776
0.905912 0.625453 0.647776
1.000000 0.621513 0.645027
1.000000 0.631407 0.642360
0.033664 0.771145 0.643735
0.143867 0.782853 0.656353
0.284910 0.781854 0.656520
0.441148 0.777477 0.653129
0.600708 0.773101 0.649737
0.756151 0.768722 0.646342
0.901683 0.766192 0.644381
1.000000 0.762642 0.641629
1.000000 0.768142 0.642156
0.032409 0.896553 0.643653
0.137005 0.916119 0.658598
0.282583 0.912440 0.655207
0.438863 0.908744 0.651816
0.598559 0.905029 0.648423
0.754219 0.901295 0.645027
0.898247 0.897543 0.641629
1.000000 0.895235 0.639546
1.000000 0.895283 0.642036
0.030692 1.000000 0.643436
0.158349 1.000000 0.643176
0.301808 1.000000 0.642932
0.454514 1.000000 0.642701
0.609754 1.000000 0.642481
0.760667 1.000000 0.642273
0.900269 1.000000 0.642073
1.000000 1.000000 0.642036
1.000000 1.000000 0.642036
0.047817 0.000000 0.732201
0.174145 0.000000 0.732201
0.314064 0.000000 0.732201
0.461553 0.000000 0.732201
0.610592 0.000000 0.732201
0.755159 0.000000 0.732201
0.889234 0.000000 0.732201
1.000000 0.000000 0.732201
1.000000 0.000000 0.732905
0.011418 0.077116 0.764167
0.135902 0.069673 0.767123
0.287464 0.069673 0.767123
0.449625 0.069673 0.767123
0.614264 0.069673 0.767123
0.773262 0.069673 0.767123
0.918501 0.069673 0.767123
1.000000 0.069673 0.767123
1.000000 0.092255 0.747079
0.011418 0.206072 0.764167
0.133472 0.197277 0.765840
0.281444 0.194214 0.764081
0.443652 0.194214 0.764081
0.608643 0.194214 0.764081
0.768254 0.194214 0.764081
0.914320 0.194214 0.764081
1.000000 0.194214 0.764081
1.000000 0.215689 0.747021
0.011418 0.346981 0.764167
0.133472 0.339670 0.765840
0.278928 0.334272 0.762792
0.437742 0.331183 0.761025
0.603058 0.331183 0.761025
0.763254 0.331183 0.761025
0.910124 0.331183 0.761025
1.000000 0.331183 0.761025
1.000000 0.350033 0.746966
0.011418 0.493987 0.764167
0.133472 0.488641 0.765840
0.278928 0.483377 0.762792
0.435263 0.478156 0.759730
0.597503 0.475158 0.757956
0.758260 0.475158 0.757956
0.905912 0.475158 0.757956
1.000000 0.475158 0.757956
1.000000 0.490305 0.746915
0.011418 0.641230 0.764167
0.133472 0.638073 0.765840
0.278928 0.633161 0.762792
0.435263 0.628270 0.759730
0.595164 0.623396 0.756655
0.753268 0.620588 0.754873
0.901683 0.620588 0.754873
1.000000 0.620588 0.754873
1.000000 0.631407 0.746865
0.011418 0.782853 0.764167
0.133472 0.781854 0.765840
0.278928 0.777477 0.762792
0.435263 0.773101 0.759730
0.595164 0.768722 0.756655
0.751160 0.764340 0.753567
0.897437 0.761807 0.751778
1.000000 0.761807 0.751778
1.000000 0.768142 0.746818
0.011418 0.912999 0.764167
0.133472 0.913867 0.765840
0.278928 0.910177 0.762792
0.435263 0.906469 0.759730
0.595164 0.902743 0.756655
0.751160 0.898998 0.753567
0.895639 0.895235 0.750467
1.000000 0.893053 0.748670
1.000000 0.895224 0.746774
0.030692 1.000000 0.747114
0.158349 1.000000 0.747054
0.301808 1.000000 0.746998
0.454514 1.000000 0.746944
0.609754 1.000000 0.746894
0.760667 1.000000 0.746845
0.900269 1.000000 0.746799
1.000000 1.000000 0.746755
1.000000 1.000000 0.746747
