assets/luts/ice.cube
TITLE "ice"
LUT_3D_SIZE 5
0.009269 0.010415 0.137732
0.256158 0.025028 0.068011
0.451739 0.044137 0.082176
0.640539 0.062583 0.100789
0.819632 0.090748 0.131268
0.024775 0.320121 0.069206
0.241299 0.312867 0.070423
0.448385 0.289968 0.084104
0.638480 0.289539 0.102860
0.801797 0.315174 0.157735
0.041675 0.538501 0.084754
0.225659 0.535031 0.086720
0.444644 0.535031 0.086720
0.638480 0.520064 0.102860
0.801797 0.520259 0.157735
0.058028 0.749806 0.103552
0.229082 0.747623 0.105630
0.432581 0.747623 0.105630
0.636080 0.747623 0.105630
0.801797 0.725343 0.157735
0.109549 0.923747 0.166563
0.263441 0.921079 0.174868
0.440388 0.921079 0.174868
0.617334 0.921079 0.174868
0.794280 0.921079 0.174868
0.027048 0.030392 0.401928
0.240312 0.030392 0.401928
0.451739 0.044137 0.373088
0.640539 0.062583 0.367630
0.819632 0.090748 0.380410
0.027048 0.311486 0.401928
0.226056 0.289968 0.371384
0.434208 0.288953 0.367572
0.628716 0.299392 0.377591
0.806890 0.341581 0.422851
0.041675 0.538501 0.370901
0.227386 0.521337 0.367572
0.432581 0.518972 0.368579
0.619272 0.520259 0.393582
0.809172 0.542297 0.426323
0.058028 0.749806 0.368100
0.238352 0.738003 0.377591
0.440388 0.722263 0.403506
0.617334 0.722263 0.403506
0.809172 0.739973 0.426323
0.109549 0.923747 0.398141
0.278652 0.935108 0.422851
0.460113 0.940413 0.430093
0.635884 0.940413 0.430093
0.811656 0.940413 0.430093
0.043860 0.049281 0.651738
0.225624 0.049281 0.651738
0.444091 0.049281 0.651738
0.640539 0.062583 0.634470
0.819632 0.090748 0.629553
0.043860 0.288858 0.651738
0.228146 0.289539 0.633068
0.432581 0.290321 0.631527
0.628716 0.299392 0.629792
0.806890 0.341581 0.650369
0.043860 0.534327 0.651738
0.228146 0.520064 0.633068
0.436747 0.520259 0.629429
0.630811 0.539424 0.650369
0.824062 0.560940 0.674931
0.058028 0.749806 0.632649
0.238352 0.738003 0.629792
0.454731 0.737266 0.650369
0.635884 0.742916 0.657213
0.826310 0.760236 0.678128
0.109549 0.923747 0.629720
0.278652 0.935108 0.650369
0.474034 0.954229 0.674931
0.654016 0.959461 0.681605
0.828757 0.959461 0.681605
0.060157 0.067592 0.893909
0.229248 0.067592 0.893909
0.432482 0.067592 0.893909
0.635715 0.067592 0.893909
0.819632 0.090748 0.878696
0.060157 0.290465 0.893909
0.254221 0.315174 0.865276
0.440388 0.324631 0.860783
0.617334 0.324631 0.860783
0.806890 0.341581 0.877888
0.060157 0.518817 0.893909
0.254221 0.520259 0.865276
0.457311 0.542297 0.880976
0.635884 0.545420 0.884334
0.824062 0.560940 0.901072
0.060157 0.747170 0.893909
0.254221 0.725343 0.865276
0.457311 0.739973 0.880976
0.651427 0.760236 0.904100
0.840996 0.777524 0.923841
0.109549 0.923747 0.861299
0.278652 0.935108 0.877888
0.474034 0.954229 0.901072
0.666930 0.973103 0.923841
0.845634 0.978275 0.930062
0.114339 0.128470 1.000000
0.261647 0.128470 1.000000
0.438700 0.128470 1.000000
0.615753 0.128470 1.000000
0.792806 0.128470 1.000000
0.114339 0.322632 1.000000
0.279149 0.342135 1.000000
0.458012 0.345449 1.000000
0.633903 0.345449 1.000000
0.809794 0.345449 1.000000
0.114339 0.521568 1.000000
0.279149 0.539947 1.000000
0.474491 0.561449 1.000000
0.652075 0.564501 1.000000
0.826922 0.564501 1.000000
0.114339 0.720504 1.000000
0.279149 0.737758 1.000000
0.474491 0.758067 1.000000
0.667356 0.777998 1.000000
0.843821 0.780841 1.000000
0.114339 0.919440 1.000000
0.279149 0.935570 1.000000
0.474491 0.954684 1.000000
0.667356 0.973553 1.000000
0.858133 0.992216 1.000000
