assets/luts/ice.cube
TITLE "ice"
LUT_3D_SIZE 9
0.009269 0.010415 0.137732
0.154023 0.015049 0.076417
0.256158 0.025028 0.068011
0.355042 0.034689 0.073855
0.451739 0.044137 0.082176
0.546795 0.053424 0.091313
0.640539 0.062583 0.100789
0.733194 0.071636 0.110419
0.819632 0.090748 0.131268
0.015989 0.206604 0.069881
0.124846 0.192390 0.068095
0.248607 0.171422 0.068855
0.350336 0.164283 0.075535
0.448385 0.165064 0.084104
0.544225 0.168917 0.093340
0.638480 0.174277 0.102860
0.731494 0.180482 0.112510
0.801797 0.212632 0.157735
0.024775 0.320121 0.069206
0.112295 0.312867 0.070423
0.241299 0.312867 0.070423
0.350336 0.298251 0.075535
0.448385 0.289968 0.084104
0.544225 0.288144 0.093340
0.638480 0.289539 0.102860
0.731494 0.292776 0.112510
0.801797 0.315174 0.157735
0.033312 0.430432 0.076113
0.112447 0.425684 0.077893
0.228885 0.425684 0.077893
0.345324 0.425684 0.077893
0.448385 0.414872 0.084104
0.544225 0.407372 0.093340
0.638480 0.404802 0.102860
0.731494 0.405069 0.112510
0.801797 0.417717 0.157735
0.041675 0.538501 0.084754
0.116166 0.535031 0.086720
0.225659 0.535031 0.086720
0.335151 0.535031 0.086720
0.444644 0.535031 0.086720
0.544225 0.526599 0.093340
0.638480 0.520064 0.102860
0.731494 0.517363 0.112510
0.801797 0.520259 0.157735
0.049906 0.644850 0.094019
0.121373 0.642151 0.096062
0.226350 0.642151 0.096062
0.331327 0.642151 0.096062
0.436304 0.642151 0.096062
0.541281 0.642151 0.096062
0.638480 0.635327 0.102860
0.731494 0.629657 0.112510
0.801797 0.622801 0.157735
0.058028 0.749806 0.103552
0.127332 0.747623 0.105630
0.229082 0.747623 0.105630
0.330832 0.747623 0.105630
0.432581 0.747623 0.105630
0.534331 0.747623 0.105630
0.636080 0.747623 0.105630
0.731494 0.741950 0.112510
0.801797 0.725343 0.157735
0.066061 0.853596 0.113207
0.133717 0.851780 0.115301
0.233012 0.851780 0.115301
0.332307 0.851780 0.115301
0.431602 0.851780 0.115301
0.530897 0.851780 0.115301
0.630192 0.851780 0.115301
0.729487 0.851780 0.115301
0.801797 0.827885 0.157735
0.109549 0.923747 0.166563
0.174968 0.921079 0.174868
0.263441 0.921079 0.174868
0.351915 0.921079 0.174868
0.440388 0.921079 0.174868
0.528861 0.921079 0.174868
0.617334 0.921079 0.174868
0.705807 0.921079 0.174868
0.794280 0.921079 0.174868
0.018340 0.020606 0.272517
0.123490 0.020606 0.272517
0.256158 0.025028 0.249627
0.355042 0.034689 0.231088
0.451739 0.044137 0.227632
0.546795 0.053424 0.229627
0.640539 0.062583 0.234210
0.733194 0.071636 0.240221
0.819632 0.090748 0.255839
0.018340 0.189997 0.272517
0.113718 0.171422 0.243149
0.233940 0.165030 0.231497
0.339655 0.164455 0.227637
0.440153 0.167713 0.229459
0.537618 0.172761 0.233951
0.633023 0.178784 0.239910
0.726307 0.189739 0.251490
0.798200 0.230676 0.295410
0.024775 0.320121 0.241402
0.111660 0.302423 0.231497
0.228885 0.294854 0.228347
0.337220 0.289968 0.227744
0.438113 0.288144 0.230452
0.535897 0.289539 0.235412
0.631552 0.292776 0.241647
0.710534 0.315174 0.275659
0.800502 0.333026 0.299049
0.033312 0.430432 0.229214
0.113849 0.418169 0.227637
0.225659 0.412006 0.228199
0.335151 0.412006 0.228199
0.438113 0.407372 0.230452
0.535897 0.404802 0.235412
0.631552 0.405069 0.241647
0.710534 0.417717 0.275659
0.800502 0.432188 0.299049
0.041675 0.538501 0.227827
0.118374 0.529262 0.229459
0.226350 0.524200 0.231707
0.331327 0.524200 0.231707
0.436304 0.524200 0.231707
0.535897 0.520064 0.235412
0.631552 0.517363 0.241647
0.710534 0.520259 0.275659
0.800502 0.531350 0.299049
0.049906 0.644850 0.230750
0.123975 0.637529 0.233951
0.229082 0.633297 0.237104
0.330832 0.633297 0.237104
0.432581 0.633297 0.237104
0.534331 0.633297 0.237104
0.631552 0.629657 0.241647
0.710534 0.622801 0.275659
0.800502 0.630512 0.299049
0.058028 0.749806 0.235826
0.130152 0.743807 0.239910
0.233012 0.740212 0.243604
0.332307 0.740212 0.243604
0.431602 0.740212 0.243604
0.530897 0.740212 0.243604
0.630192 0.740212 0.243604
0.710534 0.725343 0.275659
0.800502 0.729674 0.299049
0.066061 0.853596 0.242131
0.140761 0.847656 0.251490
0.263441 0.821671 0.289187
0.351915 0.821671 0.289187
0.440388 0.821671 0.289187
0.528861 0.821671 0.289187
0.617334 0.821671 0.289187
0.705807 0.821671 0.289187
0.800502 0.828837 0.299049
0.109549 0.923747 0.282352
0.179861 0.925438 0.295410
0.273992 0.930786 0.302996
0.362161 0.930786 0.302996
0.450330 0.930786 0.302996
0.538499 0.930786 0.302996
0.626669 0.930786 0.302996
0.714838 0.930786 0.302996
0.803007 0.930786 0.302996
0.027048 0.030392 0.401928
0.112149 0.030392 0.401928
0.240312 0.030392 0.401928
0.355042 0.034689 0.388321
0.451739 0.044137 0.373088
0.546795 0.053424 0.367941
0.640539 0.062583 0.367630
0.733194 0.071636 0.370024
0.819632 0.090748 0.380410
0.027048 0.167483 0.401928
0.111873 0.164283 0.383661
0.228885 0.164024 0.378802
0.339655 0.164455 0.373523
0.440153 0.167713 0.368053
0.537618 0.172761 0.367572
0.633023 0.178784 0.369865
0.726307 0.189739 0.377591
0.798200 0.230676 0.409549
0.027048 0.311486 0.401928
0.111873 0.298251 0.383661
0.226056 0.289968 0.371384
0.332893 0.288229 0.368053
0.434208 0.288953 0.367572
0.532449 0.291788 0.369865
0.628716 0.299392 0.377591
0.709866 0.329927 0.409549
0.806890 0.341581 0.422851
0.033312 0.430432 0.382315
0.113849 0.418169 0.373523
0.225633 0.408746 0.368053
0.331327 0.406248 0.367351
0.433313 0.404802 0.367964
0.531611 0.405069 0.370785
0.619272 0.417717 0.393582
0.712247 0.432188 0.413085
0.809172 0.443460 0.426323
0.041675 0.538501 0.370901
0.118374 0.529262 0.368053
0.227386 0.521337 0.367572
0.330832 0.518972 0.368579
0.432581 0.518972 0.368579
0.531611 0.517363 0.370785
0.619272 0.520259 0.393582
0.712247 0.531350 0.413085
0.809172 0.542297 0.426323
0.049906 0.644850 0.367481
0.123975 0.637529 0.367572
0.230726 0.630802 0.369865
0.332307 0.628645 0.371906
0.431602 0.628645 0.371906
0.530897 0.628645 0.371906
0.619272 0.622801 0.393582
0.712247 0.630512 0.413085
0.809172 0.641135 0.426323
0.058028 0.749806 0.368100
0.130152 0.743807 0.369865
0.238352 0.738003 0.377591
0.351915 0.722263 0.403506
0.440388 0.722263 0.403506
0.528861 0.722263 0.403506
0.617334 0.722263 0.403506
0.712247 0.729674 0.413085
0.809172 0.739973 0.426323
0.066061 0.853596 0.371054
0.140761 0.847656 0.377591
0.268195 0.826186 0.409549
0.362161 0.831719 0.416922
0.450330 0.831719 0.416922
0.538499 0.831719 0.416922
0.626669 0.831719 0.416922
0.714838 0.831719 0.416922
0.809172 0.838810 0.426323
0.109549 0.923747 0.398141
0.179861 0.925438 0.409549
0.278652 0.935108 0.422851
0.372227 0.940413 0.430093
0.460113 0.940413 0.430093
0.547999 0.940413 0.430093
0.635884 0.940413 0.430093
0.723770 0.940413 0.430093
0.811656 0.940413 0.430093
0.035535 0.039926 0.528027
0.112570 0.039926 0.528027
0.228588 0.039926 0.528027
0.344606 0.039926 0.528027
0.451739 0.044137 0.518543
0.546795 0.053424 0.506254
0.640539 0.062583 0.501050
0.733194 0.071636 0.499826
0.819632 0.090748 0.504982
0.035535 0.164026 0.528027
0.114891 0.165064 0.515023
0.225659 0.165955 0.511157
0.335151 0.165955 0.511157
0.440153 0.167713 0.506647
0.537618 0.172761 0.501193
0.633023 0.178784 0.499820
0.726307 0.189739 0.503692
0.798200 0.230676 0.523689
0.035535 0.294383 0.528027
0.114891 0.289968 0.515023
0.225888 0.288144 0.504675
0.331327 0.288296 0.502995
0.434208 0.288953 0.501193
0.532449 0.291788 0.499820
0.628716 0.299392 0.503692
0.709866 0.329927 0.523689
0.806890 0.341581 0.536610
0.035535 0.424740 0.528027
0.114891 0.414872 0.515023
0.225888 0.407372 0.504675
0.330730 0.404802 0.500516
0.431875 0.404793 0.499820
0.531125 0.409044 0.503692
0.621532 0.429179 0.523689
0.718851 0.440502 0.536610
0.815509 0.451641 0.549326
0.041675 0.538501 0.513974
0.118374 0.529262 0.506647
0.227386 0.521337 0.501193
0.331300 0.517798 0.499820
0.431602 0.517078 0.500209
0.528009 0.520259 0.511506
0.623993 0.531350 0.527122
0.721207 0.542297 0.539986
0.817773 0.553088 0.552652
0.049906 0.644850 0.504212
0.123975 0.637529 0.501193
0.230726 0.630802 0.499820
0.335943 0.628350 0.503692
0.440388 0.622855 0.517825
0.528861 0.622855 0.517825
0.623993 0.630512 0.527122
0.721207 0.641135 0.539986
0.817773 0.651622 0.552652
0.058028 0.749806 0.500375
0.130152 0.743807 0.499820
0.238352 0.738003 0.503692
0.356529 0.726935 0.523689
0.450330 0.732653 0.530849
0.538499 0.732653 0.530849
0.626669 0.732653 0.530849
0.721207 0.739973 0.539986
0.817773 0.750155 0.552652
0.066061 0.853596 0.499977
0.140761 0.847656 0.503692
0.268195 0.826186 0.523689
0.366692 0.836187 0.536610
0.460113 0.841664 0.543653
0.547999 0.841664 0.543653
0.635884 0.841664 0.543653
0.723770 0.841664 0.543653
0.817773 0.848689 0.552652
0.109549 0.923747 0.513931
0.179861 0.925438 0.523689
0.278652 0.935108 0.536610
0.376684 0.944702 0.549326
0.469755 0.949969 0.556266
0.557376 0.949969 0.556266
0.644996 0.949969 0.556266
0.732617 0.949969 0.556266
0.820237 0.949969 0.556266
0.043860 0.049281 0.651738
0.116391 0.049281 0.651738
0.225624 0.049281 0.651738
0.334858 0.049281 0.651738
0.444091 0.049281 0.651738
0.546795 0.053424 0.644568
0.640539 0.062583 0.634470
0.733194 0.071636 0.629629
0.819632 0.090748 0.629553
0.043860 0.166124 0.651738
0.119776 0.168917 0.641786
0.226350 0.170345 0.638640
0.331327 0.170345 0.638640
0.436304 0.170345 0.638640
0.537618 0.172761 0.634813
0.633023 0.178784 0.629775
0.726307 0.189739 0.629792
0.798200 0.230676 0.637829
0.043860 0.288858 0.651738
0.119776 0.288144 0.641786
0.228146 0.289539 0.633068
0.330832 0.290321 0.631527
0.432581 0.290321 0.631527
0.532449 0.291788 0.629775
0.628716 0.299392 0.629792
0.709866 0.329927 0.637829
0.806890 0.341581 0.650369
0.043860 0.411592 0.651738
0.119776 0.407372 0.641786
0.228146 0.404802 0.633068
0.331729 0.405069 0.629060
0.431602 0.405510 0.628511
0.531125 0.409044 0.629792
0.621532 0.429179 0.637829
0.718851 0.440502 0.650369
0.815509 0.451641 0.662730
0.043860 0.534327 0.651738
0.119776 0.526599 0.641786
0.228146 0.520064 0.633068
0.331729 0.517363 0.629060
0.436747 0.520259 0.629429
0.533198 0.528431 0.637829
0.630811 0.539424 0.650369
0.727744 0.550253 0.662730
0.824062 0.560940 0.674931
0.049906 0.644850 0.640943
0.123975 0.637529 0.634813
0.230726 0.630802 0.629775
0.335943 0.628350 0.629792
0.444863 0.627683 0.637829
0.538499 0.633587 0.644775
0.633242 0.641135 0.653649
0.730077 0.651622 0.665966
0.826310 0.661988 0.678128
0.058028 0.749806 0.632649
0.130152 0.743807 0.629775
0.238352 0.738003 0.629792
0.356529 0.726935 0.637829
0.454731 0.737266 0.650369
0.547999 0.742916 0.657213
0.635884 0.742916 0.657213
0.730077 0.750155 0.665966
0.826310 0.760236 0.678128
0.066061 0.853596 0.628901
0.140761 0.847656 0.629792
0.268195 0.826186 0.637829
0.366692 0.836187 0.650369
0.464449 0.846090 0.662730
0.557376 0.851519 0.669483
0.644996 0.851519 0.669483
0.732617 0.851519 0.669483
0.826310 0.858485 0.678128
0.109549 0.923747 0.629720
0.179861 0.925438 0.637829
0.278652 0.935108 0.650369
0.376684 0.944702 0.662730
0.474034 0.954229 0.674931
0.566645 0.959461 0.681605
0.654016 0.959461 0.681605
0.741387 0.959461 0.681605
0.828757 0.959461 0.681605
0.052060 0.058494 0.773585
0.121646 0.058494 0.773585
0.226444 0.058494 0.773585
0.331242 0.058494 0.773585
0.436041 0.058494 0.773585
0.540839 0.058494 0.773585
0.640539 0.062583 0.767890
0.733194 0.071636 0.759432
0.819632 0.090748 0.754124
0.052060 0.170593 0.773585
0.125562 0.174277 0.765620
0.229082 0.175996 0.763001
0.330832 0.175996 0.763001
0.432581 0.175996 0.763001
0.534331 0.175996 0.763001
0.633023 0.178784 0.759731
0.726307 0.189739 0.755893
0.798200 0.230676 0.751968
0.052060 0.288344 0.773585
0.125562 0.289539 0.765620
0.231788 0.292776 0.758197
0.332307 0.293943 0.756814
0.431602 0.293943 0.756814
0.530897 0.293943 0.756814
0.628716 0.299392 0.755893
0.709866 0.329927 0.751968
0.806890 0.341581 0.764129
0.052060 0.406095 0.773585
0.125562 0.404802 0.765620
0.231788 0.405069 0.758197
0.345484 0.417717 0.747353
0.440388 0.424039 0.746464
0.528861 0.424039 0.746464
0.621532 0.429179 0.751968
0.718851 0.440502 0.764129
0.815509 0.451641 0.776134
0.052060 0.523846 0.773585
0.125562 0.520064 0.765620
0.231788 0.517363 0.758197
0.345484 0.520259 0.747353
0.447484 0.531350 0.755195
0.538499 0.534520 0.758701
0.630811 0.539424 0.764129
0.727744 0.550253 0.776134
0.824062 0.560940 0.788002
0.052060 0.641596 0.773585
0.125562 0.635327 0.765620
0.231788 0.629657 0.758197
0.345484 0.622801 0.747353
0.447484 0.630512 0.755195
0.545276 0.641135 0.767312
0.639979 0.648865 0.776134
0.736555 0.659262 0.788002
0.832556 0.669548 0.799747
0.058028 0.749806 0.764923
0.130152 0.743807 0.759731
0.238352 0.738003 0.755893
0.356529 0.726935 0.751968
0.454731 0.737266 0.764129
0.552214 0.747478 0.776134
0.644996 0.753069 0.782701
0.738868 0.760236 0.791114
0.834789 0.770225 0.802829
0.066061 0.853596 0.757824
0.140761 0.847656 0.755893
0.268195 0.826186 0.751968
0.366692 0.836187 0.764129
0.464449 0.846090 0.776134
0.561541 0.855906 0.788002
0.654016 0.861291 0.794500
0.741387 0.861291 0.794500
0.834789 0.868204 0.802829
0.109549 0.923747 0.745509
0.179861 0.925438 0.751968
0.278652 0.935108 0.764129
0.376684 0.944702 0.776134
0.474034 0.954229 0.788002
0.570766 0.963694 0.799747
0.662952 0.968894 0.806183
0.750087 0.968894 0.806183
0.837221 0.968894 0.806183
0.060157 0.067592 0.893909
0.127631 0.067592 0.893909
0.229248 0.067592 0.893909
0.330865 0.067592 0.893909
0.432482 0.067592 0.893909
0.534099 0.067592 0.893909
0.635715 0.067592 0.893909
0.733194 0.071636 0.889234
0.819632 0.090748 0.878696
0.060157 0.176288 0.893909
0.131846 0.180482 0.887335
0.233012 0.182375 0.885116
0.332307 0.182375 0.885116
0.431602 0.182375 0.885116
0.530897 0.182375 0.885116
0.630192 0.182375 0.885116
0.726307 0.189739 0.881994
0.798200 0.230676 0.866108
0.060157 0.290465 0.893909
0.131846 0.292776 0.887335
0.254221 0.315174 0.865276
0.351915 0.324631 0.860783
0.440388 0.324631 0.860783
0.528861 0.324631 0.860783
0.617334 0.324631 0.860783
0.709866 0.329927 0.866108
0.806890 0.341581 0.877888
0.060157 0.404641 0.893909
0.131846 0.405069 0.887335
0.254221 0.417717 0.865276
0.359230 0.432188 0.869231
0.450330 0.435454 0.872627
0.538499 0.435454 0.872627
0.626669 0.435454 0.872627
0.718851 0.440502 0.877888
0.815509 0.451641 0.889538
0.060157 0.518817 0.893909
0.131846 0.517363 0.887335
0.254221 0.520259 0.865276
0.359230 0.531350 0.869231
0.457311 0.542297 0.880976
0.547999 0.545420 0.884334
0.635884 0.545420 0.884334
0.727744 0.550253 0.889538
0.824062 0.560940 0.901072
0.060157 0.632994 0.893909
0.131846 0.629657 0.887335
0.254221 0.622801 0.865276
0.359230 0.630512 0.869231
0.457311 0.641135 0.880976
0.554687 0.651622 0.892594
0.644996 0.654619 0.895918
0.736555 0.659262 0.901072
0.832556 0.669548 0.912504
0.060157 0.747170 0.893909
0.131846 0.741950 0.887335
0.254221 0.725343 0.865276
0.359230 0.729674 0.869231
0.457311 0.739973 0.880976
0.554687 0.750155 0.892594
0.651427 0.760236 0.904100
0.745292 0.767596 0.912504
0.840996 0.777524 0.923841
0.066061 0.853596 0.886748
0.140761 0.847656 0.881994
0.268195 0.826186 0.866108
0.366692 0.836187 0.877888
0.464449 0.846090 0.889538
0.561541 0.855906 0.901072
0.658029 0.865645 0.912504
0.750087 0.870990 0.918773
0.843216 0.877855 0.926820
0.109549 0.923747 0.861299
0.179861 0.925438 0.866108
0.278652 0.935108 0.877888
0.376684 0.944702 0.889538
0.474034 0.954229 0.901072
0.570766 0.963694 0.912504
0.666930 0.973103 0.923841
0.758723 0.978275 0.930062
0.845634 0.978275 0.930062
0.068168 0.076593 1.000000
0.134031 0.076593 1.000000
0.233223 0.076593 1.000000
0.332414 0.076593 1.000000
0.431605 0.076593 1.000000
0.530797 0.076593 1.000000
0.629988 0.076593 1.000000
0.729179 0.076593 1.000000
0.819632 0.090748 1.000000
0.068168 0.182695 1.000000
0.162959 0.212632 0.983200
0.263441 0.225223 0.975102
0.351915 0.225223 0.975102
0.440388 0.225223 0.975102
0.528861 0.225223 0.975102
0.617334 0.225223 0.975102
0.705807 0.225223 0.975102
0.798200 0.230676 0.980247
0.068168 0.294146 1.000000
0.162959 0.315174 0.983200
0.270976 0.333026 0.983268
0.362161 0.336388 0.986554
0.450330 0.336388 0.986554
0.538499 0.336388 0.986554
0.626669 0.336388 0.986554
0.714838 0.336388 0.986554
0.806890 0.341581 0.991647
0.068168 0.405597 1.000000
0.162959 0.417717 0.983200
0.270976 0.432188 0.983268
0.369345 0.443460 0.994639
0.460113 0.446672 0.997894
0.547999 0.446672 0.997894
0.635884 0.446672 0.997894
0.723770 0.446672 0.997894
0.815509 0.451641 1.000000
0.068168 0.517048 1.000000
0.162959 0.520259 0.983200
0.270976 0.531350 0.983268
0.369345 0.542297 0.994639
0.466992 0.553088 1.000000
0.557376 0.556169 1.000000
0.644996 0.556169 1.000000
0.732617 0.556169 1.000000
0.824062 0.560940 1.000000
0.068168 0.628499 1.000000
0.162959 0.622801 0.983200
0.270976 0.630512 0.983268
0.369345 0.641135 0.994639
0.466992 0.651622 1.000000
0.563986 0.661988 1.000000
0.654016 0.664953 1.000000
0.741387 0.664953 1.000000
0.832556 0.669548 1.000000
0.068168 0.739950 1.000000
0.162959 0.725343 0.983200
0.270976 0.729674 0.983268
0.369345 0.739973 0.994639
0.466992 0.750155 1.000000
0.563986 0.760236 1.000000
0.660386 0.770225 1.000000
0.750087 0.773086 1.000000
0.840996 0.777524 1.000000
0.068168 0.851401 1.000000
0.162959 0.827885 0.983200
0.270976 0.828837 0.983268
0.369345 0.838810 0.994639
0.466992 0.848689 1.000000
0.563986 0.858485 1.000000
0.660386 0.868204 1.000000
0.756242 0.877855 1.000000
0.849388 0.884917 1.000000
0.109549 0.923747 0.977088
0.179861 0.925438 0.980247
0.278652 0.935108 0.991647
0.376684 0.944702 1.000000
0.474034 0.954229 1.000000
0.570766 0.963694 1.000000
0.666930 0.973103 1.000000
0.762574 0.982461 1.000000
0.854000 0.987605 1.000000
0.114339 0.128470 1.000000
0.173120 0.128470 1.000000
0.261647 0.128470 1.000000
0.350173 0.128470 1.000000
0.438700 0.128470 1.000000
0.527227 0.128470 1.000000
0.615753 0.128470 1.000000
0.704280 0.128470 1.000000
0.792806 0.128470 1.000000
0.114339 0.223164 1.000000
0.180382 0.231257 1.000000
0.271732 0.234730 1.000000
0.359964 0.234730 1.000000
0.448197 0.234730 1.000000
0.536430 0.234730 1.000000
0.624663 0.234730 1.000000
0.712896 0.234730 1.000000
0.801129 0.234730 1.000000
0.114339 0.322632 1.000000
0.180382 0.330492 1.000000
0.279149 0.342135 1.000000
0.370067 0.345449 1.000000
0.458012 0.345449 1.000000
0.545958 0.345449 1.000000
0.633903 0.345449 1.000000
0.721848 0.345449 1.000000
0.809794 0.345449 1.000000
0.114339 0.422100 1.000000
0.180382 0.429727 1.000000
0.279149 0.441041 1.000000
0.377160 0.452171 1.000000
0.467684 0.455346 1.000000
0.555360 0.455346 1.000000
0.643036 0.455346 1.000000
0.730713 0.455346 1.000000
0.818389 0.455346 1.000000
0.114339 0.521568 1.000000
0.180382 0.528963 1.000000
0.279149 0.539947 1.000000
0.377160 0.550769 1.000000
0.474491 0.561449 1.000000
0.564651 0.564501 1.000000
0.652075 0.564501 1.000000
0.739498 0.564501 1.000000
0.826922 0.564501 1.000000
0.114339 0.621036 1.000000
0.180382 0.628198 1.000000
0.279149 0.638853 1.000000
0.377160 0.649367 1.000000
0.474491 0.659758 1.000000
0.571206 0.670039 1.000000
0.661028 0.672981 1.000000
0.748213 0.672981 1.000000
0.835398 0.672981 1.000000
0.114339 0.720504 1.000000
0.180382 0.727434 1.000000
0.279149 0.737758 1.000000
0.377160 0.747965 1.000000
0.474491 0.758067 1.000000
0.571206 0.768075 1.000000
0.667356 0.777998 1.000000
0.756863 0.780841 1.000000
0.843821 0.780841 1.000000
0.114339 0.819972 1.000000
0.180382 0.826669 1.000000
0.279149 0.836664 1.000000
0.377160 0.846563 1.000000
0.474491 0.856376 1.000000
0.571206 0.866111 1.000000
0.667356 0.875776 1.000000
0.762985 0.885376 1.000000
0.852197 0.888130 1.000000
0.114339 0.919440 1.000000
0.180382 0.925904 1.000000
0.279149 0.935570 1.000000
0.377160 0.945161 1.000000
0.474491 0.954684 1.000000
0.571206 0.964147 1.000000
0.667356 0.973553 1.000000
0.762985 0.982909 1.000000
0.858133 0.992216 1.000000
