assets/luts/ice.cube
TITLE "ice"
LUT_3D_SIZE 33
0.009269 0.010415 0.137732
0.009269 0.010415 0.137732
0.083163 0.010415 0.137732
0.127728 0.012480 0.092972
0.154023 0.015049 0.076417
0.179962 0.017583 0.070395
0.205604 0.020088 0.068114
0.230992 0.022569 0.067584
0.256158 0.025028 0.068011
0.281128 0.027467 0.069017
0.305921 0.029890 0.070398
0.330555 0.032296 0.072036
0.355042 0.034689 0.073855
0.379394 0.037068 0.075807
0.403623 0.039436 0.077859
0.427735 0.041791 0.079988
0.451739 0.044137 0.082176
0.475641 0.046472 0.084411
0.499448 0.048798 0.086683
0.523164 0.051115 0.088986
0.546795 0.053424 0.091313
0.570344 0.055725 0.093661
0.593815 0.058018 0.096024
0.617212 0.060304 0.098401
0.640539 0.062583 0.100789
0.663798 0.064856 0.103187
0.686992 0.067122 0.105592
0.710123 0.069382 0.108003
0.733194 0.071636 0.110419
0.756207 0.073884 0.112839
0.779165 0.076127 0.115262
0.803316 0.078487 0.117871
0.819632 0.090748 0.131268
0.009269 0.112679 0.137732
0.009269 0.112679 0.137732
0.059702 0.079815 0.097182
0.104391 0.064685 0.078383
0.137734 0.058977 0.071161
0.167533 0.056878 0.068380
0.195603 0.056400 0.067595
0.222656 0.056788 0.067876
0.249034 0.057690 0.068790
0.274923 0.058921 0.070110
0.300437 0.060374 0.071705
0.325650 0.061984 0.073494
0.350614 0.063708 0.075423
0.375365 0.065516 0.077458
0.399930 0.067389 0.079574
0.424332 0.069312 0.081752
0.448587 0.071275 0.083978
0.472709 0.073268 0.086244
0.496709 0.075287 0.088542
0.520597 0.077326 0.090865
0.544382 0.079381 0.093209
0.568069 0.081449 0.095569
0.591666 0.083529 0.097944
0.615177 0.085617 0.100330
0.638607 0.087712 0.102726
0.661961 0.089814 0.105129
0.685241 0.091920 0.107539
0.708453 0.094031 0.109954
0.731599 0.096144 0.112374
0.754681 0.098260 0.114797
0.778505 0.100481 0.117344
0.799501 0.107499 0.125390
0.802887 0.134228 0.156019
0.011457 0.148034 0.089083
0.011457 0.148034 0.089083
0.049177 0.126723 0.078383
0.100823 0.122297 0.076269
0.136908 0.110219 0.070923
0.166854 0.102695 0.068295
0.195033 0.098694 0.067588
0.222167 0.096596 0.067913
0.248607 0.095642 0.068855
0.274545 0.095429 0.070193
0.300099 0.095722 0.071801
0.325345 0.096377 0.073599
0.350336 0.097299 0.075535
0.375110 0.098423 0.077575
0.399696 0.099704 0.079694
0.424115 0.101108 0.081875
0.448385 0.102612 0.084104
0.472520 0.104196 0.086372
0.496532 0.105846 0.088671
0.520431 0.107552 0.090996
0.544225 0.109303 0.093340
0.567921 0.111094 0.095702
0.591526 0.112917 0.098077
0.615044 0.114769 0.100464
0.638480 0.116646 0.102860
0.661840 0.118543 0.105264
0.685127 0.120459 0.107674
0.708343 0.122390 0.110090
0.731494 0.124336 0.112510
0.754580 0.126293 0.114933
0.778528 0.128414 0.117498
0.798331 0.136311 0.127104
0.801797 0.161361 0.157735
0.013738 0.177513 0.075102
0.013738 0.177513 0.075102
0.045478 0.162636 0.071161
0.089956 0.159128 0.070338
0.134807 0.159128 0.070338
0.166854 0.148573 0.068295
0.195033 0.140985 0.067588
0.222167 0.136365 0.067913
0.248607 0.133532 0.068855
0.274545 0.131860 0.070193
0.300099 0.130983 0.071801
0.325345 0.130676 0.073599
0.350336 0.130791 0.075535
0.375110 0.131227 0.077575
0.399696 0.131912 0.079694
0.424115 0.132795 0.081875
0.448385 0.133838 0.084104
0.472520 0.135011 0.086372
0.496532 0.136292 0.088671
0.520431 0.137663 0.090996
0.544225 0.139110 0.093340
0.567921 0.140622 0.095702
0.591526 0.142189 0.098077
0.615044 0.143805 0.100464
0.638480 0.145461 0.102860
0.661840 0.147154 0.105264
0.685127 0.148879 0.107674
0.708343 0.150632 0.110090
0.731494 0.152409 0.112510
0.754580 0.154208 0.114933
0.778528 0.156212 0.117498
0.798331 0.163627 0.127104
0.801797 0.186997 0.157735
0.015989 0.206604 0.069881
0.015989 0.206604 0.069881
0.044381 0.195250 0.068380
0.084586 0.192390 0.068095
0.124846 0.192390 0.068095
0.165107 0.192390 0.068095
0.195033 0.183276 0.067588
0.222167 0.176134 0.067913
0.248607 0.171422 0.068855
0.274545 0.168291 0.070193
0.300099 0.166244 0.071801
0.325345 0.164975 0.073599
0.350336 0.164283 0.075535
0.375110 0.164030 0.077575
0.399696 0.164120 0.079694
0.424115 0.164482 0.081875
0.448385 0.165064 0.084104
0.472520 0.165826 0.086372
0.496532 0.166737 0.088671
0.520431 0.167774 0.090996
0.544225 0.168917 0.093340
0.567921 0.170150 0.095702
0.591526 0.171461 0.098077
0.615044 0.172840 0.100464
0.638480 0.174277 0.102860
0.661840 0.175765 0.105264
0.685127 0.177299 0.107674
0.708343 0.178873 0.110090
0.731494 0.180482 0.112510
0.754580 0.182123 0.114933
0.778528 0.184011 0.117498
0.798331 0.190943 0.127104
0.801797 0.212632 0.157735
0.018216 0.235369 0.067948
0.018216 0.235369 0.067948
0.044453 0.226232 0.067595
0.081805 0.223835 0.067584
0.119054 0.223835 0.067584
0.156303 0.223835 0.067584
0.193552 0.223835 0.067584
0.222167 0.215902 0.067913
0.248607 0.209312 0.068855
0.274545 0.204722 0.070193
0.300099 0.201505 0.071801
0.325345 0.199274 0.073599
0.350336 0.197775 0.075535
0.375110 0.196834 0.077575
0.399696 0.196328 0.079694
0.424115 0.196168 0.081875
0.448385 0.196290 0.084104
0.472520 0.196641 0.086372
0.496532 0.197183 0.088671
0.520431 0.197885 0.090996
0.544225 0.198724 0.093340
0.567921 0.199678 0.095702
0.591526 0.200733 0.098077
0.615044 0.201875 0.100464
0.638480 0.203093 0.102860
0.661840 0.204377 0.105264
0.685127 0.205720 0.107674
0.708343 0.207114 0.110090
0.731494 0.208556 0.112510
0.754580 0.210039 0.114933
0.778528 0.211809 0.117498
0.798331 0.218259 0.127104
0.801797 0.238268 0.157735
0.020420 0.263855 0.067599
0.020420 0.263855 0.067599
0.045145 0.256239 0.067876
0.080451 0.254185 0.068023
0.115560 0.254185 0.068023
0.150669 0.254185 0.068023
0.185779 0.254185 0.068023
0.220888 0.254185 0.068023
0.248607 0.247203 0.068855
0.274545 0.241153 0.070193
0.300099 0.236766 0.071801
0.325345 0.233573 0.073599
0.350336 0.231267 0.075535
0.375110 0.229637 0.077575
0.399696 0.228536 0.079694
0.424115 0.227855 0.081875
0.448385 0.227516 0.084104
0.472520 0.227456 0.086372
0.496532 0.227628 0.088671
0.520431 0.227996 0.090996
0.544225 0.228531 0.093340
0.567921 0.229207 0.095702
0.591526 0.230005 0.098077
0.615044 0.230910 0.100464
0.638480 0.231908 0.102860
0.661840 0.232988 0.105264
0.685127 0.234140 0.107674
0.708343 0.235356 0.110090
0.731494 0.236629 0.112510
0.754580 0.237954 0.114933
0.778528 0.239608 0.117498
0.798331 0.245574 0.127104
0.801797 0.263903 0.157735
0.022606 0.292096 0.068133
0.022606 0.292096 0.068133
0.046206 0.285587 0.068790
0.079964 0.283796 0.069037
0.113468 0.283796 0.069037
0.146972 0.283796 0.069037
0.180477 0.283796 0.069037
0.213981 0.283796 0.069037
0.247486 0.283796 0.069037
0.274545 0.277584 0.070193
0.300099 0.272027 0.071801
0.325345 0.267872 0.073599
0.350336 0.264759 0.075535
0.375110 0.262441 0.077575
0.399696 0.260744 0.079694
0.424115 0.259542 0.081875
0.448385 0.258742 0.084104
0.472520 0.258271 0.086372
0.496532 0.258074 0.088671
0.520431 0.258108 0.090996
0.544225 0.258337 0.093340
0.567921 0.258735 0.095702
0.591526 0.259277 0.098077
0.615044 0.259945 0.100464
0.638480 0.260724 0.102860
0.661840 0.261599 0.105264
0.685127 0.262560 0.107674
0.708343 0.263597 0.110090
0.731494 0.264703 0.112510
0.754580 0.265869 0.114933
0.778528 0.267407 0.117498
0.798331 0.272890 0.127104
0.801797 0.289539 0.157735
0.024775 0.320121 0.069206
0.024775 0.320121 0.069206
0.047502 0.314451 0.070110
0.080044 0.312867 0.070423
0.112295 0.312867 0.070423
0.144546 0.312867 0.070423
0.176797 0.312867 0.070423
0.209048 0.312867 0.070423
0.241299 0.312867 0.070423
0.273550 0.312867 0.070423
0.300099 0.307288 0.071801
0.325345 0.302171 0.073599
0.350336 0.298251 0.075535
0.375110 0.295244 0.077575
0.399696 0.292952 0.079694
0.424115 0.291229 0.081875
0.448385 0.289968 0.084104
0.472520 0.289086 0.086372
0.496532 0.288519 0.088671
0.520431 0.288219 0.090996
0.544225 0.288144 0.093340
0.567921 0.288263 0.095702
0.591526 0.288549 0.098077
0.615044 0.288981 0.100464
0.638480 0.289539 0.102860
0.661840 0.290210 0.105264
0.685127 0.290980 0.107674
0.708343 0.291839 0.110090
0.731494 0.292776 0.112510
0.754580 0.293784 0.114933
0.778528 0.295205 0.117498
0.798331 0.300206 0.127104
0.801797 0.315174 0.157735
0.026928 0.347950 0.070633
0.026928 0.347950 0.070633
0.048955 0.342938 0.071705
0.080514 0.341522 0.072063
0.111756 0.341522 0.072063
0.142998 0.341522 0.072063
0.174239 0.341522 0.072063
0.205481 0.341522 0.072063
0.236723 0.341522 0.072063
0.267964 0.341522 0.072063
0.299206 0.341522 0.072063
0.325345 0.336471 0.073599
0.350336 0.331743 0.075535
0.375110 0.328048 0.077575
0.399696 0.325160 0.079694
0.424115 0.322916 0.081875
0.448385 0.321194 0.084104
0.472520 0.319901 0.086372
0.496532 0.318965 0.088671
0.520431 0.318330 0.090996
0.544225 0.317951 0.093340
0.567921 0.317791 0.095702
0.591526 0.317821 0.098077
0.615044 0.318016 0.100464
0.638480 0.318355 0.102860
0.661840 0.318821 0.105264
0.685127 0.319401 0.107674
0.708343 0.320080 0.110090
0.731494 0.320849 0.112510
0.754580 0.321699 0.114933
0.778528 0.323004 0.117498
0.798331 0.327522 0.127104
0.801797 0.340810 0.157735
0.029068 0.375602 0.072302
0.029068 0.375602 0.072302
0.050519 0.371120 0.073494
0.081265 0.369842 0.073885
0.111674 0.369842 0.073885
0.142083 0.369842 0.073885
0.172492 0.369842 0.073885
0.202901 0.369842 0.073885
0.233310 0.369842 0.073885
0.263719 0.369842 0.073885
0.294128 0.369842 0.073885
0.324537 0.369842 0.073885
0.350336 0.365235 0.075535
0.375110 0.360851 0.077575
0.399696 0.357368 0.079694
0.424115 0.354603 0.081875
0.448385 0.352420 0.084104
0.472520 0.350716 0.086372
0.496532 0.349411 0.088671
0.520431 0.348441 0.090996
0.544225 0.347758 0.093340
0.567921 0.347320 0.095702
0.591526 0.347093 0.098077
0.615044 0.347051 0.100464
0.638480 0.347171 0.102860
0.661840 0.347433 0.105264
0.685127 0.347821 0.107674
0.708343 0.348322 0.110090
0.731494 0.348923 0.112510
0.754580 0.349614 0.114933
0.778528 0.350802 0.117498
0.798331 0.354838 0.127104
0.801797 0.366445 0.157735
0.031196 0.403092 0.074144
0.031196 0.403092 0.074144
0.052163 0.399045 0.075423
0.082222 0.397882 0.075839
0.111931 0.397882 0.075839
0.141639 0.397882 0.075839
0.171348 0.397882 0.075839
0.201056 0.397882 0.075839
0.230765 0.397882 0.075839
0.260473 0.397882 0.075839
0.290182 0.397882 0.075839
0.319891 0.397882 0.075839
0.349599 0.397882 0.075839
0.375110 0.393655 0.077575
0.399696 0.389576 0.079694
0.424115 0.386289 0.081875
0.448385 0.383646 0.084104
0.472520 0.381531 0.086372
0.496532 0.379856 0.088671
0.520431 0.378553 0.090996
0.544225 0.377565 0.093340
0.567921 0.376848 0.095702
0.591526 0.376365 0.098077
0.615044 0.376086 0.100464
0.638480 0.375986 0.102860
0.661840 0.376044 0.105264
0.685127 0.376241 0.107674
0.708343 0.376563 0.110090
0.731494 0.376996 0.112510
0.754580 0.377529 0.114933
0.778528 0.378601 0.117498
0.798331 0.382153 0.127104
0.801797 0.392081 0.157735
0.033312 0.430432 0.076113
0.033312 0.430432 0.076113
0.053867 0.426750 0.077458
0.083337 0.425684 0.077893
0.112447 0.425684 0.077893
0.141556 0.425684 0.077893
0.170666 0.425684 0.077893
0.199776 0.425684 0.077893
0.228885 0.425684 0.077893
0.257995 0.425684 0.077893
0.287105 0.425684 0.077893
0.316214 0.425684 0.077893
0.345324 0.425684 0.077893
0.374434 0.425684 0.077893
0.399696 0.421784 0.079694
0.424115 0.417976 0.081875
0.448385 0.414872 0.084104
0.472520 0.412346 0.086372
0.496532 0.410302 0.088671
0.520431 0.408664 0.090996
0.544225 0.407372 0.093340
0.567921 0.406376 0.095702
0.591526 0.405637 0.098077
0.615044 0.405121 0.100464
0.638480 0.404802 0.102860
0.661840 0.404655 0.105264
0.685127 0.404661 0.107674
0.708343 0.404804 0.110090
0.731494 0.405069 0.112510
0.754580 0.405444 0.114933
0.778528 0.406400 0.117498
0.798331 0.409469 0.127104
0.801797 0.417717 0.157735
0.035417 0.457635 0.078178
0.035417 0.457635 0.078178
0.055615 0.454260 0.079574
0.084574 0.453278 0.080022
0.113165 0.453278 0.080022
0.141755 0.453278 0.080022
0.170346 0.453278 0.080022
0.198937 0.453278 0.080022
0.227528 0.453278 0.080022
0.256118 0.453278 0.080022
0.284709 0.453278 0.080022
0.313300 0.453278 0.080022
0.341890 0.453278 0.080022
0.370481 0.453278 0.080022
0.399072 0.453278 0.080022
0.424115 0.449663 0.081875
0.448385 0.446098 0.084104
0.472520 0.443161 0.086372
0.496532 0.440747 0.088671
0.520431 0.438775 0.090996
0.544225 0.437179 0.093340
0.567921 0.435904 0.095702
0.591526 0.434909 0.098077
0.615044 0.434157 0.100464
0.638480 0.433617 0.102860
0.661840 0.433266 0.105264
0.685127 0.433082 0.107674
0.708343 0.433046 0.110090
0.731494 0.433143 0.112510
0.754580 0.433359 0.114933
0.778528 0.434198 0.117498
0.798331 0.436785 0.127104
0.801797 0.443352 0.157735
0.037512 0.484708 0.080317
0.037512 0.484708 0.080317
0.057398 0.481598 0.081752
0.085908 0.480689 0.082211
0.114043 0.480689 0.082211
0.142179 0.480689 0.082211
0.170315 0.480689 0.082211
0.198451 0.480689 0.082211
0.226586 0.480689 0.082211
0.254722 0.480689 0.082211
0.282858 0.480689 0.082211
0.310993 0.480689 0.082211
0.339129 0.480689 0.082211
0.367265 0.480689 0.082211
0.395401 0.480689 0.082211
0.423536 0.480689 0.082211
0.448385 0.477324 0.084104
0.472520 0.473976 0.086372
0.496532 0.471193 0.088671
0.520431 0.468886 0.090996
0.544225 0.466985 0.093340
0.567921 0.465433 0.095702
0.591526 0.464181 0.098077
0.615044 0.463192 0.100464
0.638480 0.462433 0.102860
0.661840 0.461877 0.105264
0.685127 0.461502 0.107674
0.708343 0.461287 0.110090
0.731494 0.461216 0.112510
0.754580 0.461275 0.114933
0.778528 0.461997 0.117498
0.798331 0.464101 0.127104
0.801797 0.468988 0.157735
0.039598 0.511661 0.082513
0.039598 0.511661 0.082513
0.059207 0.508780 0.083978
0.087319 0.507935 0.084447
0.115052 0.507935 0.084447
0.142785 0.507935 0.084447
0.170518 0.507935 0.084447
0.198250 0.507935 0.084447
0.225983 0.507935 0.084447
0.253716 0.507935 0.084447
0.281449 0.507935 0.084447
0.309182 0.507935 0.084447
0.336915 0.507935 0.084447
0.364648 0.507935 0.084447
0.392381 0.507935 0.084447
0.420114 0.507935 0.084447
0.447846 0.507935 0.084447
0.472520 0.504791 0.086372
0.496532 0.501638 0.088671
0.520431 0.498998 0.090996
0.544225 0.496792 0.093340
0.567921 0.494961 0.095702
0.591526 0.493453 0.098077
0.615044 0.492227 0.100464
0.638480 0.491249 0.102860
0.661840 0.490489 0.105264
0.685127 0.489922 0.107674
0.708343 0.489529 0.110090
0.731494 0.489290 0.112510
0.754580 0.489190 0.114933
0.778528 0.489795 0.117498
0.798331 0.491416 0.127104
0.801797 0.494623 0.157735
0.041675 0.538501 0.084754
0.041675 0.538501 0.084754
0.061037 0.535821 0.086244
0.088793 0.535031 0.086720
0.116166 0.535031 0.086720
0.143539 0.535031 0.086720
0.170913 0.535031 0.086720
0.198286 0.535031 0.086720
0.225659 0.535031 0.086720
0.253032 0.535031 0.086720
0.280405 0.535031 0.086720
0.307778 0.535031 0.086720
0.335151 0.535031 0.086720
0.362525 0.535031 0.086720
0.389898 0.535031 0.086720
0.417271 0.535031 0.086720
0.444644 0.535031 0.086720
0.472017 0.535031 0.086720
0.496532 0.532084 0.088671
0.520431 0.529109 0.090996
0.544225 0.526599 0.093340
0.567921 0.524489 0.095702
0.591526 0.522725 0.098077
0.615044 0.521262 0.100464
0.638480 0.520064 0.102860
0.661840 0.519100 0.105264
0.685127 0.518343 0.107674
0.708343 0.517770 0.110090
0.731494 0.517363 0.112510
0.754580 0.517105 0.114933
0.778528 0.517594 0.117498
0.798331 0.518732 0.127104
0.801797 0.520259 0.157735
0.043744 0.565234 0.087032
0.043744 0.565234 0.087032
0.062884 0.562731 0.088542
0.090319 0.561991 0.089023
0.117369 0.561991 0.089023
0.144418 0.561991 0.089023
0.171468 0.561991 0.089023
0.198517 0.561991 0.089023
0.225566 0.561991 0.089023
0.252616 0.561991 0.089023
0.279665 0.561991 0.089023
0.306715 0.561991 0.089023
0.333764 0.561991 0.089023
0.360814 0.561991 0.089023
0.387863 0.561991 0.089023
0.414912 0.561991 0.089023
0.441962 0.561991 0.089023
0.469011 0.561991 0.089023
0.496061 0.561991 0.089023
0.520431 0.559220 0.090996
0.544225 0.556406 0.093340
0.567921 0.554017 0.095702
0.591526 0.551997 0.098077
0.615044 0.550298 0.100464
0.638480 0.548880 0.102860
0.661840 0.547711 0.105264
0.685127 0.546763 0.107674
0.708343 0.546011 0.110090
0.731494 0.545436 0.112510
0.754580 0.545020 0.114933
0.778528 0.545393 0.117498
0.798331 0.546048 0.127104
0.801797 0.545894 0.157735
0.045805 0.591867 0.089338
0.045805 0.591867 0.089338
0.064744 0.589521 0.090865
0.091888 0.588825 0.091351
0.118645 0.588825 0.091351
0.145401 0.588825 0.091351
0.172157 0.588825 0.091351
0.198913 0.588825 0.091351
0.225669 0.588825 0.091351
0.252426 0.588825 0.091351
0.279182 0.588825 0.091351
0.305938 0.588825 0.091351
0.332694 0.588825 0.091351
0.359450 0.588825 0.091351
0.386207 0.588825 0.091351
0.412963 0.588825 0.091351
0.439719 0.588825 0.091351
0.466475 0.588825 0.091351
0.493231 0.588825 0.091351
0.519988 0.588825 0.091351
0.544225 0.586213 0.093340
0.567921 0.583546 0.095702
0.591526 0.581269 0.098077
0.615044 0.579333 0.100464
0.638480 0.577696 0.102860
0.661840 0.576322 0.105264
0.685127 0.575183 0.107674
0.708343 0.574253 0.110090
0.731494 0.573510 0.112510
0.754580 0.572935 0.114933
0.778528 0.573191 0.117498
0.798331 0.573364 0.127104
0.801797 0.571530 0.157735
0.047859 0.618404 0.091669
0.047859 0.618404 0.091669
0.066614 0.616198 0.093209
0.093494 0.615543 0.093698
0.119983 0.615543 0.093698
0.146472 0.615543 0.093698
0.172961 0.615543 0.093698
0.199450 0.615543 0.093698
0.225939 0.615543 0.093698
0.252428 0.615543 0.093698
0.278917 0.615543 0.093698
0.305406 0.615543 0.093698
0.331895 0.615543 0.093698
0.358384 0.615543 0.093698
0.384873 0.615543 0.093698
0.411362 0.615543 0.093698
0.437851 0.615543 0.093698
0.464340 0.615543 0.093698
0.490829 0.615543 0.093698
0.517318 0.615543 0.093698
0.543807 0.615543 0.093698
0.567921 0.613074 0.095702
0.591526 0.610541 0.098077
0.615044 0.608368 0.100464
0.638480 0.606511 0.102860
0.661840 0.604933 0.105264
0.685127 0.603603 0.107674
0.708343 0.602494 0.110090
0.731494 0.601583 0.112510
0.754580 0.600850 0.114933
0.778528 0.600990 0.117498
0.798331 0.600680 0.127104
0.801797 0.597165 0.157735
0.049906 0.644850 0.094019
0.049906 0.644850 0.094019
0.068493 0.642770 0.095569
0.095129 0.642151 0.096062
0.121373 0.642151 0.096062
0.147618 0.642151 0.096062
0.173862 0.642151 0.096062
0.200106 0.642151 0.096062
0.226350 0.642151 0.096062
0.252595 0.642151 0.096062
0.278839 0.642151 0.096062
0.305083 0.642151 0.096062
0.331327 0.642151 0.096062
0.357572 0.642151 0.096062
0.383816 0.642151 0.096062
0.410060 0.642151 0.096062
0.436304 0.642151 0.096062
0.462549 0.642151 0.096062
0.488793 0.642151 0.096062
0.515037 0.642151 0.096062
0.541281 0.642151 0.096062
0.567526 0.642151 0.096062
0.591526 0.639813 0.098077
0.615044 0.637403 0.100464
0.638480 0.635327 0.102860
0.661840 0.633545 0.105264
0.685127 0.632024 0.107674
0.708343 0.630736 0.110090
0.731494 0.629657 0.112510
0.754580 0.628765 0.114933
0.778528 0.628788 0.117498
0.798331 0.627995 0.127104
0.801797 0.622801 0.157735
0.051946 0.671209 0.096385
0.051946 0.671209 0.096385
0.070379 0.669244 0.097944
0.096791 0.668658 0.098439
0.122810 0.668658 0.098439
0.148828 0.668658 0.098439
0.174847 0.668658 0.098439
0.200866 0.668658 0.098439
0.226885 0.668658 0.098439
0.252904 0.668658 0.098439
0.278923 0.668658 0.098439
0.304942 0.668658 0.098439
0.330961 0.668658 0.098439
0.356980 0.668658 0.098439
0.382999 0.668658 0.098439
0.409018 0.668658 0.098439
0.435037 0.668658 0.098439
0.461056 0.668658 0.098439
0.487075 0.668658 0.098439
0.513094 0.668658 0.098439
0.539113 0.668658 0.098439
0.565132 0.668658 0.098439
0.591151 0.668658 0.098439
0.615044 0.666438 0.100464
0.638480 0.664142 0.102860
0.661840 0.662156 0.105264
0.685127 0.660444 0.107674
0.708343 0.658977 0.110090
0.731494 0.657730 0.112510
0.754580 0.656680 0.114933
0.778528 0.656587 0.117498
0.798331 0.655311 0.127104
0.801797 0.648436 0.157735
0.053979 0.697486 0.098764
0.053979 0.697486 0.098764
0.072269 0.695625 0.100330
0.098474 0.695069 0.100828
0.124285 0.695069 0.100828
0.150095 0.695069 0.100828
0.175906 0.695069 0.100828
0.201717 0.695069 0.100828
0.227527 0.695069 0.100828
0.253338 0.695069 0.100828
0.279149 0.695069 0.100828
0.304960 0.695069 0.100828
0.330770 0.695069 0.100828
0.356581 0.695069 0.100828
0.382392 0.695069 0.100828
0.408202 0.695069 0.100828
0.434013 0.695069 0.100828
0.459824 0.695069 0.100828
0.485634 0.695069 0.100828
0.511445 0.695069 0.100828
0.537256 0.695069 0.100828
0.563067 0.695069 0.100828
0.588877 0.695069 0.100828
0.614688 0.695069 0.100828
0.638480 0.692958 0.102860
0.661840 0.690767 0.105264
0.685127 0.688864 0.107674
0.708343 0.687219 0.110090
0.731494 0.685803 0.112510
0.754580 0.684595 0.114933
0.778528 0.684386 0.117498
0.798331 0.682627 0.127104
0.801797 0.674072 0.157735
0.056007 0.723684 0.101153
0.056007 0.723684 0.101153
0.074164 0.721918 0.102726
0.100176 0.721389 0.103225
0.125794 0.721389 0.103225
0.151411 0.721389 0.103225
0.177029 0.721389 0.103225
0.202646 0.721389 0.103225
0.228263 0.721389 0.103225
0.253881 0.721389 0.103225
0.279498 0.721389 0.103225
0.305116 0.721389 0.103225
0.330733 0.721389 0.103225
0.356351 0.721389 0.103225
0.381968 0.721389 0.103225
0.407585 0.721389 0.103225
0.433203 0.721389 0.103225
0.458820 0.721389 0.103225
0.484438 0.721389 0.103225
0.510055 0.721389 0.103225
0.535672 0.721389 0.103225
0.561290 0.721389 0.103225
0.586907 0.721389 0.103225
0.612525 0.721389 0.103225
0.638142 0.721389 0.103225
0.661840 0.719378 0.105264
0.685127 0.717285 0.107674
0.708343 0.715460 0.110090
0.731494 0.713877 0.112510
0.754580 0.712511 0.114933
0.778528 0.712184 0.117498
0.798331 0.709943 0.127104
0.801797 0.699708 0.157735
0.058028 0.749806 0.103552
0.058028 0.749806 0.103552
0.076062 0.748126 0.105129
0.101895 0.747623 0.105630
0.127332 0.747623 0.105630
0.152770 0.747623 0.105630
0.178207 0.747623 0.105630
0.203645 0.747623 0.105630
0.229082 0.747623 0.105630
0.254519 0.747623 0.105630
0.279957 0.747623 0.105630
0.305394 0.747623 0.105630
0.330832 0.747623 0.105630
0.356269 0.747623 0.105630
0.381706 0.747623 0.105630
0.407144 0.747623 0.105630
0.432581 0.747623 0.105630
0.458019 0.747623 0.105630
0.483456 0.747623 0.105630
0.508893 0.747623 0.105630
0.534331 0.747623 0.105630
0.559768 0.747623 0.105630
0.585206 0.747623 0.105630
0.610643 0.747623 0.105630
0.636080 0.747623 0.105630
0.661518 0.747623 0.105630
0.685127 0.745705 0.107674
0.708343 0.743701 0.110090
0.731494 0.741950 0.112510
0.754580 0.740426 0.114933
0.778528 0.739983 0.117498
0.798331 0.737259 0.127104
0.801797 0.725343 0.157735
0.060044 0.775856 0.105958
0.060044 0.775856 0.105958
0.077963 0.774256 0.107539
0.103628 0.773775 0.108041
0.128897 0.773775 0.108041
0.154166 0.773775 0.108041
0.179435 0.773775 0.108041
0.204705 0.773775 0.108041
0.229974 0.773775 0.108041
0.255243 0.773775 0.108041
0.280512 0.773775 0.108041
0.305781 0.773775 0.108041
0.331050 0.773775 0.108041
0.356320 0.773775 0.108041
0.381589 0.773775 0.108041
0.406858 0.773775 0.108041
0.432127 0.773775 0.108041
0.457396 0.773775 0.108041
0.482666 0.773775 0.108041
0.507935 0.773775 0.108041
0.533204 0.773775 0.108041
0.558473 0.773775 0.108041
0.583742 0.773775 0.108041
0.609012 0.773775 0.108041
0.634281 0.773775 0.108041
0.659550 0.773775 0.108041
0.684819 0.773775 0.108041
0.708343 0.771943 0.110090
0.731494 0.770023 0.112510
0.754580 0.768341 0.114933
0.778528 0.767781 0.117498
0.798331 0.764574 0.127104
0.801797 0.750979 0.157735
0.062055 0.801836 0.108370
0.062055 0.801836 0.108370
0.079865 0.800309 0.109954
0.105373 0.799850 0.110457
0.130484 0.799850 0.110457
0.155596 0.799850 0.110457
0.180707 0.799850 0.110457
0.205819 0.799850 0.110457
0.230930 0.799850 0.110457
0.256042 0.799850 0.110457
0.281153 0.799850 0.110457
0.306265 0.799850 0.110457
0.331377 0.799850 0.110457
0.356488 0.799850 0.110457
0.381600 0.799850 0.110457
0.406711 0.799850 0.110457
0.431823 0.799850 0.110457
0.456934 0.799850 0.110457
0.482046 0.799850 0.110457
0.507157 0.799850 0.110457
0.532269 0.799850 0.110457
0.557380 0.799850 0.110457
0.582492 0.799850 0.110457
0.607603 0.799850 0.110457
0.632715 0.799850 0.110457
0.657826 0.799850 0.110457
0.682938 0.799850 0.110457
0.708050 0.799850 0.110457
0.731494 0.798097 0.112510
