assets/luts/kodak_soft.cube
# MoodFilm Filter — kodak_soft
TITLE "kodak_soft"
LUT_3D_SIZE 17
0.205397 0.130759 0.128939
0.248398 0.131937 0.130352
0.291243 0.133109 0.131758
0.333974 0.134278 0.133161
0.376615 0.135442 0.134561
0.419183 0.136604 0.135959
0.461688 0.137762 0.137354
0.504139 0.138917 0.138747
0.546549 0.140147 0.140147
0.588935 0.141565 0.141565
0.631283 0.142981 0.142981
0.673594 0.144397 0.144397
0.715873 0.145811 0.145811
0.758121 0.147224 0.147224
0.800340 0.148636 0.148636
0.819055 0.149262 0.149262
0.819055 0.149262 0.149262
0.208233 0.177900 0.133793
0.251244 0.179087 0.135206
0.294095 0.180268 0.136614
0.336832 0.181446 0.138018
0.379479 0.182621 0.139420
0.422051 0.183793 0.140818
0.464560 0.184963 0.142215
0.507015 0.186131 0.143609
0.549420 0.187297 0.145002
0.591783 0.188463 0.146394
0.634105 0.189626 0.147784
0.676392 0.190789 0.149173
0.718646 0.191950 0.150561
0.760869 0.193111 0.151948
0.803063 0.194270 0.153334
0.823803 0.194794 0.154011
0.823803 0.194794 0.154011
0.210734 0.224354 0.138567
0.253755 0.225543 0.139981
0.296615 0.226727 0.141389
0.339357 0.227906 0.142794
0.382008 0.229083 0.144195
0.424585 0.230257 0.145594
0.467097 0.231429 0.146991
0.509554 0.232599 0.148386
0.551963 0.233767 0.149779
0.594327 0.234934 0.151171
0.636653 0.236100 0.152562
0.678941 0.237264 0.153951
0.721197 0.238427 0.155339
0.763422 0.239589 0.156726
0.805618 0.240751 0.158113
0.828658 0.241353 0.158866
0.828658 0.241353 0.158866
0.213209 0.270572 0.143316
0.256242 0.271762 0.144731
0.299109 0.272947 0.146140
0.341857 0.274128 0.147544
0.384513 0.275305 0.148946
0.427093 0.276480 0.150345
0.469609 0.277653 0.151742
0.512069 0.278824 0.153137
0.554480 0.279994 0.154531
0.596847 0.281162 0.155923
0.639174 0.282329 0.157314
0.681465 0.283494 0.158703
0.723722 0.284658 0.160091
0.765949 0.285822 0.161479
0.808146 0.286984 0.162865
0.833488 0.287664 0.163696
0.833488 0.287664 0.163696
0.215667 0.316634 0.148050
0.258711 0.317826 0.149464
0.301586 0.319011 0.150873
0.344340 0.320193 0.152279
0.387000 0.321372 0.153680
0.429584 0.322548 0.155080
0.472103 0.323721 0.156477
0.514567 0.324893 0.157872
0.556980 0.326064 0.159266
0.599350 0.327232 0.160658
0.641679 0.328400 0.162049
0.683972 0.329566 0.163439
0.726231 0.330731 0.164827
0.768459 0.331895 0.166215
0.810659 0.333058 0.167601
0.838301 0.333816 0.168509
0.838301 0.333816 0.168509
0.218113 0.362582 0.152771
0.261169 0.363774 0.154186
0.304051 0.364961 0.155595
0.346811 0.366143 0.157001
0.389476 0.367322 0.158403
0.432064 0.368499 0.159802
0.474586 0.369673 0.161200
0.517052 0.370846 0.162595
0.559468 0.372017 0.163989
0.601840 0.373186 0.165381
0.644172 0.374354 0.166772
0.686467 0.375521 0.168162
0.728728 0.376687 0.169551
0.771432 0.378033 0.170971
0.814342 0.379469 0.172406
0.843162 0.380433 0.173370
0.843162 0.380433 0.173370
0.220548 0.408437 0.157482
0.263616 0.409630 0.158898
0.306506 0.410818 0.160308
0.349272 0.412001 0.161713
0.391941 0.413181 0.163116
0.434533 0.414358 0.164515
0.477059 0.415533 0.165913
0.519528 0.416706 0.167308
0.561947 0.417878 0.168702
0.604344 0.419056 0.170096
0.647389 0.420496 0.171536
0.690397 0.421935 0.172975
0.733370 0.423372 0.174412
0.776310 0.424809 0.175849
0.819221 0.426244 0.177284
0.848040 0.427208 0.178248
0.848040 0.427208 0.178248
0.222975 0.454217 0.162186
0.266054 0.455411 0.163602
0.308952 0.456598 0.165012
0.351724 0.457782 0.166418
0.394399 0.458962 0.167820
0.436994 0.460140 0.169220
0.479807 0.461423 0.170637
0.522992 0.462868 0.172082
0.566126 0.464311 0.173525
0.609214 0.465752 0.174966
0.652259 0.467192 0.176406
0.695267 0.468631 0.177845
0.738239 0.470068 0.179282
0.781180 0.471505 0.180719
0.824090 0.472940 0.182154
0.852910 0.473904 0.183118
0.852910 0.473904 0.183118
0.225393 0.499931 0.166883
0.268486 0.501125 0.168299
0.311392 0.502314 0.169709
0.354716 0.503704 0.171153
0.398111 0.505155 0.172604
0.441425 0.506604 0.174053
0.484669 0.508051 0.175500
0.527855 0.509496 0.176944
0.570989 0.510939 0.178387
0.614076 0.512380 0.179829
0.657122 0.513820 0.181269
0.700129 0.515258 0.182707
0.743102 0.516696 0.184145
0.786042 0.518132 0.185581
0.828953 0.519568 0.187017
0.857773 0.520532 0.187981
0.857773 0.520532 0.187981
0.228622 0.545892 0.171629
0.272446 0.547358 0.173095
0.316076 0.548817 0.174554
0.359572 0.550272 0.176009
0.402968 0.551724 0.177461
0.446281 0.553173 0.178910
0.489526 0.554620 0.180356
0.532712 0.556064 0.181801
0.575845 0.557507 0.183244
0.618933 0.558948 0.184685
0.661978 0.560388 0.186125
0.704986 0.561827 0.187564
0.747959 0.563265 0.189001
0.790899 0.564701 0.190438
0.833826 0.566137 0.191874
0.862629 0.567100 0.192837
0.862629 0.567100 0.192837
0.233473 0.592408 0.176480
0.277297 0.593874 0.177946
0.320927 0.595334 0.179405
0.364423 0.596789 0.180860
0.407819 0.598240 0.182312
0.451132 0.599689 0.183761
0.494377 0.601136 0.185207
0.537563 0.602580 0.186652
0.580696 0.604023 0.188095
0.623784 0.605465 0.189536
0.666829 0.606905 0.190976
0.709937 0.608347 0.192418
0.753137 0.609792 0.193863
0.796306 0.611236 0.195307
0.839444 0.612679 0.196750
0.867480 0.613617 0.197688
0.867480 0.613617 0.197688
0.238319 0.638877 0.181326
0.282143 0.640343 0.182792
0.325773 0.641803 0.184251
0.369269 0.643258 0.185706
0.412665 0.644709 0.187158
0.455978 0.646158 0.188607
0.499223 0.647605 0.190053
0.542409 0.649049 0.191498
0.585726 0.650498 0.192947
0.629042 0.651947 0.194396
0.672316 0.653395 0.195844
0.715551 0.654841 0.197290
0.758752 0.656286 0.198735
0.801919 0.657730 0.200179
0.845057 0.659173 0.201622
0.872326 0.660086 0.202534
0.872326 0.660086 0.202534
0.243161 0.685303 0.186167
0.286985 0.686769 0.187633
0.330614 0.688229 0.189093
0.374111 0.689684 0.190548
0.417544 0.691137 0.192001
0.461088 0.692593 0.193457
0.504562 0.694048 0.194912
0.547976 0.695500 0.196364
0.591338 0.696950 0.197814
0.634653 0.698399 0.199263
0.677927 0.699847 0.200711
0.721162 0.701293 0.202157
0.764361 0.702738 0.203602
0.807528 0.704182 0.205046
0.850665 0.705625 0.206489
0.877168 0.706512 0.207376
0.877168 0.706512 0.207376
0.247999 0.731691 0.191005
0.291945 0.733161 0.192475
0.335806 0.734628 0.193942
0.379532 0.736091 0.195405
0.423157 0.737550 0.196864
0.466699 0.739006 0.198321
0.510172 0.740461 0.199775
0.553585 0.741913 0.201227
0.596947 0.743363 0.202678
0.640261 0.744812 0.204127
0.683534 0.746260 0.205574
0.726768 0.747706 0.207020
0.769967 0.749151 0.208466
0.813133 0.750595 0.209910
0.856270 0.752038 0.211353
0.882006 0.752899 0.212213
0.882006 0.752899 0.212213
0.253508 0.778064 0.195861
0.297561 0.779538 0.197335
0.341418 0.781005 0.198802
0.385143 0.782468 0.200265
0.428766 0.783927 0.201724
0.472307 0.785384 0.203180
0.515778 0.786838 0.204635
0.559191 0.788290 0.206087
0.602551 0.789740 0.207537
0.645865 0.791189 0.208986
0.689137 0.792637 0.210434
0.732370 0.794083 0.211880
0.775569 0.795528 0.213325
0.818735 0.796972 0.214769
0.861871 0.798415 0.216212
0.886839 0.799250 0.217047
0.886839 0.799250 0.217047
0.259124 0.824409 0.200718
0.303172 0.825882 0.202191
0.347027 0.827349 0.203658
0.390750 0.828812 0.205121
0.434371 0.830271 0.206580
0.477911 0.831727 0.208037
0.521381 0.833181 0.209491
0.564793 0.834634 0.210943
0.608152 0.836084 0.212393
0.651465 0.837533 0.213842
0.694736 0.838980 0.215290
0.737969 0.840427 0.216736
0.781167 0.841872 0.218181
0.824332 0.843316 0.219625
0.867468 0.844759 0.221068
0.891670 0.845568 0.221877
0.891670 0.845568 0.221877
0.264737 0.870722 0.205571
0.308781 0.872195 0.207045
0.352633 0.873662 0.208511
0.396354 0.875124 0.209974
0.439973 0.876583 0.211433
0.483511 0.878040 0.212890
0.526981 0.879494 0.214344
0.570391 0.880946 0.215796
0.613750 0.882397 0.217246
0.657062 0.883845 0.218695
0.700332 0.885293 0.220143
0.743565 0.886739 0.221589
0.786762 0.888184 0.223034
0.829927 0.889628 0.224478
0.873062 0.891071 0.225921
0.896497 0.891855 0.226705
0.896497 0.891855 0.226705
0.205397 0.130759 0.128939
0.248398 0.131937 0.130352
0.291243 0.133109 0.131758
0.333974 0.134278 0.133161
0.376615 0.135442 0.134561
0.419183 0.136604 0.135959
0.461688 0.137762 0.137354
0.504139 0.138917 0.138747
0.546549 0.140147 0.140147
0.588935 0.141565 0.141565
0.631283 0.142981 0.142981
0.673594 0.144397 0.144397
0.715873 0.145811 0.145811
0.758121 0.147224 0.147224
0.800340 0.148636 0.148636
0.819055 0.149262 0.149262
0.819055 0.149262 0.149262
0.208233 0.177900 0.133793
0.251244 0.179087 0.135206
0.294095 0.180268 0.136614
0.336832 0.181446 0.138018
0.379479 0.182621 0.139420
0.422051 0.183793 0.140818
0.464560 0.184963 0.142215
0.507015 0.186131 0.143609
0.549420 0.187297 0.145002
0.591783 0.188463 0.146394
0.634105 0.189626 0.147784
0.676392 0.190789 0.149173
0.718646 0.191950 0.150561
0.760869 0.193111 0.151948
0.803063 0.194270 0.153334
0.823803 0.194794 0.154011
0.823803 0.194794 0.154011
0.210734 0.224354 0.138567
0.253755 0.225543 0.139981
0.296615 0.226727 0.141389
0.339357 0.227906 0.142794
0.382008 0.229083 0.144195
0.424585 0.230257 0.145594
0.467097 0.231429 0.146991
0.509554 0.232599 0.148386
0.551963 0.233767 0.149779
0.594327 0.234934 0.151171
0.636653 0.236100 0.152562
0.678941 0.237264 0.153951
0.721197 0.238427 0.155339
0.763422 0.239589 0.156726
0.805618 0.240751 0.158113
0.828658 0.241353 0.158866
0.828658 0.241353 0.158866
0.213209 0.270572 0.143316
0.256242 0.271762 0.144731
0.299109 0.272947 0.146140
0.341857 0.274128 0.147544
0.384513 0.275305 0.148946
0.427093 0.276480 0.150345
0.469609 0.277653 0.151742
0.512069 0.278824 0.153137
0.554480 0.279994 0.154531
0.596847 0.281162 0.155923
0.639174 0.282329 0.157314
0.681465 0.283494 0.158703
0.723722 0.284658 0.160091
0.765949 0.285822 0.161479
0.808146 0.286984 0.162865
0.833488 0.287664 0.163696
0.833488 0.287664 0.163696
0.215667 0.316634 0.148050
0.258711 0.317826 0.149464
0.301586 0.319011 0.150873
0.344340 0.320193 0.152279
0.387000 0.321372 0.153680
0.429584 0.322548 0.155080
0.472103 0.323721 0.156477
0.514567 0.324893 0.157872
0.556980 0.326064 0.159266
0.599350 0.327232 0.160658
0.641679 0.328400 0.162049
0.683972 0.329566 0.163439
0.726231 0.330731 0.164827
0.768459 0.331895 0.166215
0.810659 0.333058 0.167601
0.838301 0.333816 0.168509
0.838301 0.333816 0.168509
0.218113 0.362582 0.152771
0.261169 0.363774 0.154186
0.304051 0.364961 0.155595
0.346811 0.366143 0.157001
0.389476 0.367322 0.158403
0.432064 0.368499 0.159802
0.474586 0.369673 0.161200
0.517052 0.370846 0.162595
0.559468 0.372017 0.163989
0.601840 0.373186 0.165381
0.644172 0.374354 0.166772
0.686467 0.375521 0.168162
0.728728 0.376687 0.169551
0.771432 0.378033 0.170971
0.814342 0.379469 0.172406
0.843162 0.380433 0.173370
0.843162 0.380433 0.173370
0.220548 0.408437 0.157482
0.263616 0.409630 0.158898
0.306506 0.410818 0.160308
0.349272 0.412001 0.161713
0.391941 0.413181 0.163116
0.434533 0.414358 0.164515
0.477059 0.415533 0.165913
0.519528 0.416706 0.167308
0.561947 0.417878 0.168702
0.604344 0.419056 0.170096
0.647389 0.420496 0.171536
0.690397 0.421935 0.172975
0.733370 0.423372 0.174412
0.776310 0.424809 0.175849
0.819221 0.426244 0.177284
0.848040 0.427208 0.178248
0.848040 0.427208 0.178248
0.222975 0.454217 0.162186
0.266054 0.455411 0.163602
0.308952 0.456598 0.165012
0.351724 0.457782 0.166418
0.394399 0.458962 0.167820
0.436994 0.460140 0.169220
0.479807 0.461423 0.170637
0.522992 0.462868 0.172082
0.566126 0.464311 0.173525
0.609214 0.465752 0.174966
0.652259 0.467192 0.176406
0.695267 0.468631 0.177845
0.738239 0.470068 0.179282
0.781180 0.471505 0.180719
0.824090 0.472940 0.182154
0.852910 0.473904 0.183118
0.852910 0.473904 0.183118
0.225393 0.499931 0.166883
0.268486 0.501125 0.168299
0.311392 0.502314 0.169709
0.354716 0.503704 0.171153
0.398111 0.505155 0.172604
0.441425 0.506604 0.174053
0.484669 0.508051 0.175500
0.527855 0.509496 0.176944
0.570989 0.510939 0.178387
0.614076 0.512380 0.179829
0.657122 0.513820 0.181269
0.700129 0.515258 0.182707
0.743102 0.516696 0.184145
0.786042 0.518132 0.185581
0.828953 0.519568 0.187017
0.857773 0.520532 0.187981
0.857773 0.520532 0.187981
0.228622 0.545892 0.171629
0.272446 0.547358 0.173095
0.316076 0.548817 0.174554
0.359572 0.550272 0.176009
0.402968 0.551724 0.177461
0.446281 0.553173 0.178910
0.489526 0.554620 0.180356
0.532712 0.556064 0.181801
0.575845 0.557507 0.183244
0.618933 0.558948 0.184685
0.661978 0.560388 0.186125
0.704986 0.561827 0.187564
0.747959 0.563265 0.189001
0.790899 0.564701 0.190438
0.833826 0.566137 0.191874
0.862629 0.567100 0.192837
0.862629 0.567100 0.192837
0.233473 0.592408 0.176480
0.277297 0.593874 0.177946
0.320927 0.595334 0.179405
0.364423 0.596789 0.180860
0.407819 0.598240 0.182312
0.451132 0.599689 0.183761
0.494377 0.601136 0.185207
0.537563 0.602580 0.186652
0.580696 0.604023 0.188095
0.623784 0.605465 0.189536
0.666829 0.606905 0.190976
0.709937 0.608347 0.192418
0.753137 0.609792 0.193863
0.796306 0.611236 0.195307
0.839444 0.612679 0.196750
0.867480 0.613617 0.197688
0.867480 0.613617 0.197688
0.238319 0.638877 0.181326
0.282143 0.640343 0.182792
0.325773 0.641803 0.184251
0.369269 0.643258 0.185706
0.412665 0.644709 0.187158
0.455978 0.646158 0.188607
0.499223 0.647605 0.190053
0.542409 0.649049 0.191498
0.585726 0.650498 0.192947
0.629042 0.651947 0.194396
0.672316 0.653395 0.195844
0.715551 0.654841 0.197290
0.758752 0.656286 0.198735
0.801919 0.657730 0.200179
0.845057 0.659173 0.201622
0.872326 0.660086 0.202534
0.872326 0.660086 0.202534
0.243161 0.685303 0.186167
0.286985 0.686769 0.187633
0.330614 0.688229 0.189093
0.374111 0.689684 0.190548
0.417544 0.691137 0.192001
0.461088 0.692593 0.193457
0.504562 0.694048 0.194912
0.547976 0.695500 0.196364
0.591338 0.696950 0.197814
0.634653 0.698399 0.199263
0.677927 0.699847 0.200711
0.721162 0.701293 0.202157
0.764361 0.702738 0.203602
0.807528 0.704182 0.205046
0.850665 0.705625 0.206489
0.877168 0.706512 0.207376
0.877168 0.706512 0.207376
0.247999 0.731691 0.191005
0.291945 0.733161 0.192475
0.335806 0.734628 0.193942
0.379532 0.736091 0.195405
0.423157 0.737550 0.196864
0.466699 0.739006 0.198321
0.510172 0.740461 0.199775
0.553585 0.741913 0.201227
0.596947 0.743363 0.202678
0.640261 0.744812 0.204127
0.683534 0.746260 0.205574
0.726768 0.747706 0.207020
0.769967 0.749151 0.208466
0.813133 0.750595 0.209910
0.856270 0.752038 0.211353
0.882006 0.752899 0.212213
0.882006 0.752899 0.212213
0.253508 0.778064 0.195861
0.297561 0.779538 0.197335
0.341418 0.781005 0.198802
0.385143 0.782468 0.200265
0.428766 0.783927 0.201724
0.472307 0.785384 0.203180
0.515778 0.786838 0.204635
0.559191 0.788290 0.206087
0.602551 0.789740 0.207537
0.645865 0.791189 0.208986
0.689137 0.792637 0.210434
0.732370 0.794083 0.211880
0.775569 0.795528 0.213325
0.818735 0.796972 0.214769
0.861871 0.798415 0.216212
0.886839 0.799250 0.217047
0.886839 0.799250 0.217047
0.259124 0.824409 0.200718
0.303172 0.825882 0.202191
0.347027 0.827349 0.203658
0.390750 0.828812 0.205121
0.434371 0.830271 0.206580
0.477911 0.831727 0.208037
0.521381 0.833181 0.209491
0.564793 0.834634 0.210943
0.608152 0.836084 0.212393
0.651465 0.837533 0.213842
0.694736 0.838980 0.215290
0.737969 0.840427 0.216736
0.781167 0.841872 0.218181
0.824332 0.843316 0.219625
0.867468 0.844759 0.221068
0.891670 0.845568 0.221877
0.891670 0.845568 0.221877
0.264737 0.870722 0.205571
0.308781 0.872195 0.207045
0.352633 0.873662 0.208511
0.396354 0.875124 0.209974
0.439973 0.876583 0.211433
0.483511 0.878040 0.212890
0.526981 0.879494 0.214344
0.570391 0.880946 0.215796
0.613750 0.882397 0.217246
0.657062 0.883845 0.218695
0.700332 0.885293 0.220143
0.743565 0.886739 0.221589
0.786762 0.888184 0.223034
0.829927 0.889628 0.224478
0.873062 0.891071 0.225921
0.896497 0.891855 0.226705
0.896497 0.891855 0.226705
0.205597 0.131074 0.162457
0.248599 0.132252 0.163869
0.291444 0.133425 0.165276
0.334176 0.134593 0.166679
0.376817 0.135757 0.168079
0.419386 0.136919 0.169476
0.461891 0.138077 0.170872
0.504342 0.139231 0.172265
0.546759 0.140530 0.173672
0.589146 0.141948 0.175089
0.631493 0.143365 0.176506
0.673805 0.144780 0.177921
0.716084 0.146194 0.179336
0.758332 0.147608 0.180749
0.800551 0.149020 0.182161
0.819444 0.149652 0.182793
0.819444 0.149652 0.182793
0.208433 0.178217 0.167311
0.251445 0.179404 0.168724
0.294297 0.180586 0.170132
0.337034 0.181763 0.171536
0.379681 0.182938 0.172937
0.422254 0.184110 0.174336
0.464763 0.185280 0.175733
0.507218 0.186449 0.177127
0.549624 0.187615 0.178520
0.591986 0.188780 0.179912
0.634309 0.189944 0.181302
0.676596 0.191106 0.182691
0.718850 0.192268 0.184079
0.761073 0.193428 0.185466
0.803267 0.194588 0.186852
0.824186 0.195118 0.187535
0.824186 0.195118 0.187535
0.210934 0.224672 0.172085
0.253956 0.225861 0.173499
0.296816 0.227045 0.174907
0.339559 0.228224 0.176312
0.382211 0.229401 0.177713
0.424787 0.230575 0.179112
0.467300 0.231747 0.180509
0.509758 0.232917 0.181904
0.552166 0.234085 0.183297
0.594531 0.235252 0.184689
0.636856 0.236418 0.186080
0.679145 0.237582 0.187469
0.721401 0.238745 0.188857
0.763626 0.239908 0.190244
0.805822 0.241069 0.191631
0.829041 0.241677 0.192390
0.829041 0.241677 0.192390
0.213409 0.270890 0.176834
0.256443 0.272080 0.178249
0.299310 0.273265 0.179657
0.342059 0.274446 0.181062
0.384715 0.275623 0.182464
0.427295 0.276799 0.183863
0.469812 0.277972 0.185260
0.512272 0.279143 0.186655
0.554683 0.280312 0.188049
0.597050 0.281480 0.189441
0.639378 0.282647 0.190832
0.681669 0.283812 0.192221
0.723926 0.284977 0.193609
0.766153 0.286140 0.194997
0.808351 0.287302 0.196383
0.833871 0.287988 0.197220
0.833871 0.287988 0.197220
0.215868 0.316953 0.181568
0.258913 0.318144 0.182982
0.301788 0.319330 0.184391
0.344542 0.320512 0.185796
0.387203 0.321690 0.187198
0.429787 0.322866 0.188598
0.472307 0.324040 0.189995
0.514770 0.325212 0.191390
0.557184 0.326382 0.192784
0.599553 0.327551 0.194176
0.641883 0.328718 0.195567
0.684176 0.329885 0.196957
0.726435 0.331050 0.198345
0.768664 0.332214 0.199733
0.810863 0.333377 0.201119
0.838684 0.334140 0.202033
0.838684 0.334140 0.202033
0.218313 0.362900 0.186289
0.261370 0.364093 0.187704
0.304253 0.365279 0.189113
0.347013 0.366462 0.190519
0.389678 0.367641 0.191921
0.432266 0.368817 0.193320
0.474789 0.369992 0.194718
0.517255 0.371165 0.196113
0.559672 0.372336 0.197507
0.602044 0.373505 0.198899
0.644376 0.374673 0.200290
0.686671 0.375840 0.201680
0.728932 0.377006 0.203069
0.771822 0.378423 0.204502
0.814732 0.379858 0.205937
0.843552 0.380822 0.206901
0.843552 0.380822 0.206901
0.220748 0.408756 0.191000
0.263817 0.409949 0.192416
0.306707 0.411136 0.193826
0.349474 0.412319 0.195231
0.392144 0.413499 0.196633
0.434736 0.414677 0.198033
0.477262 0.415852 0.199431
0.519731 0.417025 0.200826
0.562150 0.418196 0.202220
0.604733 0.419446 0.203627
0.647779 0.420886 0.205067
0.690787 0.422324 0.206506
0.733759 0.423762 0.207943
0.776700 0.425198 0.209380
0.819610 0.426634 0.210815
0.848430 0.427598 0.211779
0.848430 0.427598 0.211779
0.223175 0.454535 0.195704
0.266255 0.455729 0.197120
0.309154 0.456917 0.198530
0.351926 0.458101 0.199936
0.394601 0.459281 0.201338
0.437197 0.460459 0.202738
0.480196 0.461813 0.204168
0.523382 0.463257 0.205613
0.566516 0.464700 0.207055
0.609603 0.466142 0.208497
0.652649 0.467582 0.209937
0.695656 0.469020 0.211375
0.738629 0.470458 0.212813
0.781569 0.471894 0.214249
0.824480 0.473330 0.215685
0.853300 0.474294 0.216649
0.853300 0.474294 0.216649
0.225593 0.500249 0.200400
0.268687 0.501444 0.201817
0.311609 0.502638 0.203228
0.355105 0.504093 0.204683
0.398501 0.505545 0.206135
0.441814 0.506994 0.207584
0.485059 0.508441 0.209031
0.528245 0.509885 0.210475
0.571378 0.511328 0.211918
0.614466 0.512769 0.213359
0.657511 0.514209 0.214799
0.700519 0.515648 0.216238
0.743492 0.517086 0.217676
0.786432 0.518522 0.219112
0.829342 0.519957 0.220547
0.858162 0.520921 0.221511
0.858162 0.520921 0.221511
0.229012 0.546281 0.205159
0.272836 0.547747 0.206625
0.316465 0.549207 0.208085
0.359962 0.550662 0.209540
0.403357 0.552114 0.210992
0.446671 0.553563 0.212440
0.489915 0.555009 0.213887
0.533101 0.556454 0.215332
0.576235 0.557897 0.216775
0.619322 0.559338 0.218216
0.662368 0.560778 0.219656
0.705375 0.562217 0.221095
0.748348 0.563654 0.222532
0.791288 0.565091 0.223968
0.834275 0.566528 0.225406
0.863019 0.567490 0.226368
0.863019 0.567490 0.226368
0.233863 0.592798 0.210010
0.277687 0.594264 0.211476
0.321316 0.595723 0.212936
0.364813 0.597178 0.214391
0.408208 0.598630 0.215843
0.451522 0.600079 0.217291
0.494766 0.601525 0.218738
0.537952 0.602970 0.220183
0.581086 0.604413 0.221626
0.624173 0.605854 0.223067
0.667219 0.607294 0.224507
0.710386 0.608738 0.225951
0.753587 0.610183 0.227396
0.796755 0.611627 0.228840
0.839893 0.613070 0.230283
0.867870 0.614006 0.231219
0.867870 0.614006 0.231219
0.238709 0.639267 0.214856
0.282533 0.640733 0.216322
0.326162 0.642192 0.217782
0.369659 0.643647 0.219237
0.413054 0.645099 0.220689
0.456368 0.646548 0.222138
0.499613 0.647994 0.223584
0.542812 0.649439 0.225029
0.586175 0.650890 0.226480
0.629491 0.652339 0.227929
0.672765 0.653786 0.229376
0.716000 0.655233 0.230823
0.759201 0.656678 0.232268
0.802368 0.658122 0.233712
0.845506 0.659565 0.235155
0.872716 0.660475 0.236065
0.872716 0.660475 0.236065
0.243551 0.685693 0.219698
0.287374 0.687159 0.221164
0.331004 0.688618 0.222624
0.374501 0.690073 0.224079
0.417994 0.691528 0.225534
0.461537 0.692985 0.226990
0.505011 0.694439 0.228444
0.548426 0.695891 0.229897
0.591787 0.697342 0.231347
0.635103 0.698791 0.232796
0.678376 0.700239 0.234244
0.721611 0.701685 0.235690
0.764810 0.703130 0.237135
0.807977 0.704574 0.238579
0.851114 0.706017 0.240022
0.877558 0.706901 0.240907
0.877558 0.706901 0.240907
0.248388 0.732080 0.224536
0.292395 0.733552 0.226008
0.336256 0.735019 0.227475
0.379982 0.736482 0.228938
0.423607 0.737941 0.230397
0.467149 0.739398 0.231854
0.510621 0.740852 0.233308
0.554035 0.742305 0.234760
0.597396 0.743755 0.236211
0.640710 0.745204 0.237659
0.683983 0.746651 0.239107
0.727217 0.748098 0.240553
0.770416 0.749543 0.241998
0.813583 0.750987 0.243442
0.856719 0.752430 0.244885
0.882395 0.753289 0.245744
0.882395 0.753289 0.245744
0.253959 0.778456 0.229394
0.298011 0.779930 0.230868
0.341868 0.781397 0.232335
0.385593 0.782859 0.233797
0.429215 0.784319 0.235257
0.472756 0.785775 0.236713
0.516228 0.787229 0.238167
0.559640 0.788682 0.239620
0.603000 0.790132 0.241070
0.646314 0.791581 0.242519
0.689586 0.793028 0.243966
0.732819 0.794475 0.245413
0.776018 0.795920 0.246858
0.819184 0.797364 0.248302
0.862320 0.798807 0.249745
0.887229 0.799640 0.250578
0.887229 0.799640 0.250578
0.259575 0.824800 0.234251
0.303622 0.826274 0.235724
0.347477 0.827741 0.237191
0.391200 0.829203 0.238654
0.434821 0.830662 0.240113
0.478360 0.832119 0.241569
0.521831 0.833573 0.243024
0.565242 0.835025 0.244476
0.608601 0.836476 0.245926
0.651914 0.837924 0.247375
0.695185 0.839372 0.248823
0.738418 0.840818 0.250269
0.781616 0.842263 0.251714
0.824782 0.843707 0.253158
0.867917 0.845150 0.254601
0.892059 0.845958 0.255408
0.892059 0.845958 0.255408
0.265188 0.871113 0.239104
0.309231 0.872586 0.240577
0.353083 0.874053 0.242044
0.396803 0.875516 0.243507
0.440423 0.876975 0.244966
0.483961 0.878431 0.246422
0.527430 0.879885 0.247876
0.570841 0.881338 0.249329
0.614199 0.882788 0.250779
0.657511 0.884237 0.252228
0.700782 0.885684 0.253675
0.744014 0.887131 0.255121
0.787211 0.888576 0.256567
0.830376 0.890020 0.258010
0.873511 0.891462 0.259453
0.896886 0.892244 0.260235
0.896886 0.892244 0.260235
0.205851 0.131477 0.205459
0.248853 0.132655 0.206871
0.291699 0.133827 0.208278
0.334431 0.134995 0.209681
0.377073 0.136160 0.211081
0.419642 0.137321 0.212478
0.462147 0.138478 0.213873
0.504598 0.139631 0.215266
0.547025 0.141022 0.216683
0.589413 0.142440 0.218101
0.631760 0.143857 0.219517
0.674072 0.145272 0.220933
0.716351 0.146686 0.222347
0.758599 0.148100 0.223760
0.800819 0.149512 0.225172
0.819944 0.150152 0.225812
0.819944 0.150152 0.225812
0.208687 0.178623 0.210313
0.251699 0.179810 0.211726
