assets/luts/kodak_soft.cube
# MoodFilm Filter — kodak_soft
TITLE "kodak_soft"
LUT_3D_SIZE 9
0.205397 0.130759 0.128939
0.291243 0.133109 0.131758
0.376615 0.135442 0.134561
0.461688 0.137762 0.137354
0.546549 0.140147 0.140147
0.631283 0.142981 0.142981
0.715873 0.145811 0.145811
0.800340 0.148636 0.148636
0.819055 0.149262 0.149262
0.210734 0.224354 0.138567
0.296615 0.226727 0.141389
0.382008 0.229083 0.144195
0.467097 0.231429 0.146991
0.551963 0.233767 0.149779
0.636653 0.236100 0.152562
0.721197 0.238427 0.155339
0.805618 0.240751 0.158113
0.828658 0.241353 0.158866
0.215667 0.316634 0.148050
0.301586 0.319011 0.150873
0.387000 0.321372 0.153680
0.472103 0.323721 0.156477
0.556980 0.326064 0.159266
0.641679 0.328400 0.162049
0.726231 0.330731 0.164827
0.810659 0.333058 0.167601
0.838301 0.333816 0.168509
0.220548 0.408437 0.157482
0.306506 0.410818 0.160308
0.391941 0.413181 0.163116
0.477059 0.415533 0.165913
0.561947 0.417878 0.168702
0.647389 0.420496 0.171536
0.733370 0.423372 0.174412
0.819221 0.426244 0.177284
0.848040 0.427208 0.178248
0.225393 0.499931 0.166883
0.311392 0.502314 0.169709
0.398111 0.505155 0.172604
0.484669 0.508051 0.175500
0.570989 0.510939 0.178387
0.657122 0.513820 0.181269
0.743102 0.516696 0.184145
0.828953 0.519568 0.187017
0.857773 0.520532 0.187981
0.233473 0.592408 0.176480
0.320927 0.595334 0.179405
0.407819 0.598240 0.182312
0.494377 0.601136 0.185207
0.580696 0.604023 0.188095
0.666829 0.606905 0.190976
0.753137 0.609792 0.193863
0.839444 0.612679 0.196750
0.867480 0.613617 0.197688
0.243161 0.685303 0.186167
0.330614 0.688229 0.189093
0.417544 0.691137 0.192001
0.504562 0.694048 0.194912
0.591338 0.696950 0.197814
0.677927 0.699847 0.200711
0.764361 0.702738 0.203602
0.850665 0.705625 0.206489
0.877168 0.706512 0.207376
0.253508 0.778064 0.195861
0.341418 0.781005 0.198802
0.428766 0.783927 0.201724
0.515778 0.786838 0.204635
0.602551 0.789740 0.207537
0.689137 0.792637 0.210434
0.775569 0.795528 0.213325
0.861871 0.798415 0.216212
0.886839 0.799250 0.217047
0.264737 0.870722 0.205571
0.352633 0.873662 0.208511
0.439973 0.876583 0.211433
0.526981 0.879494 0.214344
0.613750 0.882397 0.217246
0.700332 0.885293 0.220143
0.786762 0.888184 0.223034
0.873062 0.891071 0.225921
0.896497 0.891855 0.226705
0.205597 0.131074 0.162457
0.291444 0.133425 0.165276
0.376817 0.135757 0.168079
0.461891 0.138077 0.170872
0.546759 0.140530 0.173672
0.631493 0.143365 0.176506
0.716084 0.146194 0.179336
0.800551 0.149020 0.182161
0.819444 0.149652 0.182793
0.210934 0.224672 0.172085
0.296816 0.227045 0.174907
0.382211 0.229401 0.177713
0.467300 0.231747 0.180509
0.552166 0.234085 0.183297
0.636856 0.236418 0.186080
0.721401 0.238745 0.188857
0.805822 0.241069 0.191631
0.829041 0.241677 0.192390
0.215868 0.316953 0.181568
0.301788 0.319330 0.184391
0.387203 0.321690 0.187198
0.472307 0.324040 0.189995
0.557184 0.326382 0.192784
0.641883 0.328718 0.195567
0.726435 0.331050 0.198345
0.810863 0.333377 0.201119
0.838684 0.334140 0.202033
0.220748 0.408756 0.191000
0.306707 0.411136 0.193826
0.392144 0.413499 0.196633
0.477262 0.415852 0.199431
0.562150 0.418196 0.202220
0.647779 0.420886 0.205067
0.733759 0.423762 0.207943
0.819610 0.426634 0.210815
0.848430 0.427598 0.211779
0.225593 0.500249 0.200400
0.311609 0.502638 0.203228
0.398501 0.505545 0.206135
0.485059 0.508441 0.209031
0.571378 0.511328 0.211918
0.657511 0.514209 0.214799
0.743492 0.517086 0.217676
0.829342 0.519957 0.220547
0.858162 0.520921 0.221511
0.233863 0.592798 0.210010
0.321316 0.595723 0.212936
0.408208 0.598630 0.215843
0.494766 0.601525 0.218738
0.581086 0.604413 0.221626
0.667219 0.607294 0.224507
0.753587 0.610183 0.227396
0.839893 0.613070 0.230283
0.867870 0.614006 0.231219
0.243551 0.685693 0.219698
0.331004 0.688618 0.222624
0.417994 0.691528 0.225534
0.505011 0.694439 0.228444
0.591787 0.697342 0.231347
0.678376 0.700239 0.234244
0.764810 0.703130 0.237135
0.851114 0.706017 0.240022
0.877558 0.706901 0.240907
0.253959 0.778456 0.229394
0.341868 0.781397 0.232335
0.429215 0.784319 0.235257
0.516228 0.787229 0.238167
0.603000 0.790132 0.241070
0.689586 0.793028 0.243966
0.776018 0.795920 0.246858
0.862320 0.798807 0.249745
0.887229 0.799640 0.250578
0.265188 0.871113 0.239104
0.353083 0.874053 0.242044
0.440423 0.876975 0.244966
0.527430 0.879885 0.247876
0.614199 0.882788 0.250779
0.700782 0.885684 0.253675
0.787211 0.888576 0.256567
0.873511 0.891462 0.259453
0.896886 0.892244 0.260235
0.206101 0.131877 0.248203
0.291951 0.134227 0.251022
0.377326 0.136559 0.253825
0.462401 0.138877 0.256617
0.547289 0.141511 0.259436
0.632024 0.144346 0.262271
0.716615 0.147175 0.265100
0.801083 0.150001 0.267926
0.820441 0.150649 0.268573
0.211438 0.225482 0.257831
0.297324 0.227855 0.260654
0.382720 0.230211 0.263460
0.467811 0.232557 0.266256
0.552678 0.234896 0.269044
0.637369 0.237228 0.271826
0.721915 0.239556 0.274604
0.806336 0.241879 0.277377
0.830020 0.242503 0.278153
0.216371 0.317764 0.267314
0.302295 0.320141 0.270138
0.387712 0.322501 0.272945
0.472817 0.324851 0.275742
0.557696 0.327194 0.278531
0.642396 0.329530 0.281314
0.726949 0.331861 0.284092
0.811377 0.334188 0.286866
0.839663 0.334968 0.287795
0.221252 0.409568 0.276747
0.307215 0.411948 0.279572
0.392653 0.414311 0.282380
0.477773 0.416664 0.285178
0.562662 0.419008 0.287967
0.648775 0.421882 0.290847
0.734756 0.424758 0.293723
0.820607 0.427630 0.296595
0.849427 0.428594 0.297559
0.226096 0.501062 0.286147
0.312605 0.503635 0.289009
0.399497 0.506542 0.291915
0.486056 0.509437 0.294811
0.572375 0.512325 0.297698
0.658508 0.515206 0.300580
0.744488 0.518082 0.303456
0.830339 0.520954 0.306328
0.859159 0.521918 0.307292
0.234859 0.593794 0.295791
0.322313 0.596720 0.298716
0.409205 0.599626 0.301623
0.495763 0.602522 0.304518
0.582082 0.605409 0.307406
0.668301 0.608293 0.310290
0.754738 0.611185 0.313181
0.841044 0.614072 0.316068
0.868866 0.615003 0.316999
0.244547 0.686689 0.305478
0.332000 0.689615 0.308404
0.419147 0.692530 0.311319
0.506164 0.695441 0.314230
0.592940 0.698344 0.317133
0.679528 0.701240 0.320029
0.765962 0.704132 0.322920
0.852266 0.707019 0.325807
0.878554 0.707898 0.326687
0.255114 0.779458 0.315180
0.343022 0.782398 0.318120
0.430368 0.785320 0.321042
0.517380 0.788231 0.323953
0.604152 0.791134 0.326855
0.690738 0.794030 0.329752
0.777169 0.796921 0.332643
0.863471 0.799808 0.335530
0.888225 0.800636 0.336358
0.266343 0.872115 0.324890
0.354237 0.875055 0.327830
0.441576 0.877977 0.330751
0.528583 0.880887 0.333662
0.615351 0.883790 0.336564
0.701933 0.886686 0.339461
0.788363 0.889577 0.342352
0.874662 0.892464 0.345239
0.897883 0.893241 0.346016
0.206596 0.132672 0.333261
0.292450 0.135022 0.336080
0.377827 0.137353 0.338883
0.462903 0.139667 0.341675
0.547811 0.142484 0.344513
0.632547 0.145319 0.347348
0.717138 0.148148 0.350178
0.801607 0.150974 0.353003
0.821429 0.151637 0.353666
0.211934 0.226284 0.342891
0.297823 0.228657 0.345713
0.383222 0.231013 0.348519
0.468314 0.233359 0.351315
0.553182 0.235698 0.354103
0.637874 0.238030 0.356886
0.722420 0.240358 0.359663
0.806842 0.242681 0.362437
0.830991 0.243321 0.363228
0.216867 0.318567 0.352373
0.302794 0.320945 0.355197
0.388214 0.323305 0.358005
0.473320 0.325655 0.360801
0.558200 0.327997 0.363590
0.642901 0.330333 0.366373
0.727455 0.332665 0.369152
0.811883 0.334992 0.371926
0.840649 0.335935 0.372886
0.221747 0.410372 0.361806
0.307714 0.412752 0.364632
0.393155 0.415116 0.367440
0.478276 0.417468 0.370237
0.563631 0.419989 0.373059
0.649764 0.422871 0.375940
0.735744 0.425747 0.378816
0.821595 0.428619 0.381688
0.850415 0.429583 0.382652
0.226591 0.501866 0.371207
0.313594 0.504623 0.374101
0.400486 0.507530 0.377008
0.487044 0.510426 0.379904
0.573363 0.513313 0.382791
0.659496 0.516194 0.385672
0.745477 0.519071 0.388549
0.831327 0.521942 0.391420
0.860147 0.522906 0.392384
0.235848 0.594783 0.380883
0.323301 0.597708 0.383809
0.410193 0.600615 0.386716
0.496751 0.603510 0.389611
0.583071 0.606398 0.392499
0.669445 0.609287 0.395388
0.755882 0.612179 0.398279
0.842188 0.615066 0.401166
0.869855 0.615991 0.402092
0.245536 0.687678 0.390571
0.332989 0.690603 0.393497
0.420292 0.693524 0.396417
0.507308 0.696435 0.399328
0.594084 0.699337 0.402231
0.680672 0.702234 0.405127
0.767105 0.705125 0.408018
0.853409 0.708012 0.410905
0.879543 0.708886 0.411780
0.256261 0.780452 0.400278
0.344168 0.783392 0.403218
0.431513 0.786314 0.406140
0.518525 0.789225 0.409051
0.605297 0.792127 0.411953
0.691881 0.795024 0.414850
0.778313 0.797915 0.417741
0.864614 0.800802 0.420628
0.889214 0.801625 0.421451
0.267490 0.873109 0.409988
0.355382 0.876049 0.412928
0.442721 0.878970 0.415849
0.529727 0.881881 0.418760
0.616495 0.884783 0.421662
0.703077 0.887680 0.424559
0.789506 0.890571 0.427450
0.875806 0.893458 0.430337
0.898871 0.894229 0.431108
0.207087 0.133463 0.417952
0.292944 0.135812 0.420771
0.378323 0.138141 0.423574
0.463417 0.140612 0.426383
0.548328 0.143453 0.429223
0.633065 0.146287 0.432058
0.717658 0.149117 0.434887
0.802127 0.151943 0.437713
0.822413 0.152621 0.438392
0.212425 0.227082 0.427582
0.298318 0.229455 0.430405
0.383719 0.231811 0.433211
0.468813 0.234157 0.436007
0.553682 0.236496 0.438795
0.638375 0.238828 0.441578
0.722921 0.241156 0.444355
0.807344 0.243480 0.447129
0.831957 0.244135 0.447935
0.217358 0.319366 0.437065
0.303290 0.321744 0.439889
0.388711 0.324104 0.442697
0.473819 0.326454 0.445493
0.558700 0.328796 0.448282
0.643401 0.331133 0.451066
0.727956 0.333464 0.453844
0.812813 0.335955 0.456647
0.841633 0.336919 0.457611
0.222238 0.411171 0.446498
0.308209 0.413552 0.449324
0.393652 0.415915 0.452132
0.478775 0.418268 0.454929
0.564615 0.420974 0.457784
0.650748 0.423855 0.460665
0.736728 0.426731 0.463541
0.822579 0.429603 0.466413
0.851399 0.430567 0.467377
0.227125 0.502682 0.455901
0.314578 0.505608 0.458827
0.401470 0.508514 0.461733
0.488028 0.511410 0.464629
0.574348 0.514297 0.467516
0.660481 0.517179 0.470398
0.746461 0.520055 0.473274
0.832312 0.522927 0.476146
0.861132 0.523891 0.477110
0.236832 0.595767 0.465609
0.324285 0.598692 0.468534
0.411177 0.601599 0.471441
0.497736 0.604495 0.474336
0.584055 0.607382 0.477224
0.670585 0.610277 0.480118
0.757021 0.613168 0.483010
0.843327 0.616055 0.485897
0.870839 0.616975 0.486817
0.246520 0.688662 0.475296
0.334080 0.691591 0.478225
0.421433 0.694513 0.481147
0.508449 0.697424 0.484058
0.595224 0.700327 0.486961
0.681811 0.703223 0.489858
0.768245 0.706115 0.492749
0.854548 0.709002 0.495636
0.880527 0.709871 0.496505
0.257404 0.781441 0.485008
0.345309 0.784382 0.487949
0.432654 0.787304 0.490871
0.519665 0.790214 0.493781
0.606436 0.793117 0.496684
0.693021 0.796013 0.499580
0.779452 0.798905 0.502472
0.865753 0.801791 0.505359
0.890198 0.802609 0.506176
0.268633 0.874098 0.494718
0.356524 0.877038 0.497658
0.443862 0.879960 0.500580
0.530868 0.882870 0.503490
0.617635 0.885773 0.506393
0.704217 0.888669 0.509289
0.790646 0.891560 0.512180
0.876945 0.894447 0.515067
0.899855 0.895214 0.515834
0.207575 0.134250 0.502389
0.293435 0.136598 0.505208
0.378816 0.138926 0.508011
0.463930 0.141578 0.510838
0.548843 0.144418 0.513679
0.633581 0.147253 0.516513
0.718174 0.150083 0.519343
0.802644 0.152908 0.522169
0.823395 0.153603 0.522863
0.212913 0.227877 0.512020
0.298811 0.230250 0.514843
0.384213 0.232606 0.517649
0.469308 0.234952 0.520445
0.554179 0.237291 0.523233
0.638872 0.239624 0.526016
0.723420 0.241951 0.528793
0.807843 0.244275 0.531567
0.832920 0.244945 0.532389
0.217846 0.320162 0.521503
0.303782 0.322540 0.524327
0.389205 0.324900 0.527135
0.474315 0.327250 0.529931
0.559196 0.329593 0.532721
0.643899 0.331929 0.535504
0.728454 0.334260 0.538282
0.813794 0.336937 0.541119
0.842614 0.337901 0.542083
0.222726 0.411968 0.530936
0.308701 0.414349 0.533762
0.394146 0.416712 0.536570
0.479277 0.419067 0.539368
0.565597 0.421955 0.542256
0.651730 0.424836 0.545137
0.737710 0.427712 0.548013
0.823561 0.430584 0.550885
0.852381 0.431548 0.551849
0.228106 0.503663 0.540373
0.315559 0.506589 0.543298
0.402451 0.509496 0.546205
0.489010 0.512391 0.549100
0.575329 0.515279 0.551988
0.661462 0.518160 0.554869
0.747442 0.521036 0.557745
0.833293 0.523908 0.560617
0.862113 0.524872 0.561581
0.237814 0.596748 0.550080
0.325267 0.599674 0.553006
0.412159 0.602580 0.555912
0.498717 0.605476 0.558808
0.585131 0.608367 0.561699
0.671721 0.611263 0.564595
0.758157 0.614155 0.567487
0.844463 0.617042 0.570374
0.871820 0.617957 0.571289
0.247501 0.689644 0.559768
0.335219 0.692578 0.562702
0.422570 0.695500 0.565624
0.509586 0.698411 0.568535
0.596361 0.701313 0.571438
0.682948 0.704210 0.574334
0.769381 0.707101 0.577226
0.855684 0.709988 0.580113
0.881508 0.710852 0.580976
0.258544 0.782428 0.569485
0.346448 0.785368 0.572426
0.433792 0.788290 0.575347
0.520802 0.791201 0.578258
0.607573 0.794103 0.581161
0.694158 0.797000 0.584057
0.780589 0.799891 0.586948
0.866890 0.802778 0.589835
0.891179 0.803590 0.590648
0.269773 0.875085 0.579195
0.357662 0.878025 0.582135
0.444999 0.880946 0.585057
0.532005 0.883857 0.587967
0.618772 0.886759 0.590870
0.705353 0.889656 0.593766
0.791782 0.892547 0.596657
0.878081 0.895434 0.599544
0.900837 0.896195 0.600305
0.208061 0.135035 0.586632
0.293925 0.137382 0.589451
0.379307 0.139706 0.592253
0.464441 0.142541 0.595100
0.549355 0.145382 0.597941
0.634094 0.148216 0.600775
0.718688 0.151046 0.603605
0.803158 0.153872 0.606431
0.824374 0.154582 0.607140
0.213400 0.228670 0.596264
0.299300 0.231043 0.599087
0.384705 0.233399 0.601893
0.469802 0.235745 0.604689
0.554673 0.238084 0.607477
0.639367 0.240416 0.610260
0.723916 0.242744 0.613037
0.808340 0.245068 0.615811
0.833882 0.245754 0.616648
0.218332 0.320956 0.605747
0.304272 0.323334 0.608571
0.389697 0.325694 0.611379
0.474808 0.328044 0.614175
0.559691 0.330387 0.616965
0.644394 0.332723 0.619748
0.728951 0.335055 0.622526
0.814774 0.337916 0.625396
0.843593 0.338880 0.626360
0.223212 0.412763 0.615180
0.309191 0.415144 0.618006
0.394638 0.417507 0.620814
0.480256 0.420047 0.623645
0.566576 0.422934 0.626533
0.652709 0.425815 0.629414
0.738689 0.428691 0.632290
0.824540 0.431563 0.635162
0.853360 0.432527 0.636126
0.229085 0.504643 0.624650
0.316538 0.507568 0.627576
0.403430 0.510475 0.630482
0.489989 0.513370 0.633378
0.576308 0.516258 0.636265
0.662441 0.519139 0.639147
0.748421 0.522015 0.642023
0.834355 0.524890 0.644897
0.863092 0.525851 0.645859
0.238793 0.597727 0.634358
0.326246 0.600653 0.637283
0.413138 0.603559 0.640190
0.499696 0.606455 0.643085
0.586266 0.609351 0.645981
0.672856 0.612247 0.648878
0.759292 0.615139 0.651769
0.845597 0.618026 0.654656
0.872799 0.618936 0.655566
0.248480 0.690623 0.644045
0.336355 0.693562 0.646985
0.423706 0.696484 0.649907
0.510721 0.699395 0.652818
0.597495 0.702298 0.655720
0.684082 0.705194 0.658617
0.770515 0.708085 0.661508
0.856818 0.710972 0.664395
0.882487 0.711831 0.665254
0.259682 0.783412 0.653768
0.347584 0.786353 0.656708
0.434928 0.789274 0.659630
0.521937 0.792185 0.662541
0.608708 0.795088 0.665443
0.695292 0.797984 0.668340
0.781723 0.800875 0.671231
0.868024 0.803762 0.674118
0.892158 0.804569 0.674925
0.270910 0.876069 0.663478
0.358799 0.879009 0.666418
0.446135 0.881931 0.669339
0.533140 0.884841 0.672250
0.619907 0.887744 0.675152
0.706488 0.890640 0.678048
0.792916 0.893531 0.680940
0.879215 0.896418 0.683826
0.901816 0.897174 0.684582
0.208544 0.135818 0.670717
0.294412 0.138164 0.673537
0.379814 0.140655 0.676356
0.464951 0.143503 0.679204
0.549866 0.146343 0.682045
0.634605 0.149178 0.684880
0.719200 0.152008 0.687709
0.803671 0.154834 0.690535
0.825351 0.155559 0.691260
0.213884 0.229461 0.680350
0.299789 0.231834 0.683173
0.385195 0.234190 0.685979
0.470293 0.236536 0.688775
0.555166 0.238875 0.691564
0.639861 0.241207 0.694346
0.724410 0.243535 0.697124
0.808835 0.245859 0.699898
0.834841 0.246560 0.700751
0.218816 0.321748 0.689833
0.304760 0.324126 0.692658
0.390187 0.326486 0.695465
0.475300 0.328836 0.698262
0.560184 0.331179 0.701051
0.644888 0.333515 0.703835
0.729900 0.336021 0.706644
0.815751 0.338893 0.709516
0.844571 0.339857 0.710480
0.223696 0.413555 0.699266
0.309679 0.415936 0.702093
0.395128 0.418300 0.704901
0.481233 0.421024 0.707765
0.567553 0.423911 0.710653
0.653686 0.426793 0.713534
0.739666 0.429669 0.716410
0.825517 0.432541 0.719282
0.854337 0.433505 0.720246
0.230062 0.505620 0.708770
0.317516 0.508545 0.711696
0.404408 0.511452 0.714602
0.490966 0.514347 0.717498
0.577285 0.517235 0.720385
0.663418 0.520116 0.723267
0.749398 0.522992 0.726143
0.835487 0.525872 0.729023
0.864069 0.526828 0.729979
0.239770 0.598704 0.718478
0.327223 0.601630 0.721403
0.414115 0.604537 0.724310
0.500673 0.607432 0.727205
0.587399 0.610333 0.730106
0.673988 0.613230 0.733003
0.760424 0.616121 0.735894
0.846729 0.619008 0.738781
0.873777 0.619913 0.739686
0.249574 0.691604 0.728169
0.337490 0.694545 0.731110
0.424840 0.697467 0.734032
0.511854 0.700377 0.736943
0.598628 0.703280 0.739846
0.685215 0.706177 0.742742
0.771648 0.709068 0.745633
0.857950 0.711955 0.748520
0.883464 0.712808 0.749374
0.260818 0.784395 0.737893
0.348718 0.787335 0.740833
0.436061 0.790257 0.743755
0.523071 0.793167 0.746666
0.609841 0.796070 0.749568
0.696424 0.798966 0.752465
0.782855 0.801858 0.755356
0.869156 0.804745 0.758243
0.893136 0.805547 0.759045
0.272046 0.877052 0.747603
0.359933 0.879992 0.750543
0.447269 0.882913 0.753464
0.534273 0.885824 0.756375
0.621040 0.888726 0.759277
0.707620 0.891622 0.762174
0.794048 0.894514 0.765065
0.880347 0.897400 0.767952
0.902793 0.898151 0.768702
0.209027 0.136599 0.754671
0.294897 0.138943 0.757490
0.380320 0.141615 0.760329
0.465459 0.144463 0.763177
0.550374 0.147303 0.766017
0.635115 0.150138 0.768852
0.719710 0.152968 0.771682
0.804182 0.155794 0.774507
0.826327 0.156535 0.775248
0.214367 0.230250 0.764304
0.300275 0.232623 0.767127
0.385684 0.234980 0.769934
0.470783 0.237326 0.772730
0.555657 0.239664 0.775518
0.640353 0.241997 0.778301
0.724903 0.244325 0.781079
0.809328 0.246648 0.783852
0.835799 0.247365 0.784721
0.219299 0.322538 0.773787
0.305246 0.324916 0.776612
0.390676 0.327277 0.779420
0.475790 0.329627 0.782217
0.560675 0.331970 0.785006
0.645380 0.334306 0.787789
0.730876 0.336997 0.790632
0.816726 0.339869 0.793504
0.845546 0.340833 0.794468
0.224178 0.414346 0.783221
0.310166 0.416728 0.786047
0.395651 0.419104 0.788858
0.482209 0.421999 0.791753
0.568528 0.424887 0.794641
0.654661 0.427768 0.797522
0.740642 0.430644 0.800398
0.826493 0.433516 0.803270
0.855313 0.434480 0.804234
0.231038 0.506595 0.792758
0.318491 0.509521 0.795683
0.405383 0.512428 0.798590
0.491942 0.515323 0.801486
0.578261 0.518211 0.804373
0.664394 0.521092 0.807254
0.750374 0.523968 0.810131
0.836618 0.526853 0.813016
0.865045 0.527804 0.813966
0.240745 0.599680 0.802465
0.328199 0.602606 0.805391
0.415091 0.605512 0.808297
0.501753 0.608411 0.811196
0.588530 0.611314 0.814099
0.675119 0.614211 0.816996
0.761555 0.617102 0.819887
0.847859 0.619989 0.822774
0.874752 0.620889 0.823674
0.250709 0.692585 0.812162
0.338623 0.695526 0.815103
0.425972 0.698448 0.818025
0.512986 0.701358 0.820936
0.599759 0.704261 0.823839
0.686346 0.707157 0.826735
0.772778 0.710049 0.829626
0.859081 0.712936 0.832513
0.884440 0.713784 0.833362
0.261952 0.785376 0.821886
0.349851 0.788316 0.824827
0.437193 0.791238 0.827748
0.524202 0.794148 0.830659
0.610972 0.797051 0.833561
0.697555 0.799947 0.836458
0.783986 0.802839 0.839349
0.870286 0.805725 0.842236
0.894111 0.806522 0.843033
0.273180 0.878033 0.831596
0.361066 0.880973 0.834536
0.448401 0.883894 0.837458
0.535405 0.886805 0.840368
0.622171 0.889707 0.843270
0.708751 0.892603 0.846167
0.795179 0.895494 0.849058
0.881477 0.898381 0.851945
0.903769 0.899127 0.852690
