assets/luts/kodak_soft.cube
# MoodFilm Filter — kodak_soft
TITLE "kodak_soft"
LUT_3D_SIZE 5
0.205397 0.130759 0.128939
0.376615 0.135442 0.134561
0.546549 0.140147 0.140147
0.715873 0.145811 0.145811
0.819055 0.149262 0.149262
0.215667 0.316634 0.148050
0.387000 0.321372 0.153680
0.556980 0.326064 0.159266
0.726231 0.330731 0.164827
0.838301 0.333816 0.168509
0.225393 0.499931 0.166883
0.398111 0.505155 0.172604
0.570989 0.510939 0.178387
0.743102 0.516696 0.184145
0.857773 0.520532 0.187981
0.243161 0.685303 0.186167
0.417544 0.691137 0.192001
0.591338 0.696950 0.197814
0.764361 0.702738 0.203602
0.877168 0.706512 0.207376
0.264737 0.870722 0.205571
0.439973 0.876583 0.211433
0.613750 0.882397 0.217246
0.786762 0.888184 0.223034
0.896497 0.891855 0.226705
0.206101 0.131877 0.248203
0.377326 0.136559 0.253825
0.547289 0.141511 0.259436
0.716615 0.147175 0.265100
0.820441 0.150649 0.268573
0.216371 0.317764 0.267314
0.387712 0.322501 0.272945
0.557696 0.327194 0.278531
0.726949 0.331861 0.284092
0.839663 0.334968 0.287795
0.226096 0.501062 0.286147
0.399497 0.506542 0.291915
0.572375 0.512325 0.297698
0.744488 0.518082 0.303456
0.859159 0.521918 0.307292
0.244547 0.686689 0.305478
0.419147 0.692530 0.311319
0.592940 0.698344 0.317133
0.765962 0.704132 0.322920
0.878554 0.707898 0.326687
0.266343 0.872115 0.324890
0.441576 0.877977 0.330751
0.615351 0.883790 0.336564
0.788363 0.889577 0.342352
0.897883 0.893241 0.346016
0.207087 0.133463 0.417952
0.378323 0.138141 0.423574
0.548328 0.143453 0.429223
0.717658 0.149117 0.434887
0.822413 0.152621 0.438392
0.217358 0.319366 0.437065
0.388711 0.324104 0.442697
0.558700 0.328796 0.448282
0.727956 0.333464 0.453844
0.841633 0.336919 0.457611
0.227125 0.502682 0.455901
0.401470 0.508514 0.461733
0.574348 0.514297 0.467516
0.746461 0.520055 0.473274
0.861132 0.523891 0.477110
0.246520 0.688662 0.475296
0.421433 0.694513 0.481147
0.595224 0.700327 0.486961
0.768245 0.706115 0.492749
0.880527 0.709871 0.496505
0.268633 0.874098 0.494718
0.443862 0.879960 0.500580
0.617635 0.885773 0.506393
0.790646 0.891560 0.512180
0.899855 0.895214 0.515834
0.208061 0.135035 0.586632
0.379307 0.139706 0.592253
0.549355 0.145382 0.597941
0.718688 0.151046 0.603605
0.824374 0.154582 0.607140
0.218332 0.320956 0.605747
0.389697 0.325694 0.611379
0.559691 0.330387 0.616965
0.728951 0.335055 0.622526
0.843593 0.338880 0.626360
0.229085 0.504643 0.624650
0.403430 0.510475 0.630482
0.576308 0.516258 0.636265
0.748421 0.522015 0.642023
0.863092 0.525851 0.645859
0.248480 0.690623 0.644045
0.423706 0.696484 0.649907
0.597495 0.702298 0.655720
0.770515 0.708085 0.661508
0.882487 0.711831 0.665254
0.270910 0.876069 0.663478
0.446135 0.881931 0.669339
0.619907 0.887744 0.675152
0.792916 0.893531 0.680940
0.901816 0.897174 0.684582
0.209027 0.136599 0.754671
0.380320 0.141615 0.760329
0.550374 0.147303 0.766017
0.719710 0.152968 0.771682
0.826327 0.156535 0.775248
0.219299 0.322538 0.773787
0.390676 0.327277 0.779420
0.560675 0.331970 0.785006
0.730876 0.336997 0.790632
0.845546 0.340833 0.794468
0.231038 0.506595 0.792758
0.405383 0.512428 0.798590
0.578261 0.518211 0.804373
0.750374 0.523968 0.810131
0.865045 0.527804 0.813966
0.250709 0.692585 0.812162
0.425972 0.698448 0.818025
0.599759 0.704261 0.823839
0.772778 0.710049 0.829626
0.884440 0.713784 0.833362
0.273180 0.878033 0.831596
0.448401 0.883894 0.837458
0.622171 0.889707 0.843270
0.795179 0.895494 0.849058
0.903769 0.899127 0.852690
