assets/luts/latte.cube
TITLE "latte"
LUT_3D_SIZE 33
0.086230 0.066230 0.026230
0.111539 0.067164 0.027164
0.136848 0.068098 0.028098
0.162158 0.069033 0.029033
0.187467 0.069967 0.029967
0.212776 0.070901 0.030901
0.238086 0.071836 0.031836
0.263395 0.072770 0.032770
0.288705 0.073705 0.033705
0.314014 0.074639 0.034639
0.339323 0.075573 0.035573
0.364633 0.076508 0.036508
0.389942 0.077442 0.037442
0.415251 0.078376 0.038376
0.440561 0.079311 0.039311
0.465870 0.080245 0.040245
0.491180 0.081180 0.041180
0.516489 0.082114 0.042114
0.541798 0.083048 0.043048
0.567108 0.083983 0.043983
0.592417 0.084917 0.044917
0.617726 0.085851 0.045851
0.643036 0.086786 0.046786
0.668345 0.087720 0.047720
0.693655 0.088655 0.048655
0.718964 0.089589 0.049589
0.744273 0.090523 0.050523
0.769583 0.091458 0.051458
0.794892 0.092392 0.052392
0.820201 0.093326 0.053326
0.845511 0.094261 0.054261
0.870820 0.095195 0.055195
0.896130 0.096130 0.056130
0.088064 0.092439 0.028064
0.113373 0.093373 0.028998
0.138683 0.094308 0.029933
0.163992 0.095242 0.030867
0.189301 0.096176 0.031801
0.214611 0.097111 0.032736
0.239920 0.098045 0.033670
0.265230 0.098980 0.034605
0.290539 0.099914 0.035539
0.315848 0.100848 0.036473
0.341158 0.101783 0.037408
0.366467 0.102717 0.038342
0.391776 0.103651 0.039276
0.417086 0.104586 0.040211
0.442395 0.105520 0.041145
0.467705 0.106455 0.042080
0.493014 0.107389 0.043014
0.518323 0.108323 0.043948
0.543633 0.109258 0.044883
0.568942 0.110192 0.045817
0.594251 0.111126 0.046751
0.619561 0.112061 0.047686
0.644870 0.112995 0.048620
0.670180 0.113930 0.049555
0.695489 0.114864 0.050489
0.720798 0.115798 0.051423
0.746108 0.116733 0.052358
0.771417 0.117667 0.053292
0.796726 0.118601 0.054226
0.822036 0.119536 0.055161
0.847345 0.120470 0.056095
0.873385 0.122135 0.057760
0.899816 0.124191 0.059816
0.089898 0.118648 0.029898
0.115208 0.119583 0.030833
0.140517 0.120517 0.031767
0.165826 0.121451 0.032701
0.191136 0.122386 0.033636
0.216445 0.123320 0.034570
0.241755 0.124255 0.035505
0.267064 0.125189 0.036439
0.292373 0.126123 0.037373
0.317683 0.127058 0.038308
0.342992 0.127992 0.039242
0.368301 0.128926 0.040176
0.393611 0.129861 0.041111
0.418920 0.130795 0.042045
0.444230 0.131730 0.042980
0.469539 0.132664 0.043914
0.494848 0.133598 0.044848
0.520158 0.134533 0.045783
0.545467 0.135467 0.046717
0.570776 0.136401 0.047651
0.596086 0.137336 0.048586
0.621395 0.138270 0.049520
0.646705 0.139205 0.050455
0.672014 0.140139 0.051389
0.697323 0.141073 0.052323
0.722633 0.142008 0.053258
0.747942 0.142942 0.054192
0.773251 0.143876 0.055126
0.798561 0.144811 0.056061
0.824559 0.146434 0.057684
0.850990 0.148490 0.059740
0.877421 0.150546 0.061796
0.903851 0.152601 0.063851
0.091733 0.144858 0.031733
0.117042 0.145792 0.032667
0.142351 0.146726 0.033601
0.167661 0.147661 0.034536
0.192970 0.148595 0.035470
0.218280 0.149530 0.036405
0.243589 0.150464 0.037339
0.268898 0.151398 0.038273
0.294208 0.152333 0.039208
0.319517 0.153267 0.040142
0.344826 0.154201 0.041076
0.370136 0.155136 0.042011
0.395445 0.156070 0.042945
0.420755 0.157005 0.043880
0.446064 0.157939 0.044814
0.471373 0.158873 0.045748
0.496683 0.159808 0.046683
0.521992 0.160742 0.047617
0.547301 0.161676 0.048551
0.572611 0.162611 0.049486
0.597920 0.163545 0.050420
0.623230 0.164480 0.051355
0.648539 0.165414 0.052289
0.673848 0.166348 0.053223
0.699158 0.167283 0.054158
0.724467 0.168217 0.055092
0.749776 0.169151 0.056026
0.775734 0.170734 0.057609
0.802164 0.172789 0.059664
0.828595 0.174845 0.061720
0.855026 0.176901 0.063776
0.881456 0.178956 0.065831
0.907887 0.181012 0.067887
0.093567 0.171067 0.033567
0.118876 0.172001 0.034501
0.144186 0.172936 0.035436
0.169495 0.173870 0.036370
0.194805 0.174805 0.037305
0.220114 0.175739 0.038239
0.245423 0.176673 0.039173
0.270733 0.177608 0.040108
0.296042 0.178542 0.041042
0.321351 0.179476 0.041976
0.346661 0.180411 0.042911
0.371970 0.181345 0.043845
0.397280 0.182280 0.044780
0.422589 0.183214 0.045714
0.447898 0.184148 0.046648
0.473208 0.185083 0.047583
0.498517 0.186017 0.048517
0.523826 0.186951 0.049451
0.549136 0.187886 0.050386
0.574445 0.188820 0.051320
0.599755 0.189755 0.052255
0.625064 0.190689 0.053189
0.650373 0.191623 0.054123
0.675683 0.192558 0.055058
0.700992 0.193492 0.055992
0.726908 0.195033 0.057533
0.753339 0.197089 0.059589
0.779769 0.199144 0.061644
0.806200 0.201200 0.063700
0.832631 0.203256 0.065756
0.859061 0.205311 0.067811
0.885492 0.207367 0.069867
0.911923 0.209422 0.071923
0.095401 0.197276 0.035401
0.120711 0.198211 0.036336
0.146020 0.199145 0.037270
0.171330 0.200080 0.038205
0.196639 0.201014 0.039139
0.221948 0.201948 0.040073
0.247258 0.202883 0.041008
0.272567 0.203817 0.041942
0.297876 0.204751 0.042876
0.323186 0.205686 0.043811
0.348495 0.206620 0.044745
0.373805 0.207555 0.045680
0.399114 0.208489 0.046614
0.424423 0.209423 0.047548
0.449733 0.210358 0.048483
0.475042 0.211292 0.049417
0.500351 0.212226 0.050351
0.525661 0.213161 0.051286
0.550970 0.214095 0.052220
0.576280 0.215030 0.053155
0.601589 0.215964 0.054089
0.626898 0.216898 0.055023
0.652208 0.217833 0.055958
0.678083 0.219332 0.057457
0.704513 0.221388 0.059513
0.730944 0.223444 0.061569
0.757374 0.225499 0.063624
0.783805 0.227555 0.065680
0.810236 0.229611 0.067736
0.836666 0.231666 0.069791
0.863097 0.233722 0.071847
0.889528 0.235777 0.073902
0.915958 0.237833 0.075958
0.097236 0.223486 0.037236
0.122545 0.224420 0.038170
0.147855 0.225355 0.039105
0.173164 0.226289 0.040039
0.198473 0.227223 0.040973
0.223783 0.228158 0.041908
0.249092 0.229092 0.042842
0.274401 0.230026 0.043776
0.299711 0.230961 0.044711
0.325020 0.231895 0.045645
0.350330 0.232830 0.046580
0.375639 0.233764 0.047514
0.400948 0.234698 0.048448
0.426258 0.235633 0.049383
0.451567 0.236567 0.050317
0.476876 0.237501 0.051251
0.502186 0.238436 0.052186
0.527495 0.239370 0.053120
0.552805 0.240305 0.054055
0.578114 0.241239 0.054989
0.603423 0.242173 0.055923
0.629257 0.243632 0.057382
0.655687 0.245687 0.059437
0.682118 0.247743 0.061493
0.708549 0.249799 0.063549
0.734979 0.251854 0.065604
0.761410 0.253910 0.067660
0.787841 0.255966 0.069716
0.814271 0.258021 0.071771
0.840702 0.260077 0.073827
0.867133 0.262132 0.075882
0.893563 0.264188 0.077938
0.919994 0.266244 0.079994
0.099070 0.249695 0.039070
0.124380 0.250630 0.040005
0.149689 0.251564 0.040939
0.174998 0.252498 0.041873
0.200308 0.253433 0.042808
0.225617 0.254367 0.043742
0.250926 0.255301 0.044676
0.276236 0.256236 0.045611
0.301545 0.257170 0.046545
0.326855 0.258105 0.047480
0.352164 0.259039 0.048414
0.377473 0.259973 0.049348
0.402783 0.260908 0.050283
0.428092 0.261842 0.051217
0.453401 0.262776 0.052151
0.478711 0.263711 0.053086
0.504020 0.264645 0.054020
0.529330 0.265580 0.054955
0.554639 0.266514 0.055889
0.580431 0.267931 0.057306
0.606862 0.269987 0.059362
0.633293 0.272043 0.061417
0.659723 0.274098 0.063473
0.686154 0.276154 0.065529
0.712584 0.278209 0.067584
0.739015 0.280265 0.069640
0.765446 0.282321 0.071696
0.791876 0.284376 0.073751
0.818307 0.286432 0.075807
0.844738 0.288488 0.077863
0.871168 0.290543 0.079918
0.897599 0.292599 0.081974
0.924029 0.294654 0.084029
0.100905 0.275905 0.040905
0.126214 0.276839 0.041839
0.151523 0.277773 0.042773
0.176833 0.278708 0.043708
0.202142 0.279642 0.044642
0.227451 0.280576 0.045576
0.252761 0.281511 0.046511
0.278070 0.282445 0.047445
0.303380 0.283380 0.048380
0.328689 0.284314 0.049314
0.353998 0.285248 0.050248
0.379308 0.286183 0.051183
0.404617 0.287117 0.052117
0.429926 0.288051 0.053051
0.455236 0.288986 0.053986
0.480545 0.289920 0.054920
0.505855 0.290855 0.055855
0.531606 0.292231 0.057231
0.558036 0.294286 0.059286
0.584467 0.296342 0.061342
0.610898 0.298397 0.063397
0.637328 0.300453 0.065453
0.663759 0.302509 0.067509
0.690189 0.304564 0.069564
0.716620 0.306620 0.071620
0.743051 0.308676 0.073676
0.769481 0.310731 0.075731
0.795912 0.312787 0.077787
0.822342 0.314843 0.079842
0.848773 0.316898 0.081898
0.875204 0.318954 0.083954
0.901634 0.321009 0.086009
0.928065 0.323065 0.088065
0.102739 0.302114 0.042739
0.128048 0.303048 0.043673
0.153358 0.303983 0.044608
0.178667 0.304917 0.045542
0.203976 0.305851 0.046476
0.229286 0.306786 0.047411
0.254595 0.307720 0.048345
0.279905 0.308655 0.049280
0.305214 0.309589 0.050214
0.330523 0.310523 0.051148
0.355833 0.311458 0.052083
0.381142 0.312392 0.053017
0.406451 0.313326 0.053951
0.431761 0.314261 0.054886
0.457070 0.315195 0.055820
0.482780 0.316530 0.057155
0.509211 0.318586 0.059211
0.535641 0.320641 0.061266
0.562072 0.322697 0.063322
0.588503 0.324752 0.065377
0.614933 0.326808 0.067433
0.641364 0.328864 0.069489
0.667794 0.330919 0.071544
0.694225 0.332975 0.073600
0.720656 0.335031 0.075656
0.747086 0.337086 0.077711
0.773517 0.339142 0.079767
0.799948 0.341198 0.081822
0.826378 0.343253 0.083878
0.852809 0.345309 0.085934
0.879239 0.347364 0.087989
0.905670 0.349420 0.090045
0.932101 0.351476 0.092101
0.104573 0.328323 0.044573
0.129883 0.329258 0.045508
0.155192 0.330192 0.046442
0.180501 0.331126 0.047376
0.205811 0.332061 0.048311
0.231120 0.332995 0.049245
0.256430 0.333930 0.050180
0.281739 0.334864 0.051114
0.307048 0.335798 0.052048
0.332358 0.336733 0.052983
0.357667 0.337667 0.053917
0.382976 0.338601 0.054851
0.408286 0.339536 0.055786
0.433954 0.340829 0.057079
0.460385 0.342885 0.059135
0.486816 0.344941 0.061191
0.513246 0.346996 0.063246
0.539677 0.349052 0.065302
0.566107 0.351108 0.067357
0.592538 0.353163 0.069413
0.618969 0.355219 0.071469
0.645399 0.357274 0.073524
0.671830 0.359330 0.075580
0.698261 0.361386 0.077636
0.724691 0.363441 0.079691
0.751122 0.365497 0.081747
0.777553 0.367553 0.083802
0.803983 0.369608 0.085858
0.830414 0.371664 0.087914
0.856844 0.373719 0.089969
0.883275 0.375775 0.092025
0.909706 0.377831 0.094081
0.936136 0.379886 0.096136
0.106408 0.354533 0.046408
0.131717 0.355467 0.047342
0.157026 0.356401 0.048276
0.182336 0.357336 0.049211
0.207645 0.358270 0.050145
0.232955 0.359205 0.051080
0.258264 0.360139 0.052014
0.283573 0.361073 0.052948
0.308883 0.362008 0.053883
0.334192 0.362942 0.054817
0.359501 0.363876 0.055751
0.385129 0.365129 0.057004
0.411559 0.367184 0.059059
0.437990 0.369240 0.061115
0.464421 0.371296 0.063171
0.490851 0.373351 0.065226
0.517282 0.375407 0.067282
0.543713 0.377463 0.069337
0.570143 0.379518 0.071393
0.596574 0.381574 0.073449
0.623004 0.383629 0.075504
0.649435 0.385685 0.077560
0.675866 0.387741 0.079616
0.702296 0.389796 0.081671
0.728727 0.391852 0.083727
0.755158 0.393908 0.085782
0.781588 0.395963 0.087838
0.808019 0.398019 0.089894
0.834449 0.400074 0.091949
0.860880 0.402130 0.094005
0.887311 0.404186 0.096061
0.913741 0.406241 0.098116
0.940172 0.408297 0.100172
0.108242 0.380742 0.048242
0.133551 0.381676 0.049176
0.158861 0.382611 0.050111
0.184170 0.383545 0.051045
0.209480 0.384480 0.051980
0.234789 0.385414 0.052914
0.260098 0.386348 0.053848
0.285408 0.387283 0.054783
0.310717 0.388217 0.055717
0.336303 0.389428 0.056928
0.362734 0.391484 0.058984
0.389164 0.393539 0.061039
0.415595 0.395595 0.063095
0.442026 0.397651 0.065151
0.468456 0.399706 0.067206
0.494887 0.401762 0.069262
0.521317 0.403817 0.071317
0.547748 0.405873 0.073373
0.574179 0.407929 0.075429
0.600609 0.409984 0.077484
0.627040 0.412040 0.079540
0.653471 0.414096 0.081596
0.679901 0.416151 0.083651
0.706332 0.418207 0.085707
0.732762 0.420263 0.087762
0.759193 0.422318 0.089818
0.785624 0.424374 0.091874
0.812054 0.426429 0.093929
0.838485 0.428485 0.095985
0.864916 0.430541 0.098041
0.891346 0.432596 0.100096
0.917777 0.434652 0.102152
0.944208 0.436708 0.104207
0.110076 0.406951 0.050076
0.135386 0.407886 0.051011
0.160695 0.408820 0.051945
0.186005 0.409755 0.052880
0.211314 0.410689 0.053814
0.236623 0.411623 0.054748
0.261933 0.412558 0.055683
0.287478 0.413728 0.056852
0.313908 0.415783 0.058908
0.340339 0.417839 0.060964
0.366769 0.419894 0.063019
0.393200 0.421950 0.065075
0.419631 0.424006 0.067131
0.446061 0.426061 0.069186
0.472492 0.428117 0.071242
0.498923 0.430173 0.073297
0.525353 0.432228 0.075353
0.551784 0.434284 0.077409
0.578214 0.436339 0.079464
0.604645 0.438395 0.081520
0.631076 0.440451 0.083576
0.657506 0.442506 0.085631
0.683937 0.444562 0.087687
0.710368 0.446618 0.089742
0.736798 0.448673 0.091798
0.763229 0.450729 0.093854
0.789659 0.452784 0.095909
0.816090 0.454840 0.097965
0.842521 0.456896 0.100021
0.868951 0.458951 0.102076
0.895382 0.461007 0.104132
0.921813 0.463063 0.106187
0.948243 0.465118 0.108243
0.111911 0.433161 0.051911
0.137220 0.434095 0.052845
0.162530 0.435030 0.053780
0.187839 0.435964 0.054714
0.213148 0.436898 0.055648
0.238652 0.438027 0.056777
0.265082 0.440083 0.058833
0.291513 0.442138 0.060888
0.317944 0.444194 0.062944
0.344374 0.446249 0.064999
0.370805 0.448305 0.067055
0.397236 0.450361 0.069111
0.423666 0.452416 0.071166
0.450097 0.454472 0.073222
0.476527 0.456528 0.075277
0.502958 0.458583 0.077333
0.529389 0.460639 0.079389
0.555819 0.462694 0.081444
0.582250 0.464750 0.083500
0.608681 0.466806 0.085556
0.635111 0.468861 0.087611
0.661542 0.470917 0.089667
0.687973 0.472973 0.091722
0.714403 0.475028 0.093778
0.740834 0.477084 0.095834
0.767264 0.479139 0.097889
0.793695 0.481195 0.099945
0.820126 0.483251 0.102001
0.846556 0.485306 0.104056
0.872987 0.487362 0.106112
0.899417 0.489418 0.108167
0.925848 0.491473 0.110223
0.952279 0.493529 0.112279
0.113745 0.459370 0.053745
0.139055 0.460305 0.054680
0.164364 0.461239 0.055614
0.189826 0.462326 0.056701
0.216257 0.464382 0.058757
0.242687 0.466438 0.060812
0.269118 0.468493 0.062868
0.295549 0.470549 0.064924
0.321979 0.472604 0.066979
0.348410 0.474660 0.069035
0.374841 0.476716 0.071091
0.401271 0.478771 0.073146
0.427702 0.480827 0.075202
0.454133 0.482883 0.077257
0.480563 0.484938 0.079313
0.506994 0.486994 0.081369
0.533424 0.489049 0.083424
0.559855 0.491105 0.085480
0.586286 0.493161 0.087536
0.612716 0.495216 0.089591
0.639147 0.497272 0.091647
0.665578 0.499328 0.093702
0.692008 0.501383 0.095758
0.718439 0.503439 0.097814
0.744869 0.505494 0.099869
0.771300 0.507550 0.101925
0.797731 0.509606 0.103981
0.824161 0.511661 0.106036
0.850592 0.513717 0.108092
0.877023 0.515772 0.110147
0.903453 0.517828 0.112203
0.929884 0.519884 0.114259
0.956314 0.521939 0.116314
0.115580 0.485580 0.055580
0.141001 0.486626 0.056626
0.167431 0.488681 0.058681
0.193862 0.490737 0.060737
0.220293 0.492793 0.062792
0.246723 0.494848 0.064848
0.273154 0.496904 0.066904
0.299584 0.498959 0.068959
0.326015 0.501015 0.071015
0.352446 0.503071 0.073071
0.378876 0.505126 0.075126
0.405307 0.507182 0.077182
0.431737 0.509238 0.079237
0.458168 0.511293 0.081293
0.484599 0.513349 0.083349
0.511029 0.515404 0.085404
0.537460 0.517460 0.087460
0.563891 0.519516 0.089516
0.590321 0.521571 0.091571
0.616752 0.523627 0.093627
0.643182 0.525683 0.095683
0.669613 0.527738 0.097738
0.696044 0.529794 0.099794
0.722474 0.531849 0.101849
0.748905 0.533905 0.103905
0.775336 0.535961 0.105961
0.801766 0.538016 0.108016
0.828197 0.540072 0.110072
0.854628 0.542127 0.112127
0.881058 0.544183 0.114183
0.907489 0.546239 0.116239
0.933919 0.548294 0.118294
0.960350 0.550350 0.120350
0.118606 0.512981 0.058606
0.145036 0.515036 0.060661
0.171467 0.517092 0.062717
0.197897 0.519147 0.064772
0.224328 0.521203 0.066828
0.250759 0.523259 0.068884
0.277189 0.525314 0.070939
0.303620 0.527370 0.072995
0.330051 0.529426 0.075051
0.356481 0.531481 0.077106
0.382912 0.533537 0.079162
0.409343 0.535593 0.081217
0.435773 0.537648 0.083273
0.462204 0.539704 0.085329
0.488634 0.541759 0.087384
0.515065 0.543815 0.089440
0.541496 0.545871 0.091496
0.567926 0.547926 0.093551
0.594357 0.549982 0.095607
0.620788 0.552038 0.097662
0.647218 0.554093 0.099718
0.673649 0.556149 0.101774
0.700079 0.558204 0.103829
0.726510 0.560260 0.105885
0.752941 0.562316 0.107941
0.779371 0.564371 0.109996
0.805802 0.566427 0.112052
0.832233 0.568483 0.114107
0.858663 0.570538 0.116163
0.885094 0.572594 0.118219
0.911524 0.574649 0.120274
0.937955 0.576705 0.122330
0.964386 0.578761 0.124386
0.122641 0.541391 0.062641
0.149072 0.543447 0.064697
0.175503 0.545503 0.066752
0.201933 0.547558 0.068808
0.228364 0.549614 0.070864
0.254794 0.551669 0.072919
0.281225 0.553725 0.074975
0.307656 0.555781 0.077031
0.334086 0.557836 0.079086
0.360517 0.559892 0.081142
0.386947 0.561948 0.083197
0.413378 0.564003 0.085253
0.439809 0.566059 0.087309
0.466239 0.568114 0.089364
0.492670 0.570170 0.091420
0.519101 0.572226 0.093476
0.545531 0.574281 0.095531
0.571962 0.576337 0.097587
0.598392 0.578392 0.099642
0.624823 0.580448 0.101698
0.651254 0.582504 0.103754
0.677684 0.584559 0.105809
0.704115 0.586615 0.107865
0.730546 0.588671 0.109921
0.756976 0.590726 0.111976
0.783407 0.592782 0.114032
0.809837 0.594838 0.116087
0.836268 0.596893 0.118143
0.862699 0.598949 0.120199
0.889129 0.601004 0.122254
0.915560 0.603060 0.124310
0.941991 0.605116 0.126366
0.968421 0.607171 0.128421
0.126677 0.569802 0.066677
0.153107 0.571858 0.068732
0.179538 0.573913 0.070788
0.205969 0.575969 0.072844
0.232399 0.578024 0.074899
0.258830 0.580080 0.076955
0.285261 0.582136 0.079011
0.311691 0.584191 0.081066
0.338122 0.586247 0.083122
0.364553 0.588302 0.085177
0.390983 0.590358 0.087233
0.417414 0.592414 0.089289
0.443844 0.594469 0.091344
0.470275 0.596525 0.093400
0.496706 0.598581 0.095456
0.523136 0.600636 0.097511
0.549567 0.602692 0.099567
0.575998 0.604747 0.101622
0.602428 0.606803 0.103678
0.628859 0.608859 0.105734
0.655289 0.610914 0.107789
0.681720 0.612970 0.109845
0.708151 0.615026 0.111901
0.734581 0.617081 0.113956
0.761012 0.619137 0.116012
0.787443 0.621193 0.118067
0.813873 0.623248 0.120123
0.840304 0.625304 0.122179
0.866734 0.627359 0.124234
0.893165 0.629415 0.126290
0.919596 0.631471 0.128346
0.946026 0.633526 0.130401
0.972457 0.635582 0.132457
0.130712 0.598213 0.070712
0.157143 0.600268 0.072768
0.183574 0.602324 0.074824
0.210004 0.604379 0.076879
0.236435 0.606435 0.078935
0.262866 0.608491 0.080991
0.289296 0.610546 0.083046
0.315727 0.612602 0.085102
0.342158 0.614658 0.087157
0.368588 0.616713 0.089213
0.395019 0.618769 0.091269
0.421449 0.620824 0.093324
0.447880 0.622880 0.095380
0.474311 0.624936 0.097436
0.500741 0.626991 0.099491
0.527172 0.629047 0.101547
0.553602 0.631103 0.103602
0.580033 0.633158 0.105658
0.606464 0.635214 0.107714
0.632894 0.637269 0.109769
0.659325 0.639325 0.111825
0.685756 0.641381 0.113881
0.712186 0.643436 0.115936
0.738617 0.645492 0.117992
0.765047 0.647548 0.120047
0.791478 0.649603 0.122103
0.817909 0.651659 0.124159
0.844339 0.653714 0.126214
0.870770 0.655770 0.128270
0.897201 0.657826 0.130326
0.923631 0.659881 0.132381
0.950062 0.661937 0.134437
0.976492 0.663992 0.136493
0.134748 0.626623 0.074748
0.161179 0.628679 0.076804
0.187609 0.630734 0.078859
0.214040 0.632790 0.080915
0.240471 0.634846 0.082971
0.266901 0.636901 0.085026
0.293332 0.638957 0.087082
0.319763 0.641012 0.089137
0.346193 0.643068 0.091193
0.372624 0.645124 0.093249
0.399054 0.647179 0.095304
0.425485 0.649235 0.097360
0.451916 0.651291 0.099416
0.478346 0.653346 0.101471
0.504777 0.655402 0.103527
0.531208 0.657458 0.105582
0.557638 0.659513 0.107638
0.584069 0.661569 0.109694
0.610499 0.663624 0.111749
0.636930 0.665680 0.113805
0.663361 0.667736 0.115861
0.689791 0.669791 0.117916
0.716222 0.671847 0.119972
0.742653 0.673903 0.122027
0.769083 0.675958 0.124083
0.795514 0.678014 0.126139
0.821944 0.680069 0.128194
0.848375 0.682125 0.130250
0.874806 0.684181 0.132306
0.901236 0.686236 0.134361
0.927667 0.688292 0.136417
0.952656 0.689305 0.138263
0.976848 0.689804 0.140001
0.138784 0.655034 0.078784
0.165214 0.657089 0.080839
0.191645 0.659145 0.082895
0.218076 0.661201 0.084951
0.244506 0.663256 0.087006
0.270937 0.665312 0.089062
0.297368 0.667368 0.091117
0.323798 0.669423 0.093173
0.350229 0.671479 0.095229
0.376659 0.673534 0.097284
0.403090 0.675590 0.099340
0.429521 0.677646 0.101396
0.455951 0.679701 0.103451
0.482382 0.681757 0.105507
0.508813 0.683813 0.107563
0.535243 0.685868 0.109618
0.561674 0.687924 0.111674
0.588104 0.689979 0.113729
0.614535 0.692035 0.115785
0.640966 0.694091 0.117841
0.667396 0.696146 0.119896
0.693827 0.698202 0.121952
0.720257 0.700257 0.124007
0.746688 0.702313 0.126063
0.773119 0.704369 0.128119
0.799549 0.706424 0.130174
0.825980 0.708480 0.132230
0.852411 0.710536 0.134286
0.878841 0.712591 0.136341
0.903979 0.713626 0.138199
0.928282 0.714072 0.139937
0.952467 0.714508 0.141665
0.976534 0.714935 0.143385
0.142819 0.683444 0.082819
0.169250 0.685500 0.084875
0.195681 0.687556 0.086931
0.222111 0.689611 0.088986
0.248542 0.691667 0.091042
0.274973 0.693723 0.093097
0.301403 0.695778 0.095153
0.327834 0.697834 0.097209
0.354264 0.699889 0.099264
0.380695 0.701945 0.101320
0.407126 0.704001 0.103376
0.433556 0.706056 0.105431
0.459987 0.708112 0.107487
0.486418 0.710168 0.109542
0.512848 0.712223 0.111598
0.539279 0.714279 0.113654
0.565709 0.716334 0.115709
0.592140 0.718390 0.117765
0.618571 0.720446 0.119821
0.645001 0.722501 0.121876
0.671432 0.724557 0.123932
0.697863 0.726612 0.125987
0.724293 0.728668 0.128043
0.750724 0.730724 0.130099
0.777154 0.732779 0.132154
0.803585 0.734835 0.134210
0.830016 0.736891 0.136266
0.855294 0.737952 0.138135
0.879709 0.738343 0.139873
0.904006 0.738725 0.141602
0.928184 0.739098 0.143322
0.952243 0.739461 0.145032
0.976184 0.739815 0.146733
0.146855 0.711855 0.086855
0.173286 0.713911 0.088911
0.199716 0.715966 0.090966
0.226147 0.718022 0.093022
0.252577 0.720078 0.095077
0.279008 0.722133 0.097133
0.305439 0.724189 0.099189
0.331869 0.726244 0.101244
0.358300 0.728300 0.103300
0.384731 0.730356 0.105356
0.411161 0.732411 0.107411
0.437592 0.734467 0.109467
0.464023 0.736522 0.111522
0.490453 0.738578 0.113578
0.516884 0.740634 0.115634
0.543314 0.742689 0.117689
0.569745 0.744745 0.119745
0.596176 0.746801 0.121801
0.622606 0.748856 0.123856
0.649037 0.750912 0.125912
0.675467 0.752968 0.127967
0.701898 0.755023 0.130023
0.728329 0.757079 0.132079
0.754759 0.759134 0.134134
0.781190 0.761190 0.136190
0.806600 0.762281 0.138071
0.831127 0.762618 0.139809
0.855536 0.762946 0.141539
0.879825 0.763264 0.143259
0.903997 0.763573 0.144969
0.928049 0.763873 0.146671
0.951983 0.764164 0.148363
0.975799 0.764446 0.150046
0.150891 0.740266 0.090891
0.177321 0.742321 0.092946
0.203752 0.744377 0.095002
0.230182 0.746433 0.097057
0.256613 0.748488 0.099113
0.283044 0.750544 0.101169
0.309474 0.752599 0.103224
0.335905 0.754655 0.105280
0.362336 0.756711 0.107336
0.388766 0.758766 0.109391
0.415197 0.760822 0.111447
0.441628 0.762877 0.113502
0.468058 0.764933 0.115558
0.494489 0.766989 0.117614
0.520919 0.769044 0.119669
0.547350 0.771100 0.121725
0.573781 0.773156 0.123781
0.600211 0.775211 0.125836
0.626642 0.777267 0.127892
0.653073 0.779323 0.129947
0.679503 0.781378 0.132003
0.705934 0.783434 0.134059
0.732364 0.785489 0.136114
0.757899 0.786615 0.138007
0.782538 0.786898 0.139746
0.807058 0.787171 0.141475
0.831459 0.787435 0.143195
0.855742 0.787690 0.144906
0.879906 0.787935 0.146608
0.903952 0.788172 0.148301
0.927879 0.788399 0.149984
0.951688 0.788617 0.151659
0.975378 0.788826 0.153324
0.154926 0.768676 0.094926
0.181357 0.770732 0.096982
0.207787 0.772788 0.099038
0.234218 0.774843 0.101093
0.260649 0.776899 0.103149
0.287079 0.778954 0.105204
0.313510 0.781010 0.107260
0.339941 0.783066 0.109316
0.366371 0.785121 0.111371
0.392802 0.787177 0.113427
0.419233 0.789233 0.115482
0.445663 0.791288 0.117538
0.472094 0.793344 0.119594
0.498524 0.795399 0.121649
0.524955 0.797455 0.123705
0.551386 0.799511 0.125761
0.577816 0.801566 0.127816
0.604247 0.803622 0.129872
0.630678 0.805678 0.131927
0.657108 0.807733 0.133983
0.683539 0.809789 0.136039
0.709190 0.810953 0.137943
0.733940 0.811181 0.139682
0.758572 0.811400 0.141412
0.783085 0.811610 0.143132
0.807479 0.811810 0.144844
0.831755 0.812002 0.146546
0.855913 0.812184 0.148239
0.879952 0.812356 0.149923
