assets/luts/latte.cube
TITLE "latte"
LUT_3D_SIZE 5
0.086230 0.066230 0.026230
0.288705 0.073705 0.033705
0.491180 0.081180 0.041180
0.693655 0.088655 0.048655
0.896130 0.096130 0.056130
0.100905 0.275905 0.040905
0.303380 0.283380 0.048380
0.505855 0.290855 0.055855
0.716620 0.306620 0.071620
0.928065 0.323065 0.088065
0.115580 0.485580 0.055580
0.326015 0.501015 0.071015
0.537460 0.517460 0.087460
0.748905 0.533905 0.103905
0.960350 0.550350 0.120350
0.146855 0.711855 0.086855
0.358300 0.728300 0.103300
0.569745 0.744745 0.119745
0.781190 0.761190 0.136190
0.975799 0.764446 0.150046
0.179140 0.939140 0.119140
0.390585 0.955585 0.135585
0.592216 0.956185 0.149552
0.785621 0.954629 0.162706
0.971439 0.952482 0.175271
0.089080 0.069080 0.224080
0.291555 0.076555 0.231555
0.494030 0.084030 0.239030
0.696505 0.091505 0.246505
0.902050 0.102050 0.257050
0.103755 0.278755 0.238755
0.306230 0.286230 0.246230
0.511445 0.296445 0.256445
0.722890 0.312890 0.272890
0.934335 0.329335 0.289335
0.120840 0.490840 0.255840
0.332285 0.507285 0.272285
0.543730 0.523730 0.288730
0.755175 0.540175 0.305175
0.966620 0.556620 0.321620
0.153125 0.718125 0.288125
0.364570 0.734570 0.304570
0.576015 0.751015 0.321015
0.782845 0.762962 0.335482
0.975130 0.765247 0.345482
0.185410 0.945410 0.320410
0.394791 0.956853 0.335103
0.594223 0.955661 0.345124
0.786069 0.953880 0.354556
0.970328 0.951509 0.363397
0.091930 0.071930 0.421930
0.294405 0.079405 0.429405
0.496880 0.086880 0.436880
0.699355 0.094355 0.444355
0.908320 0.108320 0.458320
0.106605 0.281605 0.436605
0.309080 0.289080 0.444080
0.517715 0.302715 0.457715
0.729160 0.319160 0.474160
0.940605 0.335605 0.490605
0.127110 0.497110 0.457110
0.338555 0.513555 0.473555
0.550000 0.530000 0.490000
0.761445 0.546445 0.506445
0.972890 0.562890 0.522890
0.159395 0.724395 0.489395
0.370840 0.740840 0.505840
0.582285 0.757285 0.522285
0.783649 0.763903 0.531888
0.974376 0.765963 0.538164
0.191680 0.951680 0.521680
0.398271 0.956468 0.531646
0.596145 0.955052 0.537944
0.786432 0.953046 0.543652
0.969132 0.950449 0.548769
0.094780 0.074780 0.619780
0.297255 0.082255 0.627255
0.499730 0.089730 0.634730
0.703145 0.098145 0.643145
0.914590 0.114590 0.659590
0.109455 0.284455 0.634455
0.312540 0.292540 0.642540
0.523985 0.308985 0.658985
0.735430 0.325430 0.675430
0.946875 0.341875 0.691875
0.133380 0.503380 0.658380
0.344825 0.519825 0.674825
0.556270 0.536270 0.691270
0.767715 0.552715 0.707715
0.976946 0.567873 0.722523
0.165665 0.730665 0.690665
0.377110 0.747110 0.707110
0.587613 0.762333 0.722397
0.784367 0.764758 0.725540
0.973535 0.766594 0.728093
0.197764 0.957049 0.722270
0.401665 0.955998 0.725435
0.597980 0.954356 0.728009
0.786708 0.952125 0.729994
0.967850 0.949304 0.731389
0.097630 0.077630 0.817630
0.300105 0.085105 0.825105
0.502580 0.092580 0.832580
0.709415 0.104415 0.844415
0.920860 0.120860 0.860860
0.112305 0.287305 0.832305
0.318810 0.298810 0.843810
0.530255 0.315255 0.860255
0.741700 0.331700 0.876700
0.953145 0.348145 0.893145
0.139650 0.509650 0.859650
0.351095 0.526095 0.876095
0.562540 0.542540 0.892540
0.773985 0.558985 0.908985
0.976462 0.570193 0.917008
0.171935 0.736935 0.891935
0.383380 0.753380 0.908380
0.589804 0.763327 0.917019
0.785000 0.765528 0.916439
0.972609 0.767138 0.915268
0.202631 0.956718 0.917029
0.404974 0.955442 0.916470
0.599730 0.953575 0.915322
0.786899 0.951119 0.913583
0.966482 0.948073 0.911255
