assets/luts/latte.cube
TITLE "latte"
LUT_3D_SIZE 9
0.086230 0.066230 0.026230
0.187467 0.069967 0.029967
0.288705 0.073705 0.033705
0.389942 0.077442 0.037442
0.491180 0.081180 0.041180
0.592417 0.084917 0.044917
0.693655 0.088655 0.048655
0.794892 0.092392 0.052392
0.896130 0.096130 0.056130
0.093567 0.171067 0.033567
0.194805 0.174805 0.037305
0.296042 0.178542 0.041042
0.397280 0.182280 0.044780
0.498517 0.186017 0.048517
0.599755 0.189755 0.052255
0.700992 0.193492 0.055992
0.806200 0.201200 0.063700
0.911923 0.209422 0.071923
0.100905 0.275905 0.040905
0.202142 0.279642 0.044642
0.303380 0.283380 0.048380
0.404617 0.287117 0.052117
0.505855 0.290855 0.055855
0.610898 0.298397 0.063397
0.716620 0.306620 0.071620
0.822342 0.314843 0.079842
0.928065 0.323065 0.088065
0.108242 0.380742 0.048242
0.209480 0.384480 0.051980
0.310717 0.388217 0.055717
0.415595 0.395595 0.063095
0.521317 0.403817 0.071317
0.627040 0.412040 0.079540
0.732762 0.420263 0.087762
0.838485 0.428485 0.095985
0.944208 0.436708 0.104207
0.115580 0.485580 0.055580
0.220293 0.492793 0.062792
0.326015 0.501015 0.071015
0.431737 0.509238 0.079237
0.537460 0.517460 0.087460
0.643182 0.525683 0.095683
0.748905 0.533905 0.103905
0.854628 0.542127 0.112127
0.960350 0.550350 0.120350
0.130712 0.598213 0.070712
0.236435 0.606435 0.078935
0.342158 0.614658 0.087157
0.447880 0.622880 0.095380
0.553602 0.631103 0.103602
0.659325 0.639325 0.111825
0.765047 0.647548 0.120047
0.870770 0.655770 0.128270
0.976492 0.663992 0.136493
0.146855 0.711855 0.086855
0.252577 0.720078 0.095077
0.358300 0.728300 0.103300
0.464023 0.736522 0.111522
0.569745 0.744745 0.119745
0.675467 0.752968 0.127967
0.781190 0.761190 0.136190
0.879825 0.763264 0.143259
0.975799 0.764446 0.150046
0.162997 0.825497 0.102997
0.268720 0.833720 0.111220
0.374443 0.841943 0.119442
0.480165 0.850165 0.127665
0.585888 0.858388 0.135887
0.686312 0.859971 0.143006
0.784072 0.860283 0.149799
0.879936 0.860448 0.156445
0.973903 0.860465 0.162943
0.179140 0.939140 0.119140
0.284863 0.947363 0.127362
0.390585 0.955585 0.135585
0.492669 0.956742 0.142753
0.592216 0.956185 0.149552
0.689867 0.955481 0.156203
0.785621 0.954629 0.162706
0.879478 0.953629 0.169062
0.971439 0.952482 0.175271
0.087655 0.067655 0.125155
0.188892 0.071392 0.128892
0.290130 0.075130 0.132630
0.391367 0.078867 0.136367
0.492605 0.082605 0.140105
0.593842 0.086342 0.143842
0.695080 0.090080 0.147580
0.796317 0.093817 0.151317
0.898915 0.098915 0.156415
0.094992 0.172492 0.132492
0.196230 0.176230 0.136230
0.297467 0.179967 0.139967
0.398705 0.183705 0.143705
0.499942 0.187442 0.147442
0.601180 0.191180 0.151180
0.703613 0.196113 0.156112
0.809335 0.204335 0.164335
0.915058 0.212557 0.172557
0.102330 0.277330 0.139830
0.203567 0.281067 0.143567
0.304805 0.284805 0.147305
0.406042 0.288542 0.151042
0.508310 0.293310 0.155810
0.614032 0.301532 0.164032
0.719755 0.309755 0.172255
0.825478 0.317978 0.180477
0.931200 0.326200 0.188700
0.109667 0.382167 0.147167
0.210905 0.385905 0.150905
0.313007 0.390508 0.155508
0.418730 0.398730 0.163730
0.524452 0.406952 0.171952
0.630175 0.415175 0.180175
0.735898 0.423397 0.188397
0.841620 0.431620 0.196620
0.947342 0.439843 0.204842
0.117705 0.487705 0.155205
0.223428 0.495928 0.163427
0.329150 0.504150 0.171650
0.434872 0.512373 0.179872
0.540595 0.520595 0.188095
0.646318 0.528817 0.196317
0.752040 0.537040 0.204540
0.857762 0.545262 0.212762
0.963485 0.553485 0.220985
0.133847 0.601348 0.171347
0.239570 0.609570 0.179570
0.345293 0.617792 0.187792
0.451015 0.626015 0.196015
0.556737 0.634238 0.204237
0.662460 0.642460 0.212460
0.768182 0.650683 0.220682
0.873905 0.658905 0.228905
0.976913 0.665279 0.236470
0.149990 0.714990 0.187490
0.255712 0.723213 0.195712
0.361435 0.731435 0.203935
0.467158 0.739658 0.212157
0.572880 0.747880 0.220380
0.678602 0.756103 0.228602
0.782411 0.762459 0.236247
0.879891 0.763732 0.242251
0.975475 0.764857 0.248108
0.166132 0.828633 0.203632
0.271855 0.836855 0.211855
0.377578 0.845078 0.220077
0.483300 0.853300 0.228300
0.587779 0.859704 0.236023
0.687047 0.860108 0.242033
0.784417 0.860364 0.247895
0.879892 0.860472 0.253610
0.973469 0.860433 0.259177
0.182275 0.942275 0.219775
0.287998 0.950497 0.227997
0.393019 0.957013 0.235799
0.494073 0.956547 0.241815
0.593231 0.955934 0.247682
0.690492 0.955173 0.253402
0.785856 0.954265 0.258975
0.879323 0.953210 0.264400
0.970894 0.952006 0.269678
0.089080 0.069080 0.224080
0.190317 0.072817 0.227817
0.291555 0.076555 0.231555
0.392792 0.080292 0.235292
0.494030 0.084030 0.239030
0.595267 0.087767 0.242767
0.696505 0.091505 0.246505
0.797742 0.095242 0.250242
0.902050 0.102050 0.257050
0.096417 0.173917 0.231417
0.197655 0.177655 0.235155
0.298892 0.181392 0.238892
0.400130 0.185130 0.242630
0.501367 0.188867 0.246367
0.602605 0.192605 0.250105
0.706748 0.199248 0.256748
0.812470 0.207470 0.264970
0.918192 0.215693 0.273193
0.103755 0.278755 0.238755
0.204992 0.282492 0.242492
0.306230 0.286230 0.246230
0.407467 0.289967 0.249967
0.511445 0.296445 0.256445
0.617168 0.304668 0.264667
0.722890 0.312890 0.272890
0.828613 0.321113 0.281112
0.934335 0.329335 0.289335
0.111092 0.383592 0.246092
0.212330 0.387330 0.249830
0.316142 0.393643 0.256142
0.421865 0.401865 0.264365
0.527587 0.410088 0.272587
0.633310 0.418310 0.280810
0.739032 0.426533 0.289033
0.844755 0.434755 0.297255
0.950478 0.442978 0.305477
0.120840 0.490840 0.255840
0.226562 0.499063 0.264062
0.332285 0.507285 0.272285
0.438007 0.515508 0.280508
0.543730 0.523730 0.288730
0.649452 0.531953 0.296952
0.755175 0.540175 0.305175
0.860898 0.548397 0.313397
0.966620 0.556620 0.321620
0.136982 0.604483 0.271983
0.242705 0.612705 0.280205
0.348428 0.620928 0.288427
0.454150 0.629150 0.296650
0.559872 0.637373 0.304872
0.665595 0.645595 0.313095
0.771317 0.653818 0.321318
0.877040 0.662040 0.329540
0.976678 0.666113 0.335671
0.153125 0.718125 0.288125
0.258847 0.726348 0.296347
0.364570 0.734570 0.304570
0.470293 0.742792 0.312793
0.576015 0.751015 0.321015
0.681737 0.759238 0.329237
0.782845 0.762962 0.335482
0.879936 0.764179 0.340556
0.975130 0.765247 0.345482
0.169267 0.831767 0.304268
0.274990 0.839990 0.312490
0.380713 0.848213 0.320712
0.486435 0.856435 0.328935
0.588882 0.859875 0.335293
0.687760 0.860223 0.340372
0.784741 0.860422 0.345303
0.879826 0.860475 0.350087
0.973014 0.860379 0.354724
0.185410 0.945410 0.320410
0.291133 0.953633 0.328632
0.394791 0.956853 0.335103
0.495456 0.956331 0.340187
0.594223 0.955661 0.345124
0.691095 0.954844 0.349914
0.786069 0.953880 0.354556
0.879147 0.952768 0.359050
0.970328 0.951509 0.363397
0.090505 0.070505 0.323005
0.191742 0.074242 0.326742
0.292980 0.077980 0.330480
0.394217 0.081717 0.334217
0.495455 0.085455 0.337955
0.596692 0.089192 0.341692
0.697930 0.092930 0.345430
0.799462 0.096962 0.349463
0.905185 0.105185 0.357685
0.097842 0.175342 0.330342
0.199080 0.179080 0.334080
0.300317 0.182817 0.337817
0.401555 0.186555 0.341555
0.502792 0.190292 0.345292
0.604160 0.194160 0.349160
0.709883 0.202383 0.357383
0.815605 0.210605 0.365605
0.921328 0.218828 0.373827
0.105180 0.280180 0.337680
0.206417 0.283917 0.341417
0.307655 0.287655 0.345155
0.408892 0.291392 0.348892
0.514580 0.299580 0.357080
0.620302 0.307803 0.365302
0.726025 0.316025 0.373525
0.831748 0.324248 0.381748
0.937470 0.332470 0.389970
0.112517 0.385017 0.345017
0.213755 0.388755 0.348755
0.319277 0.396778 0.356777
0.425000 0.405000 0.365000
0.530722 0.413223 0.373223
0.636445 0.421445 0.381445
0.742168 0.429668 0.389668
0.847890 0.437890 0.397890
0.953612 0.446113 0.406112
0.123975 0.493975 0.356475
0.229697 0.502197 0.364698
0.335420 0.510420 0.372920
0.441142 0.518643 0.381143
0.546865 0.526865 0.389365
0.652588 0.535088 0.397587
0.758310 0.543310 0.405810
0.864032 0.551532 0.414033
0.969755 0.559755 0.422255
0.140117 0.607618 0.372618
0.245840 0.615840 0.380840
0.351562 0.624062 0.389062
0.457285 0.632285 0.397285
0.563007 0.640508 0.405508
0.668730 0.648730 0.413730
0.774452 0.656953 0.421952
0.879611 0.664749 0.429899
0.976422 0.666926 0.434184
0.156260 0.721260 0.388760
0.261982 0.729483 0.396983
0.367705 0.737705 0.405205
0.473428 0.745927 0.413427
0.579150 0.754150 0.421650
0.684660 0.762136 0.429739
0.783258 0.763443 0.434029
0.879959 0.764603 0.438172
0.974764 0.765616 0.442167
0.172402 0.834902 0.404902
0.278125 0.843125 0.413125
0.383848 0.851348 0.421347
0.489570 0.859570 0.429570
0.589964 0.860025 0.433874
0.688452 0.860316 0.438022
0.785044 0.860460 0.442023
0.879738 0.860456 0.445876
0.972537 0.860304 0.449581
0.188545 0.948545 0.421045
0.294268 0.956767 0.429268
0.396542 0.956671 0.433718
0.496817 0.956093 0.437872
0.595195 0.955367 0.441878
0.691676 0.954494 0.445737
0.786261 0.953474 0.449448
0.878949 0.952305 0.453011
0.969741 0.950990 0.456427
0.091930 0.071930 0.421930
0.193167 0.075667 0.425667
0.294405 0.079405 0.429405
0.395642 0.083142 0.433142
0.496880 0.086880 0.436880
0.598117 0.090617 0.440617
0.699355 0.094355 0.444355
0.802598 0.100097 0.450098
0.908320 0.108320 0.458320
0.099267 0.176767 0.429267
0.200505 0.180505 0.433005
0.301742 0.184242 0.436742
0.402980 0.187980 0.440480
0.504217 0.191717 0.444217
0.607295 0.197295 0.449795
0.713018 0.205518 0.458017
0.818740 0.213740 0.466240
0.924462 0.221962 0.474463
0.106605 0.281605 0.436605
0.207842 0.285342 0.440342
0.309080 0.289080 0.444080
0.411992 0.294493 0.449492
0.517715 0.302715 0.457715
0.623438 0.310937 0.465938
0.729160 0.319160 0.474160
0.834882 0.327383 0.482383
0.940605 0.335605 0.490605
0.113942 0.386442 0.443942
0.216690 0.391690 0.449190
0.322412 0.399913 0.457412
0.428135 0.408135 0.465635
0.533857 0.416358 0.473858
0.639580 0.424580 0.482080
0.745303 0.432803 0.490302
0.851025 0.441025 0.498525
0.956748 0.449248 0.506748
0.127110 0.497110 0.457110
0.232832 0.505332 0.465333
0.338555 0.513555 0.473555
0.444277 0.521778 0.481777
0.550000 0.530000 0.490000
0.655723 0.538223 0.498223
0.761445 0.546445 0.506445
0.867168 0.554668 0.514668
0.972890 0.562890 0.522890
0.143252 0.610753 0.473252
0.248975 0.618975 0.481475
0.354697 0.627198 0.489698
0.460420 0.635420 0.497920
0.566142 0.643643 0.506142
0.671865 0.651865 0.514365
0.777588 0.660088 0.522587
0.879723 0.665596 0.528654
0.976145 0.667717 0.532008
0.159395 0.724395 0.489395
0.265118 0.732618 0.497618
0.370840 0.740840 0.505840
0.476562 0.749063 0.514062
0.582285 0.757285 0.522285
0.685441 0.762652 0.528528
0.783649 0.763903 0.531888
0.879961 0.765007 0.535100
0.974376 0.765963 0.538164
0.175537 0.838037 0.505537
0.281260 0.846260 0.513760
0.386983 0.854483 0.521983
0.491029 0.859771 0.528402
0.591024 0.860153 0.531767
0.689123 0.860388 0.534984
0.785325 0.860476 0.538054
0.879630 0.860415 0.540976
0.972038 0.860208 0.543751
0.191680 0.951680 0.521680
0.296489 0.956955 0.528275
0.398271 0.956468 0.531646
0.498156 0.955834 0.534868
0.596145 0.955052 0.537944
0.692237 0.954122 0.540871
0.786432 0.953046 0.543652
0.878730 0.951821 0.546284
0.969132 0.950449 0.548769
0.093355 0.073355 0.520855
0.194592 0.077092 0.524592
0.295830 0.080830 0.528330
0.397067 0.084567 0.532067
0.498305 0.088305 0.535805
0.599542 0.092042 0.539542
0.700780 0.095780 0.543280
0.805733 0.103232 0.550733
0.911455 0.111455 0.558955
0.100692 0.178192 0.528192
0.201930 0.181930 0.531930
0.303167 0.185667 0.535667
0.404405 0.189405 0.539405
0.505642 0.193142 0.543142
0.610430 0.200430 0.550430
0.716153 0.208653 0.558652
0.821875 0.216875 0.566875
0.927598 0.225098 0.575098
0.108030 0.283030 0.535530
0.209267 0.286767 0.539267
0.310505 0.290505 0.543005
0.415127 0.297628 0.550127
0.520850 0.305850 0.558350
0.626573 0.314073 0.566573
0.732295 0.322295 0.574795
0.838018 0.330518 0.583017
0.943740 0.338740 0.591240
0.115367 0.387867 0.542867
0.219825 0.394825 0.549825
0.325547 0.403048 0.558048
0.431270 0.411270 0.566270
0.536992 0.419493 0.574492
0.642715 0.427715 0.582715
0.748438 0.435938 0.590938
0.854160 0.444160 0.599160
0.959882 0.452383 0.607382
0.130245 0.500245 0.557745
0.235967 0.508467 0.565967
0.341690 0.516690 0.574190
0.447412 0.524913 0.582412
0.553135 0.533135 0.590635
0.658858 0.541358 0.598858
0.764580 0.549580 0.607080
0.870303 0.557802 0.615302
0.976025 0.566025 0.623525
0.146387 0.613888 0.573887
0.252110 0.622110 0.582110
0.357832 0.630332 0.590332
0.463555 0.638555 0.598555
0.569277 0.646778 0.606777
0.675000 0.655000 0.615000
0.780722 0.663223 0.623223
0.879814 0.666422 0.626721
0.975846 0.668486 0.629144
0.162530 0.727530 0.590030
0.268253 0.735753 0.598252
0.373975 0.743975 0.606475
0.479697 0.752198 0.614698
0.585420 0.760420 0.622920
0.686200 0.763146 0.626629
0.784019 0.764341 0.629058
0.879941 0.765389 0.631339
0.973966 0.766289 0.633473
0.178672 0.841173 0.606173
0.284395 0.849395 0.614395
0.390118 0.857618 0.622618
0.492458 0.859934 0.626537
0.592063 0.860260 0.628971
0.689772 0.860439 0.631258
0.785584 0.860470 0.633397
0.879499 0.860354 0.635388
0.971518 0.860090 0.637232
0.194815 0.954815 0.622315
0.298587 0.956787 0.626445
0.399979 0.956244 0.628884
0.499474 0.955553 0.631176
0.597073 0.954715 0.633321
0.692775 0.953729 0.635318
0.786581 0.952596 0.637167
0.878490 0.951316 0.638869
0.968502 0.949887 0.640423
0.094780 0.074780 0.619780
0.196017 0.078517 0.623517
0.297255 0.082255 0.627255
0.398492 0.085992 0.630992
0.499730 0.089730 0.634730
0.600967 0.093467 0.638467
0.703145 0.098145 0.643145
0.808868 0.106367 0.651367
0.914590 0.114590 0.659590
0.102117 0.179617 0.627117
0.203355 0.183355 0.630855
0.304592 0.187092 0.634592
0.405830 0.190830 0.638330
0.507843 0.195342 0.642842
0.613565 0.203565 0.651065
0.719288 0.211788 0.659288
0.825010 0.220010 0.667510
0.930733 0.228232 0.675733
0.109455 0.284455 0.634455
0.210692 0.288192 0.638192
0.312540 0.292540 0.642540
0.418262 0.300763 0.650763
0.523985 0.308985 0.658985
0.629708 0.317207 0.667207
0.735430 0.325430 0.675430
0.841153 0.333653 0.683652
0.946875 0.341875 0.691875
0.117237 0.389738 0.642238
0.222960 0.397960 0.650460
0.328682 0.406183 0.658683
0.434405 0.414405 0.666905
0.540127 0.422628 0.675127
0.645850 0.430850 0.683350
0.751573 0.439073 0.691573
0.857295 0.447295 0.699795
0.963018 0.455518 0.708017
0.133380 0.503380 0.658380
0.239102 0.511602 0.666602
0.344825 0.519825 0.674825
0.450547 0.528048 0.683048
0.556270 0.536270 0.691270
0.661993 0.544493 0.699492
0.767715 0.552715 0.707715
0.873438 0.560937 0.715938
0.976946 0.567873 0.722523
0.149522 0.617023 0.674523
0.255245 0.625245 0.682745
0.360967 0.633468 0.690967
0.466690 0.641690 0.699190
0.572412 0.649913 0.707412
0.678135 0.658135 0.715635
0.782344 0.665071 0.722460
0.879883 0.667227 0.724100
0.975525 0.669235 0.725592
0.165665 0.730665 0.690665
0.271388 0.738888 0.698887
0.377110 0.747110 0.707110
0.482832 0.755332 0.715332
0.587613 0.762333 0.722397
0.686938 0.763619 0.724042
0.784367 0.764758 0.725540
0.879900 0.765750 0.726890
0.973535 0.766594 0.728093
0.181807 0.844307 0.706808
0.287530 0.852530 0.715030
0.392753 0.859659 0.722333
0.493865 0.860076 0.723984
0.593081 0.860346 0.725487
0.690400 0.860468 0.726843
0.785822 0.860443 0.728051
0.879348 0.860270 0.729112
0.970977 0.859950 0.730025
0.197764 0.957049 0.722270
0.300663 0.956597 0.723926
0.401665 0.955998 0.725435
0.500771 0.955251 0.726796
0.597980 0.954356 0.728009
0.693293 0.953315 0.729075
0.786708 0.952125 0.729994
0.878228 0.950788 0.730765
0.967850 0.949304 0.731389
0.096205 0.076205 0.718705
0.197442 0.079942 0.722442
0.298680 0.083680 0.726180
0.399917 0.087417 0.729917
0.501155 0.091155 0.733655
0.602392 0.094892 0.737392
0.706280 0.101280 0.743780
0.812003 0.109502 0.752003
0.917725 0.117725 0.760225
0.103542 0.181042 0.726042
0.204780 0.184780 0.729780
0.306017 0.188517 0.733517
0.407255 0.192255 0.737255
0.510978 0.198477 0.743478
0.616700 0.206700 0.751700
0.722423 0.214923 0.759923
0.828145 0.223145 0.768145
0.933868 0.231367 0.776367
0.110880 0.285880 0.733380
0.212117 0.289617 0.737117
0.315675 0.295675 0.743175
0.421397 0.303898 0.751397
0.527120 0.312120 0.759620
0.632842 0.320342 0.767842
0.738565 0.328565 0.776065
0.844288 0.336788 0.784288
0.950010 0.345010 0.792510
0.120372 0.392873 0.742873
0.226095 0.401095 0.751095
0.331817 0.409318 0.759317
0.437540 0.417540 0.767540
0.543262 0.425763 0.775763
0.648985 0.433985 0.783985
0.754708 0.442207 0.792207
0.860430 0.450430 0.800430
0.966152 0.458653 0.808652
0.136515 0.506515 0.759015
0.242237 0.514737 0.767238
0.347960 0.522960 0.775460
0.453682 0.531183 0.783683
0.559405 0.539405 0.791905
0.665128 0.547628 0.800127
0.770850 0.555850 0.808350
0.876573 0.564072 0.816573
0.976715 0.569044 0.820110
0.152657 0.620158 0.775157
0.258380 0.628380 0.783380
0.364102 0.636602 0.791602
0.469825 0.644825 0.799825
0.575547 0.653048 0.808048
0.681270 0.661270 0.816270
0.782781 0.665910 0.820081
0.879931 0.668010 0.820790
0.975183 0.669961 0.821351
0.168800 0.733800 0.791300
0.274523 0.742023 0.799523
0.380245 0.750245 0.807745
0.485967 0.758468 0.815967
0.588719 0.762841 0.820052
0.687655 0.764071 0.820766
0.784694 0.765154 0.821333
0.879837 0.766089 0.821753
0.973083 0.766877 0.822025
0.184942 0.847443 0.807443
0.290665 0.855665 0.815665
0.394528 0.859835 0.820023
0.495251 0.860196 0.820743
0.594077 0.860410 0.821315
0.691006 0.860476 0.821740
0.786039 0.860395 0.822017
0.879175 0.860166 0.822147
0.970414 0.859789 0.822130
0.200208 0.956894 0.819994
0.302718 0.956386 0.820719
0.403330 0.955730 0.821297
0.502046 0.954927 0.821727
0.598866 0.953977 0.822010
0.693789 0.952879 0.822145
0.786815 0.951633 0.822133
0.877944 0.950240 0.821973
0.967177 0.948699 0.821666
0.097630 0.077630 0.817630
0.198867 0.081367 0.821367
0.300105 0.085105 0.825105
0.401342 0.088842 0.828842
0.502580 0.092580 0.832580
0.603817 0.096317 0.836317
0.709415 0.104415 0.844415
0.815138 0.112637 0.852637
0.920860 0.120860 0.860860
0.104967 0.182467 0.824967
0.206205 0.186205 0.828705
0.307442 0.189942 0.832442
0.408680 0.193680 0.836180
0.514113 0.201612 0.844113
0.619835 0.209835 0.852335
0.725558 0.218058 0.860558
0.831280 0.226280 0.868780
0.937003 0.234502 0.877003
0.112305 0.287305 0.832305
0.213542 0.291042 0.836042
0.318810 0.298810 0.843810
0.424532 0.307033 0.852032
0.530255 0.315255 0.860255
0.635978 0.323477 0.868478
0.741700 0.331700 0.876700
0.847423 0.339923 0.884923
0.953145 0.348145 0.893145
0.123507 0.396008 0.843507
0.229230 0.404230 0.851730
0.334952 0.412452 0.859953
0.440675 0.420675 0.868175
0.546397 0.428898 0.876397
0.652120 0.437120 0.884620
0.757842 0.445342 0.892842
0.863565 0.453565 0.901065
0.969288 0.461788 0.909288
0.139650 0.509650 0.859650
0.245372 0.517872 0.867873
0.351095 0.526095 0.876095
0.456817 0.534318 0.884317
0.562540 0.542540 0.892540
0.668263 0.550763 0.900763
0.773985 0.558985 0.908985
0.879592 0.567133 0.917088
0.976462 0.570193 0.917008
0.155792 0.623293 0.875792
0.261515 0.631515 0.884015
0.367237 0.639738 0.892238
0.472960 0.647960 0.900460
0.578682 0.656183 0.908683
0.684405 0.664405 0.916905
0.783197 0.666728 0.917013
0.879957 0.668771 0.916792
0.974820 0.670667 0.916422
0.171935 0.736935 0.891935
0.277658 0.745158 0.900157
0.383380 0.753380 0.908380
0.489102 0.761602 0.916602
0.589804 0.763327 0.917019
0.688350 0.764501 0.916802
0.785000 0.765528 0.916439
0.879753 0.766407 0.915927
0.972609 0.767138 0.915268
0.188077 0.850577 0.908077
0.293800 0.858800 0.916300
0.396282 0.859990 0.917024
0.496615 0.860295 0.916813
0.595051 0.860452 0.916455
0.691591 0.860462 0.915949
0.786234 0.860325 0.915295
0.878980 0.860039 0.914494
0.969830 0.859607 0.913546
0.202631 0.956718 0.917029
0.304751 0.956153 0.916823
0.404974 0.955442 0.916470
0.503300 0.954582 0.915970
0.599730 0.953575 0.915322
0.694263 0.952421 0.914526
0.786899 0.951119 0.913583
0.877639 0.949670 0.912493
0.966482 0.948073 0.911255
