assets/luts/lavender.cube
# MoodFilm Filter — lavender
TITLE "lavender"
LUT_3D_SIZE 17
0.120810 0.116520 0.184135
0.162360 0.118731 0.185677
0.203814 0.120933 0.187036
0.245269 0.123135 0.188394
0.286723 0.125337 0.189753
0.328177 0.127539 0.191112
0.369631 0.129741 0.192470
0.411085 0.131943 0.193829
0.452539 0.134145 0.195187
0.493994 0.136347 0.196546
0.535448 0.138549 0.197905
0.576902 0.140752 0.199263
0.618356 0.142954 0.200622
0.659810 0.145156 0.201981
0.701264 0.147358 0.203339
0.742719 0.149560 0.204698
0.784173 0.151762 0.206057
0.120810 0.116520 0.184135
0.162360 0.118731 0.185677
0.203814 0.120933 0.187036
0.245269 0.123135 0.188394
0.286723 0.125337 0.189753
0.328177 0.127539 0.191112
0.369631 0.129741 0.192470
0.411085 0.131943 0.193829
0.452539 0.134145 0.195187
0.493994 0.136347 0.196546
0.535448 0.138549 0.197905
0.576902 0.140752 0.199263
0.618356 0.142954 0.200622
0.659810 0.145156 0.201981
0.701264 0.147358 0.203339
0.742719 0.149560 0.204698
0.784173 0.151762 0.206057
0.126751 0.163225 0.188669
0.168302 0.165436 0.190211
0.209756 0.167638 0.191570
0.251210 0.169840 0.192928
0.292664 0.172042 0.194287
0.334118 0.174244 0.195646
0.375572 0.176446 0.197004
0.417027 0.178648 0.198363
0.458481 0.180850 0.199721
0.499935 0.183053 0.201080
0.541389 0.185255 0.202439
0.582843 0.187457 0.203797
0.624297 0.189659 0.205156
0.665752 0.191861 0.206515
0.707206 0.194063 0.207873
0.748660 0.196265 0.209232
0.790114 0.198467 0.210591
0.132741 0.210307 0.193239
0.174291 0.212518 0.194782
0.215745 0.214720 0.196140
0.257199 0.216922 0.197499
0.298653 0.219124 0.198857
0.340108 0.221326 0.200216
0.381562 0.223528 0.201575
0.423016 0.225730 0.202933
0.464470 0.227932 0.204292
0.505924 0.230134 0.205651
0.547378 0.232336 0.207009
0.588833 0.234539 0.208368
0.630287 0.236741 0.209726
0.671741 0.238943 0.211085
0.713195 0.241145 0.212444
0.754649 0.243347 0.213802
0.796103 0.245549 0.215161
0.138730 0.257389 0.197810
0.180280 0.259599 0.199352
0.221734 0.261801 0.200711
0.263189 0.264004 0.202069
0.304643 0.266206 0.203428
0.346097 0.268408 0.204787
0.387551 0.270610 0.206145
0.429005 0.272812 0.207504
0.470459 0.275014 0.208862
0.511914 0.277216 0.210221
0.553368 0.279418 0.211580
0.594822 0.281620 0.212938
0.636276 0.283822 0.214297
0.677730 0.286025 0.215656
0.719184 0.288227 0.217014
0.760639 0.290429 0.218373
0.802093 0.292631 0.219732
0.146171 0.304548 0.202458
0.186269 0.306681 0.203923
0.227724 0.308883 0.205281
0.269178 0.311085 0.206640
0.310632 0.313287 0.207998
0.352086 0.315490 0.209357
0.393540 0.317692 0.210716
0.434994 0.319894 0.212074
0.476449 0.322096 0.213433
0.517903 0.324298 0.214792
0.559357 0.326500 0.216150
0.600811 0.328702 0.217509
0.642265 0.330904 0.218868
0.683719 0.333106 0.220226
0.725174 0.335308 0.221585
0.766628 0.337511 0.222943
0.808082 0.339713 0.224302
0.153659 0.351710 0.207109
0.192259 0.353763 0.208493
0.233713 0.355965 0.209852
0.275167 0.358167 0.211210
0.316621 0.360369 0.212569
0.358075 0.362571 0.213928
0.399530 0.364773 0.215286
0.440984 0.366976 0.216645
0.482438 0.369178 0.218004
0.523892 0.371380 0.219362
0.565346 0.373582 0.220721
0.606800 0.375784 0.222079
0.648255 0.377986 0.223438
0.689709 0.380188 0.224797
0.731554 0.382424 0.226903
0.773469 0.384666 0.229145
0.815385 0.386908 0.231387
0.161147 0.398872 0.211759
0.198248 0.400845 0.213064
0.239702 0.403047 0.214422
0.281156 0.405249 0.215781
0.322610 0.407451 0.217140
0.364065 0.409653 0.218498
0.405519 0.411855 0.219857
0.446973 0.414057 0.221215
0.488427 0.416259 0.222574
0.529881 0.418462 0.223933
0.571432 0.420672 0.225477
0.613348 0.422914 0.227719
0.655264 0.425156 0.229961
0.697180 0.427398 0.232203
0.739096 0.429641 0.234445
0.781012 0.431883 0.236688
0.822928 0.434125 0.238930
0.168635 0.446034 0.216410
0.204237 0.447927 0.217634
0.245691 0.450129 0.218993
0.287146 0.452331 0.220351
0.328600 0.454533 0.221710
0.370054 0.456735 0.223069
0.411508 0.458937 0.224427
0.453227 0.461162 0.226293
0.495143 0.463404 0.228535
0.537059 0.465646 0.230777
0.578975 0.467888 0.233020
0.620891 0.470131 0.235262
0.662807 0.472373 0.237504
0.704723 0.474615 0.239746
0.746639 0.476857 0.241988
0.788555 0.479099 0.244230
0.830471 0.481341 0.246472
0.176123 0.493196 0.221061
0.210227 0.495008 0.222205
0.251681 0.497210 0.223563
0.293135 0.499413 0.224922
0.335022 0.501652 0.227109
0.376938 0.503894 0.229352
0.418854 0.506136 0.231594
0.460770 0.508379 0.233836
0.502686 0.510621 0.236078
0.544602 0.512863 0.238320
0.586518 0.515105 0.240562
0.628434 0.517347 0.242804
0.670350 0.519589 0.245046
0.712266 0.521831 0.247289
0.754181 0.524073 0.249531
0.796097 0.526316 0.251773
0.838013 0.528558 0.254015
0.183620 0.540367 0.226150
0.216817 0.542142 0.227926
0.258733 0.544384 0.230168
0.300649 0.546627 0.232410
0.342565 0.548869 0.234652
0.384481 0.551111 0.236894
0.426397 0.553353 0.239136
0.468313 0.555595 0.241379
0.510229 0.557837 0.243621
0.552144 0.560079 0.245863
0.594060 0.562321 0.248105
0.635976 0.564563 0.250347
0.677892 0.566806 0.252589
0.719808 0.569048 0.254831
0.761724 0.571290 0.257073
0.803699 0.573538 0.259480
0.845850 0.575804 0.262379
0.191162 0.587583 0.233693
0.224360 0.589359 0.235468
0.266276 0.591601 0.237711
0.308192 0.593843 0.239953
0.350108 0.596085 0.242195
0.392023 0.598327 0.244437
0.433939 0.600569 0.246679
0.475855 0.602811 0.248921
0.517771 0.605054 0.251163
0.559687 0.607296 0.253405
0.601603 0.609538 0.255648
0.643519 0.611780 0.257890
0.685579 0.614037 0.260535
0.727730 0.616303 0.263434
0.769881 0.618569 0.266333
0.812032 0.620835 0.269232
0.854183 0.623102 0.272130
0.198705 0.634799 0.241235
0.231902 0.636575 0.243011
0.273818 0.638817 0.245253
0.315734 0.641059 0.247495
0.357650 0.643302 0.249737
0.399566 0.645544 0.251980
0.441482 0.647786 0.254222
0.483398 0.650028 0.256464
0.525314 0.652270 0.258706
0.567460 0.654536 0.261591
0.609611 0.656802 0.264489
0.651761 0.659068 0.267388
0.693912 0.661334 0.270287
0.736063 0.663600 0.273186
0.778214 0.665867 0.276085
0.820365 0.668133 0.278983
0.862516 0.670399 0.281882
0.206248 0.682016 0.248778
0.239445 0.683792 0.250554
0.281361 0.686034 0.252796
0.323277 0.688276 0.255038
0.365193 0.690518 0.257280
0.407189 0.692768 0.259747
0.449340 0.695035 0.262646
0.491491 0.697301 0.265545
0.533642 0.699567 0.268444
0.575793 0.701833 0.271342
0.617943 0.704099 0.274241
0.660094 0.706365 0.277140
0.702245 0.708632 0.280039
0.744396 0.710898 0.282937
0.786547 0.713164 0.285836
0.828698 0.715430 0.288735
0.870849 0.717696 0.291634
0.213790 0.729232 0.256321
0.246988 0.731008 0.258096
0.289070 0.733267 0.260803
0.331220 0.735533 0.263701
0.373371 0.737800 0.266600
0.415522 0.740066 0.269499
0.457673 0.742332 0.272398
0.499824 0.744598 0.275296
0.541975 0.746864 0.278195
0.584126 0.749130 0.281094
0.626276 0.751397 0.283993
0.668427 0.753663 0.286892
0.710578 0.755929 0.289790
0.752729 0.758195 0.292689
0.794880 0.760461 0.295588
0.837031 0.762728 0.298487
0.879181 0.764994 0.301385
0.221361 0.776476 0.265332
0.255252 0.778298 0.267655
0.297403 0.780565 0.270554
0.339553 0.782831 0.273453
0.381704 0.785097 0.276352
0.423855 0.787363 0.279251
0.466006 0.789629 0.282149
0.508157 0.791895 0.285048
0.550308 0.794162 0.287947
0.592458 0.796428 0.290846
0.634609 0.798694 0.293744
0.676760 0.800960 0.296643
0.718911 0.803226 0.299542
0.761062 0.805493 0.302441
0.803213 0.807759 0.305340
0.845364 0.810025 0.308238
0.887514 0.812291 0.311137
0.228944 0.823734 0.275044
0.263585 0.825596 0.277407
0.305736 0.827862 0.280306
0.347886 0.830128 0.283205
0.390037 0.832394 0.286103
0.432188 0.834660 0.289002
0.474339 0.836927 0.291901
0.516490 0.839193 0.294800
0.558641 0.841459 0.297699
0.600791 0.843725 0.300597
0.642942 0.845991 0.303496
0.685093 0.848258 0.306395
0.727244 0.850524 0.309294
0.769395 0.852790 0.312192
0.811546 0.855056 0.315091
0.853697 0.857322 0.317990
0.895847 0.859588 0.320889
0.121415 0.117268 0.224270
0.162965 0.119478 0.225812
0.204419 0.121680 0.227171
0.245873 0.123883 0.228529
0.287327 0.126085 0.229888
0.328782 0.128287 0.231247
0.370236 0.130489 0.232605
0.411690 0.132691 0.233964
0.453144 0.134893 0.235323
0.494598 0.137095 0.236681
0.536052 0.139297 0.238040
0.577507 0.141499 0.239399
0.618961 0.143701 0.240757
0.660415 0.145904 0.242116
0.701869 0.148106 0.243474
0.743323 0.150308 0.244833
0.784777 0.152510 0.246192
0.121415 0.117268 0.224270
0.162965 0.119478 0.225812
0.204419 0.121680 0.227171
0.245873 0.123883 0.228529
0.287327 0.126085 0.229888
0.328782 0.128287 0.231247
0.370236 0.130489 0.232605
0.411690 0.132691 0.233964
0.453144 0.134893 0.235323
0.494598 0.137095 0.236681
0.536052 0.139297 0.238040
0.577507 0.141499 0.239399
0.618961 0.143701 0.240757
0.660415 0.145904 0.242116
0.701869 0.148106 0.243474
0.743323 0.150308 0.244833
0.784777 0.152510 0.246192
0.127356 0.163973 0.228804
0.168906 0.166184 0.230346
0.210360 0.168386 0.231705
0.251815 0.170588 0.233063
0.293269 0.172790 0.234422
0.334723 0.174992 0.235781
0.376177 0.177194 0.237139
0.417631 0.179396 0.238498
0.459085 0.181598 0.239857
0.500540 0.183800 0.241215
0.541994 0.186002 0.242574
0.583448 0.188205 0.243933
0.624902 0.190407 0.245291
0.666356 0.192609 0.246650
0.707810 0.194811 0.248008
0.749265 0.197013 0.249367
0.790719 0.199215 0.250726
0.133345 0.211055 0.233374
0.174896 0.213265 0.234917
0.216350 0.215467 0.236275
0.257804 0.217670 0.237634
0.299258 0.219872 0.238993
0.340712 0.222074 0.240351
0.382166 0.224276 0.241710
0.423621 0.226478 0.243069
0.465075 0.228680 0.244427
0.506529 0.230882 0.245786
0.547983 0.233084 0.247144
0.589437 0.235286 0.248503
0.630891 0.237488 0.249862
0.672346 0.239691 0.251220
0.713800 0.241893 0.252579
0.755254 0.244095 0.253938
0.796708 0.246297 0.255296
0.139438 0.258142 0.237950
0.180885 0.260347 0.239487
0.222339 0.262549 0.240846
0.263793 0.264751 0.242205
0.305247 0.266953 0.243563
0.346701 0.269156 0.244922
0.388156 0.271358 0.246280
0.429610 0.273560 0.247639
0.471064 0.275762 0.248998
0.512518 0.277964 0.250356
0.553972 0.280166 0.251715
0.595426 0.282368 0.253074
0.636881 0.284570 0.254432
0.678335 0.286772 0.255791
0.719789 0.288974 0.257150
0.761243 0.291177 0.258508
0.802697 0.293379 0.259867
0.146926 0.305304 0.242601
0.186874 0.307429 0.244058
0.228328 0.309631 0.245416
0.269782 0.311833 0.246775
0.311237 0.314035 0.248134
0.352691 0.316237 0.249492
0.394145 0.318439 0.250851
0.435599 0.320642 0.252210
0.477053 0.322844 0.253568
0.518507 0.325046 0.254927
0.559962 0.327248 0.256285
0.601416 0.329450 0.257644
0.642870 0.331652 0.259003
0.684324 0.333854 0.260361
0.725778 0.336056 0.261720
0.767232 0.338258 0.263079
0.808687 0.340460 0.264437
0.154415 0.352466 0.247252
0.192863 0.354511 0.248628
0.234317 0.356713 0.249987
0.275772 0.358915 0.251346
0.317226 0.361117 0.252704
0.358680 0.363319 0.254063
0.400134 0.365521 0.255421
0.441588 0.367723 0.256780
0.483043 0.369925 0.258139
0.524497 0.372128 0.259497
0.565951 0.374330 0.260856
0.607405 0.376532 0.262215
0.648859 0.378734 0.263573
0.690399 0.380943 0.265096
0.732315 0.383186 0.267338
0.774231 0.385428 0.269580
0.816147 0.387670 0.271822
0.161903 0.399628 0.251903
0.198853 0.401593 0.253199
0.240307 0.403795 0.254557
0.281761 0.405997 0.255916
0.323215 0.408199 0.257275
0.364669 0.410401 0.258633
0.406123 0.412603 0.259992
0.447578 0.414805 0.261351
0.489032 0.417007 0.262709
0.530486 0.419209 0.264068
0.572194 0.421433 0.265912
0.614110 0.423676 0.268154
0.656026 0.425918 0.270396
0.697942 0.428160 0.272639
0.739858 0.430402 0.274881
0.781774 0.432644 0.277123
0.823689 0.434886 0.279365
0.169391 0.446790 0.256553
0.204842 0.448674 0.257769
0.246296 0.450876 0.259128
0.287750 0.453079 0.260487
0.329204 0.455281 0.261845
0.370659 0.457483 0.263204
0.412113 0.459685 0.264563
0.453989 0.461924 0.266728
0.495905 0.464166 0.268971
0.537821 0.466408 0.271213
0.579737 0.468650 0.273455
0.621652 0.470892 0.275697
0.663568 0.473134 0.277939
0.705484 0.475376 0.280181
0.747400 0.477618 0.282423
0.789316 0.479861 0.284665
0.831232 0.482103 0.286908
0.176879 0.493952 0.261204
0.210831 0.495756 0.262340
0.252285 0.497958 0.263699
0.293868 0.500172 0.265303
0.335784 0.502414 0.267545
0.377700 0.504656 0.269787
0.419616 0.506898 0.272029
0.461531 0.509140 0.274271
0.503447 0.511382 0.276513
0.545363 0.513624 0.278755
0.587279 0.515866 0.280997
0.629195 0.518108 0.283240
0.671111 0.520351 0.285482
0.713027 0.522593 0.287724
0.754943 0.524835 0.289966
0.796859 0.527077 0.292208
0.838775 0.529319 0.294450
0.184381 0.541128 0.266585
0.217579 0.542904 0.268361
0.259494 0.545146 0.270603
0.301410 0.547388 0.272845
0.343326 0.549630 0.275087
0.385242 0.551872 0.277329
0.427158 0.554114 0.279572
0.469074 0.556356 0.281814
0.510990 0.558599 0.284056
0.552906 0.560841 0.286298
0.594822 0.563083 0.288540
0.636738 0.565325 0.290782
0.678654 0.567567 0.293024
0.720570 0.569809 0.295266
0.762486 0.572051 0.297509
0.804540 0.574308 0.300138
0.846691 0.576574 0.303037
0.191924 0.588344 0.274128
0.225121 0.590120 0.275904
0.267037 0.592362 0.278146
0.308953 0.594604 0.280388
0.350869 0.596847 0.282630
0.392785 0.599089 0.284872
0.434701 0.601331 0.287114
0.476617 0.603573 0.289356
0.518533 0.605815 0.291599
0.560449 0.608057 0.293841
0.602364 0.610299 0.296083
0.644280 0.612541 0.298325
0.686420 0.614806 0.301194
0.728571 0.617073 0.304092
0.770722 0.619339 0.306991
0.812873 0.621605 0.309890
0.855024 0.623871 0.312789
0.199466 0.635561 0.281671
0.232664 0.637337 0.283446
0.274580 0.639579 0.285688
0.316496 0.641821 0.287931
0.358412 0.644063 0.290173
0.400328 0.646305 0.292415
0.442243 0.648547 0.294657
0.484159 0.650789 0.296899
0.526150 0.653039 0.299350
0.568301 0.655305 0.302249
0.610452 0.657571 0.305148
0.652603 0.659838 0.308046
0.694753 0.662104 0.310945
0.736904 0.664370 0.313844
0.779055 0.666636 0.316743
0.821206 0.668902 0.319642
0.863357 0.671169 0.322540
0.207009 0.682777 0.289213
0.240206 0.684553 0.290989
0.282122 0.686795 0.293231
0.324038 0.689037 0.295473
0.365954 0.691279 0.297715
0.408030 0.693538 0.300405
0.450181 0.695804 0.303304
0.492332 0.698070 0.306203
0.534483 0.700336 0.309102
0.576634 0.702603 0.312001
0.618785 0.704869 0.314899
0.660936 0.707135 0.317798
0.703086 0.709401 0.320697
0.745237 0.711667 0.323596
0.787388 0.713934 0.326494
0.829539 0.716200 0.329393
0.871690 0.718466 0.332292
0.214552 0.729994 0.296756
0.247760 0.731771 0.298562
0.289911 0.734037 0.301461
0.332062 0.736303 0.304360
0.374213 0.738569 0.307258
0.416363 0.740835 0.310157
0.458514 0.743101 0.313056
0.500665 0.745368 0.315955
0.542816 0.747634 0.318853
0.584967 0.749900 0.321752
0.627118 0.752166 0.324651
0.669268 0.754432 0.327550
0.711419 0.756699 0.330449
0.753570 0.758965 0.333347
0.795721 0.761231 0.336246
0.837872 0.763497 0.339145
0.880023 0.765763 0.342044
0.222126 0.777242 0.305987
0.256093 0.779068 0.308314
0.298244 0.781334 0.311212
0.340395 0.783600 0.314111
0.382545 0.785867 0.317010
0.424696 0.788133 0.319909
0.466847 0.790399 0.322808
0.508998 0.792665 0.325706
0.551149 0.794931 0.328605
0.593300 0.797197 0.331504
0.635451 0.799464 0.334403
0.677601 0.801730 0.337301
0.719752 0.803996 0.340200
0.761903 0.806262 0.343099
0.804054 0.808528 0.345998
0.846205 0.810794 0.348897
0.888356 0.813061 0.351795
0.229710 0.824499 0.315698
0.264426 0.826365 0.318065
0.306577 0.828632 0.320964
0.348728 0.830898 0.323863
0.390878 0.833164 0.326762
0.433029 0.835430 0.329660
0.475180 0.837696 0.332559
0.517331 0.839962 0.335458
0.559482 0.842229 0.338357
0.601633 0.844495 0.341256
0.643784 0.846761 0.344154
0.685934 0.849027 0.347053
0.728085 0.851293 0.349952
0.770236 0.853559 0.352851
0.812387 0.855826 0.355749
0.854538 0.858092 0.358648
0.896689 0.860358 0.361547
0.122019 0.118016 0.264405
0.163570 0.120226 0.265947
0.205024 0.122428 0.267306
0.246478 0.124630 0.268665
0.287932 0.126833 0.270023
0.329386 0.129035 0.271382
0.370840 0.131237 0.272741
0.412295 0.133439 0.274099
0.453749 0.135641 0.275458
0.495203 0.137843 0.276816
0.536657 0.140045 0.278175
0.578111 0.142247 0.279534
0.619565 0.144449 0.280892
0.661020 0.146651 0.282251
0.702474 0.148854 0.283610
0.743928 0.151056 0.284968
0.785382 0.153258 0.286327
0.122019 0.118016 0.264405
0.163570 0.120226 0.265947
0.205024 0.122428 0.267306
0.246478 0.124630 0.268665
0.287932 0.126833 0.270023
0.329386 0.129035 0.271382
0.370840 0.131237 0.272741
0.412295 0.133439 0.274099
0.453749 0.135641 0.275458
0.495203 0.137843 0.276816
0.536657 0.140045 0.278175
0.578111 0.142247 0.279534
0.619565 0.144449 0.280892
0.661020 0.146651 0.282251
0.702474 0.148854 0.283610
0.743928 0.151056 0.284968
0.785382 0.153258 0.286327
0.127961 0.164721 0.268939
0.169511 0.166931 0.270481
0.210965 0.169133 0.271840
0.252419 0.171336 0.273199
0.293873 0.173538 0.274557
0.335328 0.175740 0.275916
0.376782 0.177942 0.277275
0.418236 0.180144 0.278633
0.459690 0.182346 0.279992
0.501144 0.184548 0.281350
0.542598 0.186750 0.282709
0.584053 0.188952 0.284068
0.625507 0.191154 0.285426
0.666961 0.193357 0.286785
0.708415 0.195559 0.288144
0.749869 0.197761 0.289502
0.791323 0.199963 0.290861
0.133950 0.211803 0.273510
0.175500 0.214013 0.275052
0.216954 0.216215 0.276411
0.258408 0.218417 0.277769
0.299863 0.220619 0.279128
0.341317 0.222822 0.280486
0.382771 0.225024 0.281845
0.424225 0.227226 0.283204
0.465679 0.229428 0.284562
0.507133 0.231630 0.285921
0.548588 0.233832 0.287280
0.590042 0.236034 0.288638
0.631496 0.238236 0.289997
0.672950 0.240438 0.291356
0.714404 0.242640 0.292714
0.755858 0.244843 0.294073
0.797313 0.247045 0.295431
0.140194 0.258898 0.278094
0.181489 0.261095 0.279622
0.222944 0.263297 0.280981
0.264398 0.265499 0.282340
0.305852 0.267701 0.283698
0.347306 0.269903 0.285057
0.388760 0.272106 0.286416
0.430214 0.274308 0.287774
0.471669 0.276510 0.289133
0.513123 0.278712 0.290492
0.554577 0.280914 0.291850
0.596031 0.283116 0.293209
0.637485 0.285318 0.294567
0.678939 0.287520 0.295926
0.720394 0.289722 0.297285
0.761848 0.291924 0.298643
0.803302 0.294127 0.300002
0.147682 0.306060 0.282744
0.187479 0.308177 0.284193
0.228933 0.310379 0.285552
0.270387 0.312581 0.286910
0.311841 0.314783 0.288269
0.353295 0.316985 0.289628
0.394750 0.319187 0.290986
0.436204 0.321389 0.292345
0.477658 0.323592 0.293703
0.519112 0.325794 0.295062
0.560566 0.327996 0.296421
0.602020 0.330198 0.297779
0.643475 0.332400 0.299138
0.684929 0.334602 0.300497
0.726383 0.336804 0.301855
0.767837 0.339006 0.303214
0.809366 0.341215 0.304715
0.155171 0.353222 0.287395
0.193468 0.355259 0.288764
0.234922 0.357461 0.290122
0.276376 0.359663 0.291481
0.317830 0.361865 0.292839
0.359285 0.364067 0.294198
0.400739 0.366269 0.295557
0.442193 0.368471 0.296915
0.483647 0.370673 0.298274
0.525101 0.372875 0.299633
0.566555 0.375078 0.300991
0.608010 0.377280 0.302350
0.649464 0.379482 0.303709
0.691160 0.381705 0.305531
0.733076 0.383947 0.307773
0.774992 0.386189 0.310015
0.816908 0.388431 0.312258
0.162659 0.400384 0.292046
0.199457 0.402340 0.293334
0.240911 0.404543 0.294693
0.282366 0.406745 0.296051
0.323820 0.408947 0.297410
0.365274 0.411149 0.298769
0.406728 0.413351 0.300127
0.448182 0.415553 0.301486
0.489636 0.417755 0.302844
0.531091 0.419957 0.304203
0.572955 0.422195 0.306347
0.614871 0.424437 0.308590
0.656787 0.426679 0.310832
0.698703 0.428921 0.313074
0.740619 0.431163 0.315316
0.782535 0.433406 0.317558
0.824451 0.435648 0.319800
0.170147 0.447546 0.296697
0.205446 0.449422 0.297905
0.246901 0.451624 0.299263
0.288355 0.453826 0.300622
0.329809 0.456029 0.301980
0.371263 0.458231 0.303339
0.412834 0.460443 0.304922
0.454750 0.462685 0.307164
0.496666 0.464927 0.309406
0.538582 0.467169 0.311648
0.580498 0.469411 0.313890
0.622414 0.471653 0.316132
0.664330 0.473896 0.318374
0.706246 0.476138 0.320616
0.748162 0.478380 0.322859
0.790078 0.480622 0.325101
0.831994 0.482864 0.327343
0.177635 0.494708 0.301347
0.211436 0.496504 0.302475
0.252890 0.498706 0.303834
0.294629 0.500933 0.305738
0.336545 0.503175 0.307980
0.378461 0.505417 0.310222
0.420377 0.507659 0.312464
0.462293 0.509901 0.314706
0.504209 0.512144 0.316948
0.546125 0.514386 0.319191
0.588041 0.516628 0.321433
0.629957 0.518870 0.323675
0.671872 0.521112 0.325917
0.713788 0.523354 0.328159
0.755704 0.525596 0.330401
0.797620 0.527838 0.332643
0.839536 0.530081 0.334885
0.185143 0.541889 0.307020
0.218340 0.543665 0.308796
0.260256 0.545907 0.311038
0.302172 0.548149 0.313280
0.344088 0.550392 0.315523
0.386004 0.552634 0.317765
0.427920 0.554876 0.320007
0.469836 0.557118 0.322249
0.511751 0.559360 0.324491
0.553667 0.561602 0.326733
0.595583 0.563844 0.328975
0.637499 0.566086 0.331217
0.679415 0.568328 0.333460
0.721331 0.570571 0.335702
0.763247 0.572813 0.337944
0.805381 0.575077 0.340796
0.847532 0.577343 0.343695
0.192685 0.589106 0.314563
0.225883 0.590882 0.316339
0.267799 0.593124 0.318581
0.309714 0.595366 0.320823
0.351630 0.597608 0.323065
0.393546 0.599850 0.325307
0.435462 0.602092 0.327549
0.477378 0.604334 0.329792
0.519294 0.606576 0.332034
0.561210 0.608819 0.334276
0.603126 0.611061 0.336518
0.645111 0.613310 0.338953
0.687262 0.615576 0.341852
0.729413 0.617842 0.344751
0.771563 0.620108 0.347649
0.813714 0.622375 0.350548
0.855865 0.624641 0.353447
0.200228 0.636322 0.322106
0.233425 0.638098 0.323882
0.275341 0.640340 0.326124
0.317257 0.642582 0.328366
0.359173 0.644824 0.330608
0.401089 0.647067 0.332850
0.443005 0.649309 0.335092
0.484921 0.651551 0.337334
0.526991 0.653809 0.340008
0.569142 0.656075 0.342907
0.611293 0.658341 0.345806
0.653444 0.660607 0.348705
0.695595 0.662873 0.351603
0.737745 0.665140 0.354502
0.779896 0.667406 0.357401
0.822047 0.669672 0.360300
0.864198 0.671938 0.363199
0.207770 0.683539 0.329648
0.240968 0.685314 0.331424
0.282884 0.687557 0.333666
0.324800 0.689799 0.335908
0.366721 0.692041 0.338165
0.408872 0.694308 0.341064
0.451023 0.696574 0.343962
0.493173 0.698840 0.346861
0.535324 0.701106 0.349760
0.577475 0.703372 0.352659
0.619626 0.705638 0.355558
0.661777 0.707905 0.358456
0.703928 0.710171 0.361355
0.746078 0.712437 0.364254
0.788229 0.714703 0.367153
0.830380 0.716969 0.370051
0.872531 0.719236 0.372950
0.215313 0.730755 0.337191
0.248601 0.732540 0.339220
0.290752 0.734806 0.342119
0.332903 0.737073 0.345018
0.375054 0.739339 0.347917
0.417205 0.741605 0.350815
0.459355 0.743871 0.353714
0.501506 0.746137 0.356613
0.543657 0.748403 0.359512
0.585808 0.750670 0.362410
0.627959 0.752936 0.365309
0.670110 0.755202 0.368208
0.712261 0.757468 0.371107
0.754411 0.759734 0.374006
0.796562 0.762001 0.376904
0.838713 0.764267 0.379803
0.880864 0.766533 0.382702
0.222892 0.778008 0.346641
0.256934 0.779838 0.348972
0.299085 0.782104 0.351871
0.341236 0.784370 0.354769
0.383387 0.786636 0.357668
0.425538 0.788902 0.360567
0.467688 0.791168 0.363466
0.509839 0.793435 0.366365
0.551990 0.795701 0.369263
0.594141 0.797967 0.372162
0.636292 0.800233 0.375061
0.678443 0.802499 0.377960
0.720593 0.804766 0.380859
0.762744 0.807032 0.383757
0.804895 0.809298 0.386656
0.847046 0.811564 0.389555
0.889197 0.813830 0.392454
0.230475 0.825265 0.356352
0.265267 0.827135 0.358724
0.307418 0.829401 0.361622
0.349569 0.831667 0.364521
0.391720 0.833933 0.367420
0.433870 0.836200 0.370319
0.476021 0.838466 0.373218
0.518172 0.840732 0.376116
0.560323 0.842998 0.379015
0.602474 0.845264 0.381914
0.644625 0.847531 0.384813
0.686776 0.849797 0.387711
0.728926 0.852063 0.390610
0.771077 0.854329 0.393509
0.813228 0.856595 0.396408
0.855379 0.858861 0.399307
0.897530 0.861128 0.402205
0.122624 0.118764 0.304540
0.164174 0.120974 0.306083
0.205628 0.123176 0.307441
0.247082 0.125378 0.308800
0.288537 0.127580 0.310159
0.329991 0.129782 0.311517
0.371445 0.131985 0.312876
0.412899 0.134187 0.314234
0.454353 0.136389 0.315593
0.495807 0.138591 0.316952
0.537262 0.140793 0.318310
0.578716 0.142995 0.319669
0.620170 0.145197 0.321028
0.661624 0.147399 0.322386
0.703078 0.149601 0.323745
0.744532 0.151803 0.325103
0.785987 0.154006 0.326462
0.122624 0.118764 0.304540
0.164174 0.120974 0.306083
