assets/luts/lavender.cube
# MoodFilm Filter — lavender
TITLE "lavender"
LUT_3D_SIZE 5
0.120810 0.116520 0.184135
0.286723 0.125337 0.189753
0.452539 0.134145 0.195187
0.618356 0.142954 0.200622
0.784173 0.151762 0.206057
0.138730 0.257389 0.197810
0.304643 0.266206 0.203428
0.470459 0.275014 0.208862
0.636276 0.283822 0.214297
0.802093 0.292631 0.219732
0.168635 0.446034 0.216410
0.328600 0.454533 0.221710
0.495143 0.463404 0.228535
0.662807 0.472373 0.237504
0.830471 0.481341 0.246472
0.198705 0.634799 0.241235
0.357650 0.643302 0.249737
0.525314 0.652270 0.258706
0.693912 0.661334 0.270287
0.862516 0.670399 0.281882
0.228944 0.823734 0.275044
0.390037 0.832394 0.286103
0.558641 0.841459 0.297699
0.727244 0.850524 0.309294
0.895847 0.859588 0.320889
0.123229 0.119512 0.344675
0.289141 0.128328 0.350294
0.454958 0.137137 0.355728
0.620775 0.145945 0.361163
0.786591 0.154753 0.366597
0.141706 0.260410 0.358380
0.307061 0.269197 0.363969
0.472878 0.278005 0.369403
0.638694 0.286814 0.374838
0.804511 0.295622 0.380272
0.171659 0.449058 0.376983
0.331018 0.457524 0.382251
0.498189 0.466450 0.390276
0.665853 0.475418 0.399245
0.833516 0.484387 0.408213
0.201751 0.637845 0.402976
0.360696 0.646347 0.411478
0.528674 0.655348 0.421325
0.697277 0.664413 0.432920
0.865880 0.673477 0.444515
0.232006 0.826796 0.437661
0.393402 0.835473 0.448736
0.562005 0.844537 0.460332
0.730609 0.853602 0.471927
0.899212 0.862667 0.483522
0.125647 0.122503 0.505216
0.291560 0.131320 0.510835
0.457376 0.140128 0.516269
0.623193 0.148936 0.521704
0.789010 0.157745 0.527138
0.144730 0.263434 0.518953
0.309480 0.272188 0.524510
0.475296 0.280997 0.529944
0.641113 0.289805 0.535379
0.806930 0.298614 0.540813
0.174683 0.452082 0.537556
0.333571 0.460527 0.543049
0.501235 0.469496 0.552017
0.668898 0.478464 0.560986
0.836562 0.487433 0.569954
0.204796 0.640891 0.564717
0.363742 0.649393 0.573219
0.532039 0.658426 0.583958
0.700642 0.667491 0.595553
0.869245 0.676556 0.607148
0.235069 0.829858 0.600278
0.396767 0.838551 0.611369
0.565370 0.847616 0.622965
0.733974 0.856681 0.634560
0.902577 0.865745 0.646155
0.128066 0.125494 0.665757
0.293978 0.134311 0.671375
0.459795 0.143119 0.676810
0.625612 0.151928 0.682244
0.791428 0.160736 0.687679
0.147754 0.266458 0.679527
0.311898 0.275180 0.685050
0.477715 0.283988 0.690485
0.643531 0.292797 0.695919
0.809437 0.301613 0.701525
0.177706 0.455106 0.698129
0.336617 0.463573 0.704790
0.504281 0.472541 0.713758
0.671944 0.481510 0.722727
0.839608 0.490478 0.731695
0.207842 0.643937 0.726458
0.366800 0.652440 0.734996
0.535403 0.661505 0.746591
0.704007 0.670569 0.758186
0.872610 0.679634 0.769781
0.238131 0.832920 0.762894
0.400132 0.841630 0.774002
0.568735 0.850694 0.785597
0.737339 0.859759 0.797193
0.905942 0.868824 0.808788
0.129436 0.127285 0.762065
0.295411 0.136163 0.770943
0.461292 0.145036 0.779817
0.627173 0.153909 0.788690
0.793055 0.162782 0.797563
0.149731 0.268435 0.784511
0.313493 0.277194 0.793271
0.479375 0.286068 0.802144
0.645256 0.294941 0.811017
0.811667 0.303842 0.819919
0.179901 0.457300 0.814682
0.338846 0.465802 0.823184
0.506510 0.474771 0.832153
0.674174 0.483739 0.841121
0.841837 0.492708 0.850090
0.210072 0.646166 0.844852
0.369250 0.654681 0.853367
0.537805 0.663697 0.862383
0.706360 0.672713 0.871399
0.874915 0.681729 0.880416
0.240242 0.835032 0.875023
0.402419 0.843707 0.883698
0.570974 0.852723 0.892714
0.739528 0.861739 0.901730
0.908083 0.870755 0.910747
