assets/luts/lavender.cube
# MoodFilm Filter — lavender
TITLE "lavender"
LUT_3D_SIZE 9
0.120810 0.116520 0.184135
0.203814 0.120933 0.187036
0.286723 0.125337 0.189753
0.369631 0.129741 0.192470
0.452539 0.134145 0.195187
0.535448 0.138549 0.197905
0.618356 0.142954 0.200622
0.701264 0.147358 0.203339
0.784173 0.151762 0.206057
0.126751 0.163225 0.188669
0.209756 0.167638 0.191570
0.292664 0.172042 0.194287
0.375572 0.176446 0.197004
0.458481 0.180850 0.199721
0.541389 0.185255 0.202439
0.624297 0.189659 0.205156
0.707206 0.194063 0.207873
0.790114 0.198467 0.210591
0.138730 0.257389 0.197810
0.221734 0.261801 0.200711
0.304643 0.266206 0.203428
0.387551 0.270610 0.206145
0.470459 0.275014 0.208862
0.553368 0.279418 0.211580
0.636276 0.283822 0.214297
0.719184 0.288227 0.217014
0.802093 0.292631 0.219732
0.153659 0.351710 0.207109
0.233713 0.355965 0.209852
0.316621 0.360369 0.212569
0.399530 0.364773 0.215286
0.482438 0.369178 0.218004
0.565346 0.373582 0.220721
0.648255 0.377986 0.223438
0.731554 0.382424 0.226903
0.815385 0.386908 0.231387
0.168635 0.446034 0.216410
0.245691 0.450129 0.218993
0.328600 0.454533 0.221710
0.411508 0.458937 0.224427
0.495143 0.463404 0.228535
0.578975 0.467888 0.233020
0.662807 0.472373 0.237504
0.746639 0.476857 0.241988
0.830471 0.481341 0.246472
0.183620 0.540367 0.226150
0.258733 0.544384 0.230168
0.342565 0.548869 0.234652
0.426397 0.553353 0.239136
0.510229 0.557837 0.243621
0.594060 0.562321 0.248105
0.677892 0.566806 0.252589
0.761724 0.571290 0.257073
0.845850 0.575804 0.262379
0.198705 0.634799 0.241235
0.273818 0.638817 0.245253
0.357650 0.643302 0.249737
0.441482 0.647786 0.254222
0.525314 0.652270 0.258706
0.609611 0.656802 0.264489
0.693912 0.661334 0.270287
0.778214 0.665867 0.276085
0.862516 0.670399 0.281882
0.213790 0.729232 0.256321
0.289070 0.733267 0.260803
0.373371 0.737800 0.266600
0.457673 0.742332 0.272398
0.541975 0.746864 0.278195
0.626276 0.751397 0.283993
0.710578 0.755929 0.289790
0.794880 0.760461 0.295588
0.879181 0.764994 0.301385
0.228944 0.823734 0.275044
0.305736 0.827862 0.280306
0.390037 0.832394 0.286103
0.474339 0.836927 0.291901
0.558641 0.841459 0.297699
0.642942 0.845991 0.303496
0.727244 0.850524 0.309294
0.811546 0.855056 0.315091
0.895847 0.859588 0.320889
0.122019 0.118016 0.264405
0.205024 0.122428 0.267306
0.287932 0.126833 0.270023
0.370840 0.131237 0.272741
0.453749 0.135641 0.275458
0.536657 0.140045 0.278175
0.619565 0.144449 0.280892
0.702474 0.148854 0.283610
0.785382 0.153258 0.286327
0.127961 0.164721 0.268939
0.210965 0.169133 0.271840
0.293873 0.173538 0.274557
0.376782 0.177942 0.277275
0.459690 0.182346 0.279992
0.542598 0.186750 0.282709
0.625507 0.191154 0.285426
0.708415 0.195559 0.288144
0.791323 0.199963 0.290861
0.140194 0.258898 0.278094
0.222944 0.263297 0.280981
0.305852 0.267701 0.283698
0.388760 0.272106 0.286416
0.471669 0.276510 0.289133
0.554577 0.280914 0.291850
0.637485 0.285318 0.294567
0.720394 0.289722 0.297285
0.803302 0.294127 0.300002
0.155171 0.353222 0.287395
0.234922 0.357461 0.290122
0.317830 0.361865 0.292839
0.400739 0.366269 0.295557
0.483647 0.370673 0.298274
0.566555 0.375078 0.300991
0.649464 0.379482 0.303709
0.733076 0.383947 0.307773
0.816908 0.388431 0.312258
0.170147 0.447546 0.296697
0.246901 0.451624 0.299263
0.329809 0.456029 0.301980
0.412834 0.460443 0.304922
0.496666 0.464927 0.309406
0.580498 0.469411 0.313890
0.664330 0.473896 0.318374
0.748162 0.478380 0.322859
0.831994 0.482864 0.327343
0.185143 0.541889 0.307020
0.260256 0.545907 0.311038
0.344088 0.550392 0.315523
0.427920 0.554876 0.320007
0.511751 0.559360 0.324491
0.595583 0.563844 0.328975
0.679415 0.568328 0.333460
0.763247 0.572813 0.337944
0.847532 0.577343 0.343695
0.200228 0.636322 0.322106
0.275341 0.640340 0.326124
0.359173 0.644824 0.330608
0.443005 0.649309 0.335092
0.526991 0.653809 0.340008
0.611293 0.658341 0.345806
0.695595 0.662873 0.351603
0.779896 0.667406 0.357401
0.864198 0.671938 0.363199
0.215313 0.730755 0.337191
0.290752 0.734806 0.342119
0.375054 0.739339 0.347917
0.459355 0.743871 0.353714
0.543657 0.748403 0.359512
0.627959 0.752936 0.365309
0.712261 0.757468 0.371107
0.796562 0.762001 0.376904
0.880864 0.766533 0.382702
0.230475 0.825265 0.356352
0.307418 0.829401 0.361622
0.391720 0.833933 0.367420
0.476021 0.838466 0.373218
0.560323 0.842998 0.379015
0.644625 0.847531 0.384813
0.728926 0.852063 0.390610
0.813228 0.856595 0.396408
0.897530 0.861128 0.402205
0.123229 0.119512 0.344675
0.206233 0.123924 0.347576
0.289141 0.128328 0.350294
0.372050 0.132732 0.353011
0.454958 0.137137 0.355728
0.537866 0.141541 0.358446
0.620775 0.145945 0.361163
0.703683 0.150349 0.363880
0.786591 0.154753 0.366597
0.129170 0.166217 0.349209
0.212174 0.170629 0.352110
0.295083 0.175033 0.354828
0.377991 0.179438 0.357545
0.460899 0.183842 0.360262
0.543808 0.188246 0.362979
0.626716 0.192650 0.365697
0.709624 0.197054 0.368414
0.792533 0.201459 0.371131
0.141706 0.260410 0.358380
0.224153 0.264793 0.361251
0.307061 0.269197 0.363969
0.389969 0.273601 0.366686
0.472878 0.278005 0.369403
0.555786 0.282410 0.372121
0.638694 0.286814 0.374838
0.721603 0.291218 0.377555
0.804511 0.295622 0.380272
0.156682 0.354734 0.367682
0.236131 0.358956 0.370393
0.319040 0.363361 0.373110
0.401948 0.367765 0.375827
0.484856 0.372169 0.378544
0.567765 0.376573 0.381262
0.650767 0.380986 0.384159
0.734599 0.385470 0.388644
0.818431 0.389954 0.393128
0.171659 0.449058 0.376983
0.248110 0.453120 0.379534
0.331018 0.457524 0.382251
0.414357 0.461966 0.385792
0.498189 0.466450 0.390276
0.582021 0.470934 0.394761
0.665853 0.475418 0.399245
0.749685 0.479903 0.403729
0.833516 0.484387 0.408213
0.186665 0.543412 0.387891
0.261779 0.547430 0.391909
0.345611 0.551914 0.396393
0.429442 0.556399 0.400877
0.513274 0.560883 0.405362
0.597106 0.565367 0.409846
0.680938 0.569851 0.414330
0.764913 0.574350 0.419214
0.849215 0.578883 0.425012
0.201751 0.637845 0.402976
0.276864 0.641863 0.406994
0.360696 0.646347 0.411478
0.444528 0.650832 0.415963
0.528674 0.655348 0.421325
0.612975 0.659880 0.427122
0.697277 0.664413 0.432920
0.781579 0.668945 0.438718
0.865880 0.673477 0.444515
0.216839 0.732281 0.418238
0.292435 0.736346 0.423436
0.376736 0.740878 0.429233
0.461038 0.745410 0.435031
0.545340 0.749943 0.440828
0.629641 0.754475 0.446626
0.713943 0.759007 0.452423
0.798245 0.763540 0.458221
0.882546 0.768072 0.464018
0.232006 0.826796 0.437661
0.309100 0.830940 0.442939
0.393402 0.835473 0.448736
0.477704 0.840005 0.454534
0.562005 0.844537 0.460332
0.646307 0.849070 0.466129
0.730609 0.853602 0.471927
0.814911 0.858134 0.477724
0.899212 0.862667 0.483522
0.124438 0.121007 0.424946
0.207442 0.125420 0.427847
0.290351 0.129824 0.430564
0.373259 0.134228 0.433281
0.456167 0.138632 0.435999
0.539076 0.143037 0.438716
0.621984 0.147441 0.441433
0.704892 0.151845 0.444150
0.787801 0.156249 0.446868
0.130379 0.167712 0.429480
0.213384 0.172125 0.432381
0.296292 0.176529 0.435098
0.379200 0.180933 0.437815
0.462109 0.185337 0.440533
0.545017 0.189742 0.443250
0.627925 0.194146 0.445967
0.710834 0.198550 0.448684
0.793742 0.202954 0.451402
0.143218 0.261922 0.438667
0.225362 0.266288 0.441522
0.308270 0.270693 0.444239
0.391179 0.275097 0.446956
0.474087 0.279501 0.449674
0.556995 0.283905 0.452391
0.639904 0.288309 0.455108
0.722812 0.292714 0.457825
0.805720 0.297118 0.460543
0.158194 0.356246 0.447968
0.237341 0.360452 0.450663
0.320249 0.364856 0.453380
0.403157 0.369260 0.456097
0.486066 0.373665 0.458815
0.568974 0.378069 0.461532
0.652290 0.382508 0.465030
0.736122 0.386993 0.469514
0.819954 0.391477 0.473998
0.173171 0.450570 0.457270
0.249319 0.454616 0.459804
0.332227 0.459020 0.462521
0.415880 0.463489 0.466663
0.499712 0.467973 0.471147
0.583544 0.472457 0.475631
0.667376 0.476941 0.480115
0.751207 0.481426 0.484599
0.835039 0.485910 0.489084
0.188188 0.544935 0.468761
0.263302 0.548953 0.472779
0.347133 0.553437 0.477264
0.430965 0.557921 0.481748
0.514797 0.562406 0.486232
0.598629 0.566890 0.490716
0.682461 0.571374 0.495201
0.766595 0.575889 0.500531
0.850897 0.580422 0.506328
0.203274 0.639368 0.483847
0.278387 0.643386 0.487865
0.362219 0.647870 0.492349
0.446054 0.652355 0.496844
0.530356 0.656887 0.502641
0.614658 0.661419 0.508439
0.698960 0.665952 0.514236
0.783261 0.670484 0.520034
0.867563 0.675017 0.525832
0.218370 0.733812 0.499546
0.294117 0.737885 0.504752
0.378419 0.742417 0.510550
0.462720 0.746950 0.516347
0.547022 0.751482 0.522145
0.631324 0.756014 0.527942
0.715625 0.760547 0.533740
0.799927 0.765079 0.539537
0.884229 0.769611 0.545335
0.233537 0.828327 0.518969
0.310783 0.832480 0.524255
0.395085 0.837012 0.530053
0.479386 0.841544 0.535850
0.563688 0.846077 0.541648
0.647990 0.850609 0.547446
0.732291 0.855141 0.553243
0.816593 0.859674 0.559041
0.900895 0.864206 0.564838
0.125647 0.122503 0.505216
0.208651 0.126915 0.508117
0.291560 0.131320 0.510835
0.374468 0.135724 0.513552
0.457376 0.140128 0.516269
0.540285 0.144532 0.518986
0.623193 0.148936 0.521704
0.706101 0.153341 0.524421
0.789010 0.157745 0.527138
0.131588 0.169208 0.509750
0.214593 0.173621 0.512651
0.297501 0.178025 0.515368
0.380409 0.182429 0.518086
0.463318 0.186833 0.520803
0.546226 0.191237 0.523520
0.629134 0.195642 0.526238
0.712043 0.200046 0.528955
0.794951 0.204450 0.531672
0.144730 0.263434 0.518953
0.226571 0.267784 0.521792
0.309480 0.272188 0.524510
0.392388 0.276593 0.527227
0.475296 0.280997 0.529944
0.558205 0.285401 0.532661
0.641113 0.289805 0.535379
0.724021 0.294209 0.538096
0.806930 0.298614 0.540813
0.159706 0.357758 0.528255
0.238550 0.361948 0.530933
0.321458 0.366352 0.533651
0.404367 0.370756 0.536368
0.487275 0.375160 0.539085
0.570183 0.379565 0.541802
0.653813 0.384031 0.545900
0.737645 0.388516 0.550385
0.821477 0.393000 0.554869
0.174683 0.452082 0.537556
0.250528 0.456111 0.540074
0.333571 0.460527 0.543049
0.417403 0.465011 0.547533
0.501235 0.469496 0.552017
0.585067 0.473980 0.556501
0.668898 0.478464 0.560986
0.752730 0.482948 0.565470
0.836562 0.487433 0.569954
0.189711 0.546458 0.549632
0.264825 0.550476 0.553650
0.348656 0.554960 0.558134
0.432488 0.559444 0.562618
0.516320 0.563929 0.567103
0.600152 0.568413 0.571587
0.683984 0.572897 0.576071
0.768278 0.577429 0.581847
0.852579 0.581961 0.587645
0.204796 0.640891 0.564717
0.279910 0.644909 0.568735
0.363742 0.649393 0.573219
0.447737 0.653894 0.578160
0.532039 0.658426 0.583958
0.616340 0.662959 0.589755
0.700642 0.667491 0.595553
0.784944 0.672023 0.601350
0.869245 0.676556 0.607148
0.219902 0.735344 0.580854
0.295799 0.739424 0.586068
0.380101 0.743956 0.591866
0.464403 0.748489 0.597664
0.548704 0.753021 0.603461
0.633006 0.757553 0.609259
0.717308 0.762086 0.615056
0.801610 0.766618 0.620854
0.885911 0.771151 0.626651
0.235069 0.829858 0.600278
0.312465 0.834019 0.605572
0.396767 0.838551 0.611369
0.481069 0.843083 0.617167
0.565370 0.847616 0.622965
0.649672 0.852148 0.628762
0.733974 0.856681 0.634560
0.818275 0.861213 0.640357
0.902577 0.865745 0.646155
0.126856 0.123999 0.585487
0.209861 0.128411 0.588388
0.292769 0.132815 0.591105
0.375677 0.137219 0.593822
0.458586 0.141624 0.596539
0.541494 0.146028 0.599257
0.624402 0.150432 0.601974
0.707311 0.154836 0.604691
0.790219 0.159240 0.607409
0.132798 0.170704 0.590021
0.215802 0.175116 0.592922
0.298710 0.179520 0.595639
0.381619 0.183925 0.598356
0.464527 0.188329 0.601073
0.547435 0.192733 0.603791
0.630344 0.197137 0.606508
0.713252 0.201541 0.609225
0.796160 0.205946 0.611942
0.146242 0.264946 0.599240
0.227781 0.269280 0.602063
0.310689 0.273684 0.604780
0.393597 0.278088 0.607497
0.476506 0.282492 0.610214
0.559414 0.286897 0.612932
0.642322 0.291301 0.615649
0.725231 0.295705 0.618366
0.808139 0.300109 0.621084
0.161218 0.359270 0.608541
0.239759 0.363443 0.611204
0.322667 0.367848 0.613921
0.405576 0.372252 0.616638
0.488484 0.376656 0.619356
0.571504 0.381070 0.622287
0.655336 0.385554 0.626771
0.739168 0.390038 0.631255
0.823000 0.394523 0.635739
0.176194 0.453594 0.617843
0.251738 0.457607 0.620345
0.335094 0.462050 0.623919
0.418926 0.466534 0.628403
0.502758 0.471019 0.632888
0.586589 0.475503 0.637372
0.670421 0.479987 0.641856
0.754253 0.484471 0.646340
0.838085 0.488956 0.650825
0.191234 0.547981 0.630502
0.266347 0.551999 0.634520
0.350179 0.556483 0.639004
0.434011 0.560967 0.643489
0.517843 0.565451 0.647973
0.601675 0.569936 0.652457
0.685658 0.574436 0.657366
0.769960 0.578968 0.663164
0.854262 0.583500 0.668961
0.206319 0.642414 0.645588
0.281433 0.646432 0.649606
0.365265 0.650916 0.654090
0.449419 0.655433 0.659477
0.533721 0.659966 0.665274
0.618023 0.664498 0.671072
0.702324 0.669030 0.676869
0.786626 0.673563 0.682667
0.870928 0.678095 0.688465
0.221433 0.736875 0.662163
0.297482 0.740963 0.667385
0.381783 0.745496 0.673183
0.466085 0.750028 0.678980
0.550387 0.754560 0.684778
0.634689 0.759093 0.690575
0.718990 0.763625 0.696373
0.803292 0.768157 0.702170
0.887594 0.772690 0.707968
0.236600 0.831389 0.681586
0.314148 0.835558 0.686888
0.398449 0.840090 0.692686
0.482751 0.844623 0.698483
0.567053 0.849155 0.704281
0.651354 0.853687 0.710079
0.735656 0.858220 0.715876
0.819958 0.862752 0.721674
0.904260 0.867284 0.727471
0.128066 0.125494 0.665757
0.211070 0.129907 0.668658
0.293978 0.134311 0.671375
0.376887 0.138715 0.674093
0.459795 0.143119 0.676810
0.542703 0.147524 0.679527
0.625612 0.151928 0.682244
0.708520 0.156332 0.684962
0.791428 0.160736 0.687679
0.134007 0.172199 0.670291
0.217011 0.176612 0.673192
0.299920 0.181016 0.675909
0.382828 0.185420 0.678627
0.465736 0.189825 0.681344
0.548645 0.194229 0.684061
0.631553 0.198633 0.686778
0.714461 0.203037 0.689496
0.797370 0.207441 0.692213
0.147754 0.266458 0.679527
0.228990 0.270776 0.682333
0.311898 0.275180 0.685050
0.394806 0.279584 0.687768
0.477715 0.283988 0.690485
0.560623 0.288392 0.693202
0.643531 0.292797 0.695919
0.726440 0.297201 0.698637
0.809437 0.301613 0.701525
0.162730 0.360782 0.688828
0.240968 0.364939 0.691474
0.323877 0.369343 0.694191
0.406785 0.373748 0.696909
0.489693 0.378152 0.699626
0.573027 0.382593 0.703157
0.656859 0.387077 0.707641
0.740691 0.391561 0.712126
0.824523 0.396046 0.716610
0.177706 0.455106 0.698129
0.252947 0.459103 0.700615
0.336617 0.463573 0.704790
0.420449 0.468057 0.709274
0.504281 0.472541 0.713758
0.588112 0.477026 0.718242
0.671944 0.481510 0.722727
0.755776 0.485994 0.727211
0.839608 0.490478 0.731695
0.192757 0.549504 0.711373
0.267870 0.553522 0.715391
0.351702 0.558006 0.719875
0.435534 0.562490 0.724359
0.519366 0.566974 0.728843
0.603198 0.571459 0.733328
0.687341 0.575975 0.738683
0.771643 0.580507 0.744480
0.855944 0.585039 0.750278
0.207842 0.643937 0.726458
0.282956 0.647955 0.730476
0.366800 0.652440 0.734996
0.451102 0.656972 0.740793
0.535403 0.661505 0.746591
0.619705 0.666037 0.752388
0.704007 0.670569 0.758186
0.788309 0.675102 0.763983
0.872610 0.679634 0.769781
0.222964 0.738406 0.743471
0.299164 0.742502 0.748701
0.383466 0.747035 0.754499
0.467768 0.751567 0.760297
0.552069 0.756100 0.766094
0.636371 0.760632 0.771892
0.720673 0.765164 0.777689
0.804974 0.769697 0.783487
0.889276 0.774229 0.789284
0.238131 0.832920 0.762894
0.315830 0.837097 0.768205
0.400132 0.841630 0.774002
0.484434 0.846162 0.779800
0.568735 0.850694 0.785597
0.653037 0.855227 0.791395
0.737339 0.859759 0.797193
0.821640 0.864291 0.802990
0.905942 0.868824 0.808788
0.129275 0.126990 0.746027
0.212279 0.131402 0.748928
0.295187 0.135807 0.751646
0.378096 0.140211 0.754363
0.461004 0.144615 0.757080
0.543912 0.149019 0.759798
0.626821 0.153423 0.762515
0.709729 0.157828 0.765232
0.792637 0.162232 0.767949
0.135216 0.173695 0.750561
0.218220 0.178108 0.753462
0.301129 0.182512 0.756180
0.384037 0.186916 0.758897
0.466946 0.191320 0.761614
0.549854 0.195724 0.764331
0.632762 0.200129 0.767049
0.715671 0.204533 0.769766
0.798579 0.208937 0.772483
0.149265 0.267969 0.759813
0.230199 0.272271 0.762603
0.313107 0.276675 0.765321
0.396016 0.281080 0.768038
0.478924 0.285484 0.770755
0.561832 0.289888 0.773473
0.644741 0.294292 0.776190
0.727649 0.298696 0.778907
0.810960 0.303136 0.782395
0.164242 0.362293 0.769115
0.242178 0.366435 0.771745
0.325086 0.370839 0.774462
0.407994 0.375243 0.777179
0.490903 0.379647 0.779896
0.574550 0.384116 0.784028
0.658382 0.388600 0.788512
0.742214 0.393084 0.792996
0.826045 0.397568 0.797480
0.179218 0.456617 0.778416
0.254308 0.460612 0.781176
0.338140 0.465096 0.785660
0.421972 0.469580 0.790144
0.505803 0.474064 0.794629
0.589635 0.478549 0.799113
0.673467 0.483033 0.803597
0.757299 0.487517 0.808081
0.841131 0.492001 0.812566
0.194280 0.551027 0.792243
0.269393 0.555044 0.796261
0.353225 0.559529 0.800745
0.437057 0.564013 0.805230
0.520889 0.568497 0.809714
0.604722 0.572982 0.814201
0.689023 0.577514 0.819999
0.773325 0.582046 0.825797
0.857627 0.586579 0.831594
0.209365 0.645459 0.807329
0.284478 0.649477 0.811346
0.368482 0.653979 0.816312
0.452784 0.658512 0.822110
0.537086 0.663044 0.827907
0.621388 0.667576 0.833705
0.705689 0.672109 0.839502
0.789991 0.676641 0.845300
0.874293 0.681173 0.851097
0.224495 0.739937 0.824780
0.300847 0.744042 0.830018
0.385148 0.748574 0.835815
0.469450 0.753106 0.841613
0.553752 0.757639 0.847411
0.638053 0.762171 0.853208
0.722355 0.766703 0.859006
0.806657 0.771236 0.864803
0.890959 0.775768 0.870601
0.239662 0.834451 0.844203
0.317513 0.838636 0.849521
0.401814 0.843169 0.855319
0.486116 0.847701 0.861116
0.570418 0.852233 0.866914
0.654719 0.856766 0.872711
0.739021 0.861298 0.878509
0.823323 0.865831 0.884307
0.907624 0.870363 0.890104
0.129436 0.127285 0.762065
0.212470 0.131726 0.766507
0.295411 0.136163 0.770943
0.378351 0.140599 0.775380
0.461292 0.145036 0.779817
0.544233 0.149472 0.784253
0.627173 0.153909 0.788690
0.710114 0.158346 0.793126
0.793055 0.162782 0.797563
0.135432 0.174044 0.769468
0.218465 0.178485 0.773910
0.301406 0.182922 0.778346
0.384347 0.187358 0.782783
0.467287 0.191795 0.787219
0.550228 0.196232 0.791656
0.633169 0.200668 0.796093
0.716110 0.205105 0.800529
0.799050 0.209541 0.804966
0.149731 0.268435 0.784511
0.230553 0.272758 0.788835
0.313493 0.277194 0.793271
0.396434 0.281631 0.797708
0.479375 0.286068 0.802144
0.562316 0.290504 0.806581
0.645256 0.294941 0.811017
0.728197 0.299377 0.815454
0.811667 0.303842 0.819919
0.164816 0.362867 0.799597
0.242640 0.367030 0.803760
0.325581 0.371467 0.808196
0.408522 0.375904 0.812633
0.491462 0.380340 0.817069
0.575257 0.384822 0.821552
0.659088 0.389307 0.826036
0.742920 0.393791 0.830520
0.826752 0.398275 0.835004
0.179901 0.457300 0.814682
0.255014 0.461318 0.818700
0.338846 0.465802 0.823184
0.422678 0.470287 0.827668
0.506510 0.474771 0.832153
0.590342 0.479255 0.836637
0.674174 0.483739 0.841121
0.758006 0.488224 0.845605
0.841837 0.492708 0.850090
0.194986 0.551733 0.829767
0.270100 0.555751 0.833785
0.353932 0.560235 0.838269
0.437763 0.564720 0.842754
0.521595 0.569204 0.847238
0.605498 0.573692 0.851726
0.689776 0.578200 0.856234
0.774053 0.582708 0.860742
0.858331 0.587216 0.865250
0.210072 0.646166 0.844852
0.285185 0.650184 0.848870
0.369250 0.654681 0.853367
0.453528 0.659189 0.857875
0.537805 0.663697 0.862383
0.622083 0.668205 0.866891
0.706360 0.672713 0.871399
0.790637 0.677221 0.875908
0.874915 0.681729 0.880416
0.225157 0.740599 0.859938
0.301557 0.744686 0.864024
0.385835 0.749194 0.868533
0.470112 0.753702 0.873041
0.554389 0.758210 0.877549
0.638667 0.762718 0.882057
0.722944 0.767226 0.886565
0.807222 0.771734 0.891073
0.891499 0.776242 0.895581
0.240242 0.835032 0.875023
0.318141 0.839199 0.879190
0.402419 0.843707 0.883698
0.486696 0.848215 0.888206
0.570974 0.852723 0.892714
0.655251 0.857231 0.897222
0.739528 0.861739 0.901730
0.823806 0.866247 0.906238
0.908083 0.870755 0.910747
