assets/luts/milk.cube
# MoodFilm Filter — milk
TITLE "milk"
LUT_3D_SIZE 9
0.170548 0.104073 0.104073
0.267132 0.106794 0.106794
0.361260 0.109446 0.109446
0.453951 0.112058 0.112058
0.545623 0.114641 0.114641
0.636506 0.117201 0.117201
0.726747 0.119744 0.119744
0.816445 0.122271 0.122271
0.853996 0.123329 0.123329
0.176338 0.207051 0.113137
0.273045 0.209775 0.115862
0.367235 0.212429 0.118516
0.459966 0.215041 0.121128
0.551668 0.217625 0.123712
0.642576 0.220186 0.126273
0.732836 0.222729 0.128816
0.822552 0.225257 0.131344
0.863155 0.226401 0.132488
0.181926 0.310091 0.122202
0.278769 0.312819 0.124930
0.373024 0.315475 0.127586
0.465799 0.318089 0.130200
0.557534 0.320673 0.132784
0.648467 0.323235 0.135346
0.738749 0.325779 0.137890
0.828483 0.328307 0.140418
0.872321 0.329542 0.141653
0.187310 0.410925 0.131070
0.284294 0.413658 0.133802
0.378616 0.416315 0.136460
0.471435 0.418930 0.139075
0.563203 0.421516 0.141660
0.654508 0.424088 0.144233
0.745777 0.426660 0.146804
0.836483 0.429215 0.149360
0.881290 0.430478 0.150622
0.192561 0.510370 0.139814
0.289693 0.513106 0.142551
0.384806 0.515786 0.145231
0.478651 0.518430 0.147875
0.571416 0.521043 0.150488
0.663354 0.523634 0.153079
0.754622 0.526205 0.155650
0.845329 0.528761 0.158206
0.890135 0.530023 0.159468
0.199946 0.608861 0.148531
0.298161 0.611628 0.151298
0.393562 0.614316 0.153986
0.487407 0.616960 0.156630
0.580172 0.619573 0.159244
0.672110 0.622163 0.161834
0.763648 0.624742 0.164413
0.854833 0.627312 0.166982
0.898891 0.628553 0.168223
0.208630 0.706591 0.157216
0.306845 0.709358 0.159983
0.402246 0.712046 0.162671
0.496548 0.714703 0.165327
0.589799 0.717330 0.167955
0.682216 0.719934 0.170558
0.773959 0.722518 0.173143
0.865135 0.725087 0.175712
0.907575 0.726283 0.176908
0.217945 0.803682 0.165861
0.316643 0.806463 0.168642
0.412523 0.809164 0.171343
0.506841 0.811821 0.174000
0.600076 0.814448 0.176627
0.692479 0.817051 0.179230
0.784211 0.819636 0.181815
0.875378 0.822204 0.184383
0.916201 0.823355 0.185534
0.228321 0.900244 0.174488
0.326943 0.903023 0.177266
0.422788 0.905723 0.179967
0.517084 0.908380 0.182623
0.610302 0.911006 0.185250
0.702692 0.913609 0.187853
0.794413 0.916194 0.190437
0.885571 0.918762 0.193005
0.924777 0.919867 0.194110
0.170823 0.104539 0.152389
0.267419 0.107265 0.155638
0.361556 0.109922 0.158817
0.454255 0.112539 0.161955
0.545934 0.115127 0.165064
0.636823 0.117693 0.168151
0.727070 0.120240 0.171219
0.816775 0.122773 0.174272
0.854506 0.123838 0.175596
0.176629 0.207532 0.163127
0.273349 0.210262 0.166378
0.367547 0.212921 0.169558
0.460286 0.215539 0.172696
0.551995 0.218128 0.175806
0.642909 0.220694 0.178892
0.733176 0.223243 0.181961
0.822897 0.225775 0.185013
0.863681 0.226927 0.186423
0.182234 0.310590 0.173961
0.279090 0.313324 0.177215
0.373354 0.315985 0.180396
0.466136 0.318604 0.183535
0.557878 0.321193 0.186645
0.648818 0.323761 0.189731
0.739106 0.326309 0.192800
0.828846 0.328843 0.195852
0.872864 0.330085 0.197352
0.187635 0.411442 0.184596
0.284632 0.414180 0.187854
0.378963 0.416842 0.191036
0.471789 0.419462 0.194176
0.563564 0.422053 0.197285
0.655053 0.424633 0.200103
0.746321 0.427204 0.202675
0.837028 0.429760 0.205230
0.881834 0.431022 0.206493
0.192902 0.510903 0.195105
0.290047 0.513645 0.198366
0.385351 0.516331 0.201101
0.479196 0.518975 0.203745
0.571961 0.521588 0.206359
0.663899 0.524178 0.208949
0.755167 0.526750 0.211521
0.845873 0.529305 0.214076
0.890680 0.530568 0.215339
0.200491 0.609405 0.204402
0.298706 0.612172 0.207169
0.394106 0.614860 0.209857
0.487952 0.617504 0.212501
0.580717 0.620118 0.215114
0.672654 0.622708 0.217705
0.764282 0.625290 0.220286
0.855467 0.627859 0.222855
0.899436 0.629098 0.224094
0.209175 0.707136 0.213086
0.307390 0.709903 0.215853
0.402845 0.712592 0.218543
0.497185 0.715250 0.221201
0.590435 0.717877 0.223828
0.682851 0.720481 0.226432
0.774593 0.723066 0.229016
0.865768 0.725634 0.231585
0.908120 0.726828 0.232778
0.218589 0.804229 0.221734
0.317283 0.807010 0.224515
0.413160 0.809711 0.227216
0.507478 0.812368 0.229873
0.600711 0.814995 0.232500
0.693114 0.817599 0.235104
0.784845 0.820183 0.237688
0.876011 0.822752 0.240257
0.916746 0.823899 0.241404
0.228964 0.900792 0.230361
0.327583 0.903570 0.233140
0.423425 0.906271 0.235840
0.517720 0.908927 0.238497
0.610937 0.911554 0.241123
0.703327 0.914157 0.243726
0.795047 0.916741 0.246310
0.886204 0.919309 0.248878
0.925322 0.920411 0.249980
0.171406 0.105472 0.249095
0.268015 0.108198 0.252321
0.362158 0.110855 0.255476
0.454861 0.113472 0.258592
0.546543 0.116060 0.261678
0.637435 0.118625 0.264742
0.727683 0.121173 0.267788
0.817390 0.123705 0.270818
0.855447 0.124780 0.272140
0.177211 0.208464 0.259758
0.273944 0.211195 0.262987
0.368148 0.213853 0.266144
0.460891 0.216471 0.269260
0.552603 0.219060 0.272347
0.643520 0.221626 0.275412
0.733788 0.224174 0.278458
0.823512 0.226707 0.281488
0.864622 0.227867 0.282896
0.182814 0.311521 0.270516
0.279684 0.314255 0.273748
0.373954 0.316916 0.276907
0.466741 0.319535 0.280024
0.558485 0.322125 0.283112
0.649427 0.324692 0.286176
0.739718 0.327240 0.289223
0.829459 0.329773 0.292254
0.873803 0.331025 0.293746
0.188213 0.412372 0.281076
0.285225 0.415110 0.284312
0.379562 0.417773 0.287473
0.472393 0.420393 0.290591
0.564170 0.422984 0.293679
0.655991 0.425571 0.296326
0.747259 0.428143 0.298897
0.837966 0.430698 0.301453
0.882773 0.431960 0.302715
0.193479 0.511833 0.291512
0.290888 0.514581 0.294636
0.386289 0.517269 0.297324
0.480134 0.519913 0.299968
0.572899 0.522526 0.302581
0.664837 0.525117 0.305172
0.756105 0.527688 0.307743
0.846811 0.530244 0.310299
0.891618 0.531506 0.311561
0.201429 0.610343 0.300624
0.299644 0.613111 0.303392
0.395044 0.615798 0.306079
0.488890 0.618442 0.308723
0.581655 0.621056 0.311337
0.673633 0.623647 0.313928
0.765384 0.626232 0.316513
0.856568 0.628801 0.319082
0.900374 0.630036 0.320317
0.210113 0.708074 0.309309
0.308328 0.710841 0.312076
0.403953 0.713535 0.314770
0.498291 0.716193 0.317428
0.591540 0.718820 0.320055
0.683954 0.721424 0.322659
0.775695 0.724008 0.325244
0.866870 0.726577 0.327812
0.909058 0.727766 0.329001
0.219708 0.805173 0.317962
0.318395 0.807953 0.320742
0.414269 0.810654 0.323444
0.508584 0.813311 0.326101
0.601816 0.815938 0.328728
0.694217 0.818541 0.331331
0.785947 0.821126 0.333915
0.877112 0.823694 0.336484
0.917684 0.824837 0.337627
0.230084 0.901735 0.326589
0.328695 0.904513 0.329367
0.424534 0.907214 0.332067
0.518827 0.909870 0.334724
0.612042 0.912497 0.337350
0.704430 0.915100 0.339953
0.796149 0.917684 0.342537
0.887305 0.920252 0.345105
0.926260 0.921349 0.346203
0.171961 0.106376 0.342945
0.268583 0.109103 0.346160
0.362733 0.111761 0.349306
0.455439 0.114377 0.352411
0.547124 0.116965 0.355487
0.638019 0.119531 0.358541
0.728270 0.122078 0.361576
0.817978 0.124610 0.364597
0.856361 0.125694 0.365923
0.177765 0.209369 0.353575
0.274511 0.212099 0.356794
0.368722 0.214758 0.359941
0.461469 0.217376 0.363047
0.553185 0.219965 0.366124
0.644103 0.222531 0.369178
0.734374 0.225079 0.372214
0.824099 0.227612 0.375235
0.865536 0.228781 0.376647
0.183367 0.312426 0.364298
0.280251 0.315160 0.367521
0.374527 0.317821 0.370670
0.467318 0.320440 0.373777
0.559066 0.323029 0.376854
0.650011 0.325596 0.379909
0.740303 0.328145 0.382946
0.830046 0.330678 0.385967
0.874715 0.331937 0.387296
0.188764 0.413276 0.374825
0.285791 0.416014 0.378051
0.380135 0.418677 0.381202
0.472970 0.421297 0.384310
0.564966 0.423893 0.387286
0.656903 0.426483 0.389876
0.748171 0.429055 0.392447
0.838878 0.431610 0.395003
0.883685 0.432873 0.396265
0.194029 0.512736 0.385227
0.291800 0.515493 0.388186
0.387201 0.518181 0.390874
0.481046 0.520825 0.393518
0.573811 0.523438 0.396132
0.665749 0.526029 0.398722
0.757017 0.528600 0.401293
0.847724 0.531156 0.403849
0.892530 0.532418 0.405111
0.202341 0.611256 0.394174
0.300556 0.614023 0.396942
0.395957 0.616711 0.399629
0.489802 0.619355 0.402273
0.582567 0.621968 0.404887
0.674710 0.624564 0.407483
0.766460 0.627149 0.410068
0.857643 0.629718 0.412637
0.901286 0.630948 0.413867
0.211025 0.708986 0.402859
0.309240 0.711753 0.405626
0.405036 0.714452 0.408325
0.499372 0.717110 0.410983
0.592618 0.719737 0.413610
0.685032 0.722340 0.416214
0.776771 0.724925 0.418798
0.867945 0.727494 0.421367
0.909970 0.728678 0.422551
0.220802 0.806090 0.411517
0.319481 0.808870 0.414297
0.415351 0.811571 0.416998
0.509664 0.814228 0.419656
0.602894 0.816855 0.422282
0.695295 0.819458 0.424886
0.787023 0.822042 0.427470
0.878188 0.824611 0.430038
0.918596 0.825749 0.431177
0.231177 0.902652 0.420144
0.329781 0.905430 0.422922
0.425617 0.908131 0.425622
0.519907 0.910787 0.428279
0.613121 0.913413 0.430905
0.705508 0.916016 0.433508
0.797225 0.918600 0.436092
0.888381 0.921169 0.438660
0.927172 0.922261 0.439753
0.172501 0.107266 0.435240
0.269136 0.109993 0.438449
0.363292 0.112651 0.441588
0.456003 0.115268 0.444687
0.547691 0.117855 0.447756
0.638588 0.120421 0.450803
0.728841 0.122968 0.453833
0.818551 0.125500 0.456846
0.857261 0.126593 0.458178
0.178303 0.210259 0.445849
0.275063 0.212989 0.449062
0.369281 0.215648 0.452202
0.462032 0.218266 0.455302
0.553751 0.220855 0.458372
0.644672 0.223421 0.461420
0.734945 0.225969 0.464450
0.824672 0.228502 0.467464
0.866435 0.229681 0.468882
0.183905 0.313315 0.456550
0.280802 0.316050 0.459766
0.375086 0.318711 0.462909
0.467881 0.321330 0.466009
0.559632 0.323919 0.469081
0.650579 0.326486 0.472129
0.740874 0.329035 0.475159
0.830806 0.331572 0.478084
0.875613 0.332835 0.479346
0.189301 0.414165 0.467054
0.286342 0.416904 0.470274
0.380693 0.419567 0.473419
0.473533 0.422187 0.476520
0.565863 0.424790 0.479336
0.657801 0.427381 0.481926
0.749069 0.429952 0.484497
0.839775 0.432508 0.487053
0.884582 0.433770 0.488315
0.194564 0.513625 0.477434
0.292698 0.516390 0.480236
0.388099 0.519078 0.482924
0.481944 0.521722 0.485568
0.574709 0.524336 0.488182
0.666646 0.526926 0.490772
0.757915 0.529497 0.493343
0.848621 0.532053 0.495899
0.893428 0.533315 0.497161
0.203238 0.612153 0.486224
0.301453 0.614920 0.488992
0.396854 0.617608 0.491679
0.490699 0.620252 0.494323
0.583464 0.622866 0.496937
0.675773 0.625466 0.499538
0.767522 0.628051 0.502123
0.858704 0.630620 0.504692
0.902183 0.631845 0.505917
0.211923 0.709883 0.494909
0.310202 0.712652 0.497678
0.406104 0.715354 0.500380
0.500437 0.718012 0.503037
0.593682 0.720639 0.505665
0.686094 0.723243 0.508268
0.777833 0.725827 0.510853
0.869006 0.728396 0.513422
0.910868 0.729575 0.514601
0.221881 0.806992 0.503572
0.320552 0.809772 0.506352
0.416419 0.812473 0.509053
0.510730 0.815130 0.511710
0.603958 0.817757 0.514337
0.696357 0.820360 0.516940
0.788085 0.822945 0.519525
0.879248 0.825513 0.522093
0.919493 0.826647 0.523227
0.232256 0.903555 0.512199
0.330852 0.906333 0.514977
0.426684 0.909033 0.517677
0.520973 0.911689 0.520333
0.614185 0.914315 0.522960
0.706570 0.916918 0.525562
0.798287 0.919502 0.528146
0.889441 0.922071 0.530715
0.928070 0.923159 0.531803
0.173030 0.108146 0.526461
0.269678 0.110873 0.529665
0.363841 0.113531 0.532800
0.456556 0.116147 0.535893
0.548247 0.118735 0.538958
0.639147 0.121301 0.542001
0.729402 0.123848 0.545025
0.819113 0.126380 0.548034
0.858150 0.127482 0.549372
0.178832 0.211138 0.537054
0.275605 0.213869 0.540262
0.369829 0.216528 0.543398
0.462585 0.219146 0.546493
0.554307 0.221735 0.549559
0.645231 0.224301 0.552602
0.735506 0.226849 0.555627
0.825235 0.229382 0.558636
0.867324 0.230570 0.560060
0.184432 0.314194 0.547739
0.281344 0.316929 0.550950
0.375634 0.319590 0.554088
0.468434 0.322209 0.557184
0.560188 0.324799 0.560251
0.651138 0.327366 0.563294
0.741434 0.329914 0.566320
0.831693 0.332459 0.569086
0.876500 0.333722 0.570349
0.189827 0.415044 0.558226
0.286883 0.417783 0.561442
0.381241 0.420446 0.564582
0.474085 0.423066 0.567679
0.566750 0.425678 0.570338
0.658688 0.428268 0.572929
0.749956 0.430839 0.575500
0.840662 0.433395 0.578056
0.885469 0.434657 0.579318
0.195370 0.514510 0.568471
0.293585 0.517278 0.571239
0.388986 0.519965 0.573926
0.482831 0.522609 0.576570
0.575596 0.525223 0.579184
0.667534 0.527813 0.581774
0.758802 0.530385 0.584346
0.849508 0.532940 0.586901
0.894315 0.534203 0.588164
0.204125 0.613040 0.577227
0.302341 0.615807 0.579994
0.397741 0.618495 0.582682
0.491586 0.621139 0.585326
0.584401 0.623754 0.587941
0.676825 0.626358 0.590545
0.768573 0.628943 0.593130
0.859755 0.631512 0.595699
0.903070 0.632732 0.596919
0.212810 0.710770 0.585911
0.311264 0.713544 0.588685
0.407162 0.716246 0.591387
0.501493 0.718904 0.594045
0.594736 0.721531 0.596672
0.687147 0.724134 0.599275
0.778884 0.726719 0.601860
0.870056 0.729288 0.604429
0.911755 0.730463 0.605603
0.222950 0.807885 0.594580
0.321614 0.810664 0.597360
0.417477 0.813365 0.600060
0.511786 0.816022 0.602718
0.605012 0.818649 0.605344
0.697410 0.821252 0.607947
0.789136 0.823836 0.610532
0.880299 0.826405 0.613100
0.920381 0.827534 0.614229
0.233325 0.904447 0.603207
0.331913 0.907225 0.605984
0.427742 0.909925 0.608684
0.522028 0.912581 0.611341
0.615238 0.915207 0.613967
0.707623 0.917810 0.616570
0.799338 0.920394 0.619154
0.890492 0.922962 0.621722
0.928957 0.924046 0.622805
0.173551 0.109017 0.616861
0.270213 0.111745 0.620062
0.364382 0.114402 0.623193
0.457101 0.117019 0.626283
0.548796 0.119607 0.629344
0.639698 0.122173 0.632382
0.729955 0.124720 0.635403
0.819668 0.127252 0.638408
0.859031 0.128364 0.639754
0.179352 0.212009 0.627442
0.276139 0.214740 0.630647
0.370370 0.217400 0.633779
0.463130 0.220018 0.636870
0.554855 0.222606 0.639932
0.645782 0.225173 0.642971
0.736059 0.227721 0.645992
0.825789 0.230253 0.648998
0.868205 0.231451 0.650430
0.184951 0.315065 0.638114
0.281877 0.317800 0.641322
0.376174 0.320461 0.644456
0.468978 0.323081 0.647548
0.560736 0.325670 0.650611
0.651688 0.328237 0.653651
0.741987 0.330786 0.656673
0.832573 0.333339 0.659285
0.877379 0.334601 0.660547
0.190345 0.415915 0.648589
0.287416 0.418654 0.651801
0.381781 0.421317 0.654937
0.474865 0.423943 0.657923
0.567630 0.426557 0.660537
0.659567 0.429147 0.663127
0.750836 0.431719 0.665698
0.841542 0.434274 0.668254
0.886349 0.435537 0.669516
0.196249 0.515390 0.658670
0.294464 0.518157 0.661437
0.389865 0.520845 0.664125
0.483710 0.523489 0.666769
0.576475 0.526102 0.669382
0.668413 0.528693 0.671973
0.759681 0.531264 0.674544
0.850425 0.533821 0.677101
0.895194 0.535082 0.678362
0.205005 0.613920 0.667425
0.303220 0.616687 0.670192
0.398621 0.619375 0.672880
0.492466 0.622019 0.675524
0.585447 0.624638 0.678144
0.677870 0.627242 0.680748
0.769617 0.629827 0.683333
0.860797 0.632396 0.685902
0.903950 0.633612 0.687117
0.213689 0.711650 0.676110
0.312317 0.714429 0.678888
0.408212 0.717130 0.681590
0.502540 0.719788 0.684248
0.595782 0.722415 0.686875
0.688192 0.725018 0.689478
0.779928 0.727603 0.692063
0.871099 0.730172 0.694632
0.912634 0.731342 0.695802
0.224011 0.808769 0.684783
0.322667 0.811549 0.687563
0.418527 0.814249 0.690264
0.512833 0.816906 0.692921
0.606058 0.819533 0.695547
0.698455 0.822136 0.698150
0.790180 0.824720 0.700735
0.881342 0.827289 0.703303
0.921260 0.828413 0.704428
0.234386 0.905332 0.693410
0.332966 0.908109 0.696187
0.428792 0.910809 0.698887
0.523076 0.913465 0.701544
0.616284 0.916091 0.704170
0.708668 0.918694 0.706773
0.800382 0.921278 0.709356
0.891534 0.923846 0.711925
0.929836 0.924925 0.713004
0.174066 0.109882 0.706599
0.270740 0.112610 0.709797
0.364916 0.115268 0.712924
0.457640 0.117885 0.716011
0.549338 0.120473 0.719069
0.640242 0.123038 0.722105
0.730501 0.125586 0.725122
0.820216 0.128118 0.728124
0.859906 0.129238 0.729478
0.179866 0.212874 0.717170
0.276667 0.215605 0.720371
0.370904 0.218265 0.723501
0.463669 0.220883 0.726589
0.555397 0.223472 0.729647
0.646326 0.226038 0.732684
0.736605 0.228586 0.735702
0.826337 0.231119 0.738704
0.869080 0.232325 0.740143
0.185464 0.315929 0.727830
0.282404 0.318665 0.731036
0.376708 0.321327 0.734167
0.469516 0.323946 0.737256
0.561277 0.326536 0.740316
0.652232 0.329103 0.743353
0.742739 0.331656 0.746275
0.833446 0.334212 0.748831
0.878253 0.335474 0.750093
0.190857 0.416779 0.738294
0.287943 0.419519 0.741504
0.382314 0.422182 0.744637
0.475738 0.424816 0.747469
0.568503 0.427430 0.750083
0.660440 0.430020 0.752673
0.751709 0.432592 0.755244
0.842415 0.435147 0.757800
0.887222 0.436410 0.759062
0.197122 0.516263 0.748216
0.295338 0.519030 0.750983
0.390738 0.521718 0.753671
0.484583 0.524362 0.756315
0.577348 0.526975 0.758929
0.669286 0.529566 0.761519
0.760554 0.532137 0.764090
0.851461 0.534698 0.766651
0.896067 0.535955 0.767908
0.205878 0.614793 0.756971
0.304093 0.617560 0.759739
0.399494 0.620248 0.762426
0.493339 0.622892 0.765070
0.586487 0.625516 0.767695
0.678908 0.628120 0.770299
0.770654 0.630705 0.772883
0.861834 0.633274 0.775452
0.904823 0.634485 0.776664
0.214640 0.712525 0.765658
0.313364 0.715306 0.768439
0.409255 0.718008 0.771141
0.503582 0.720666 0.773799
0.596822 0.723293 0.776426
0.689230 0.725896 0.779029
0.780965 0.728481 0.781614
0.872135 0.731049 0.784182
0.913507 0.732215 0.785348
0.225066 0.809647 0.774335
0.323714 0.812427 0.777114
0.419571 0.815127 0.779815
0.513874 0.817784 0.782472
0.607098 0.820411 0.785098
0.699493 0.823014 0.787701
0.791217 0.825598 0.790285
0.882378 0.828166 0.792854
0.922133 0.829287 0.793974
0.235440 0.906210 0.782961
0.334013 0.908987 0.785739
0.429836 0.911687 0.788438
0.524117 0.914343 0.791095
0.617324 0.916969 0.793721
0.709706 0.919572 0.796323
0.801419 0.922156 0.798907
0.892571 0.924724 0.801475
0.930709 0.925799 0.802550
0.174575 0.110741 0.795780
0.271263 0.113470 0.798976
0.365445 0.116128 0.802101
0.458173 0.118745 0.805186
0.549874 0.121333 0.808241
0.640781 0.123898 0.811274
0.731042 0.126446 0.814289
0.820759 0.128978 0.817288
0.860775 0.130108 0.818649
0.180374 0.213733 0.806343
0.277189 0.216465 0.809542
0.371432 0.219125 0.812669
0.464202 0.221743 0.815754
0.555933 0.224332 0.818811
0.646865 0.226898 0.821844
0.737146 0.229446 0.824859
0.826880 0.231979 0.827859
0.869949 0.233195 0.829306
0.185971 0.316789 0.816994
0.282926 0.319525 0.820198
0.377236 0.322186 0.823326
0.470049 0.324806 0.826413
0.561813 0.327396 0.829470
0.652771 0.329963 0.832504
0.743607 0.332524 0.835274
0.834313 0.335080 0.837829
0.879120 0.336342 0.839092
0.191363 0.417638 0.827449
0.288464 0.420379 0.830657
0.382842 0.423042 0.833787
0.476605 0.425684 0.836468
0.569370 0.428298 0.839081
0.661308 0.430888 0.841671
0.752576 0.433459 0.844243
0.843283 0.436015 0.846798
0.888089 0.437277 0.848061
0.197990 0.517131 0.837214
0.296205 0.519898 0.839981
0.391606 0.522586 0.842669
0.485451 0.525230 0.845313
0.578216 0.527843 0.847927
0.670154 0.530433 0.850517
0.761422 0.533005 0.853089
0.852492 0.535571 0.855654
0.896935 0.536823 0.856906
0.206746 0.615660 0.845970
0.304961 0.618427 0.848737
0.400361 0.621115 0.851425
0.494266 0.623761 0.854070
0.587521 0.626388 0.856698
0.679941 0.628992 0.859302
0.771686 0.631577 0.861886
0.862864 0.634146 0.864455
0.905691 0.635352 0.865662
0.215689 0.713398 0.854661
0.314406 0.716179 0.857443
0.410294 0.718881 0.860144
0.504618 0.721538 0.862802
0.597856 0.724165 0.865429
0.690263 0.726768 0.868032
0.781997 0.729353 0.870617
0.873166 0.731922 0.873185
0.914375 0.733083 0.874346
0.226115 0.810520 0.863338
0.324756 0.813299 0.866117
0.420609 0.816000 0.868818
0.514910 0.818657 0.871475
0.608132 0.821283 0.874101
0.700526 0.823886 0.876704
0.792249 0.826470 0.879288
0.883409 0.829039 0.881857
0.923001 0.830154 0.882972
0.236489 0.907083 0.871965
0.335055 0.909860 0.874742
0.430874 0.912559 0.877441
0.525153 0.915216 0.880098
0.618358 0.917842 0.882724
0.710739 0.920444 0.885326
0.802451 0.923028 0.887910
0.893602 0.925596 0.890478
0.931577 0.926666 0.891548
