assets/luts/milk.cube
# MoodFilm Filter — milk
TITLE "milk"
LUT_3D_SIZE 5
0.170548 0.104073 0.104073
0.361260 0.109446 0.109446
0.545623 0.114641 0.114641
0.726747 0.119744 0.119744
0.853996 0.123329 0.123329
0.181926 0.310091 0.122202
0.373024 0.315475 0.127586
0.557534 0.320673 0.132784
0.738749 0.325779 0.137890
0.872321 0.329542 0.141653
0.192561 0.510370 0.139814
0.384806 0.515786 0.145231
0.571416 0.521043 0.150488
0.754622 0.526205 0.155650
0.890135 0.530023 0.159468
0.208630 0.706591 0.157216
0.402246 0.712046 0.162671
0.589799 0.717330 0.167955
0.773959 0.722518 0.173143
0.907575 0.726283 0.176908
0.228321 0.900244 0.174488
0.422788 0.905723 0.179967
0.610302 0.911006 0.185250
0.794413 0.916194 0.190437
0.924777 0.919867 0.194110
0.171406 0.105472 0.249095
0.362158 0.110855 0.255476
0.546543 0.116060 0.261678
0.727683 0.121173 0.267788
0.855447 0.124780 0.272140
0.182814 0.311521 0.270516
0.373954 0.316916 0.276907
0.558485 0.322125 0.283112
0.739718 0.327240 0.289223
0.873803 0.331025 0.293746
0.193479 0.511833 0.291512
0.386289 0.517269 0.297324
0.572899 0.522526 0.302581
0.756105 0.527688 0.307743
0.891618 0.531506 0.311561
0.210113 0.708074 0.309309
0.403953 0.713535 0.314770
0.591540 0.718820 0.320055
0.775695 0.724008 0.325244
0.909058 0.727766 0.329001
0.230084 0.901735 0.326589
0.424534 0.907214 0.332067
0.612042 0.912497 0.337350
0.796149 0.917684 0.342537
0.926260 0.921349 0.346203
0.172501 0.107266 0.435240
0.363292 0.112651 0.441588
0.547691 0.117855 0.447756
0.728841 0.122968 0.453833
0.857261 0.126593 0.458178
0.183905 0.313315 0.456550
0.375086 0.318711 0.462909
0.559632 0.323919 0.469081
0.740874 0.329035 0.475159
0.875613 0.332835 0.479346
0.194564 0.513625 0.477434
0.388099 0.519078 0.482924
0.574709 0.524336 0.488182
0.757915 0.529497 0.493343
0.893428 0.533315 0.497161
0.211923 0.709883 0.494909
0.406104 0.715354 0.500380
0.593682 0.720639 0.505665
0.777833 0.725827 0.510853
0.910868 0.729575 0.514601
0.232256 0.903555 0.512199
0.426684 0.909033 0.517677
0.614185 0.914315 0.522960
0.798287 0.919502 0.528146
0.928070 0.923159 0.531803
0.173551 0.109017 0.616861
0.364382 0.114402 0.623193
0.548796 0.119607 0.629344
0.729955 0.124720 0.635403
0.859031 0.128364 0.639754
0.184951 0.315065 0.638114
0.376174 0.320461 0.644456
0.560736 0.325670 0.650611
0.741987 0.330786 0.656673
0.877379 0.334601 0.660547
0.196249 0.515390 0.658670
0.389865 0.520845 0.664125
0.576475 0.526102 0.669382
0.759681 0.531264 0.674544
0.895194 0.535082 0.678362
0.213689 0.711650 0.676110
0.408212 0.717130 0.681590
0.595782 0.722415 0.686875
0.779928 0.727603 0.692063
0.912634 0.731342 0.695802
0.234386 0.905332 0.693410
0.428792 0.910809 0.698887
0.616284 0.916091 0.704170
0.800382 0.921278 0.709356
0.929836 0.924925 0.713004
0.174575 0.110741 0.795780
0.365445 0.116128 0.802101
0.549874 0.121333 0.808241
0.731042 0.126446 0.814289
0.860775 0.130108 0.818649
0.185971 0.316789 0.816994
0.377236 0.322186 0.823326
0.561813 0.327396 0.829470
0.743607 0.332524 0.835274
0.879120 0.336342 0.839092
0.197990 0.517131 0.837214
0.391606 0.522586 0.842669
0.578216 0.527843 0.847927
0.761422 0.533005 0.853089
0.896935 0.536823 0.856906
0.215689 0.713398 0.854661
0.410294 0.718881 0.860144
0.597856 0.724165 0.865429
0.781997 0.729353 0.870617
0.914375 0.733083 0.874346
0.236489 0.907083 0.871965
0.430874 0.912559 0.877441
0.618358 0.917842 0.882724
0.802451 0.923028 0.887910
0.931577 0.926666 0.891548
