assets/luts/milk.cube
# MoodFilm Filter — milk
TITLE "milk"
LUT_3D_SIZE 17
0.170548 0.104073 0.104073
0.219268 0.105446 0.105446
0.267132 0.106794 0.106794
0.314415 0.108127 0.108127
0.361260 0.109446 0.109446
0.407753 0.110756 0.110756
0.453951 0.112058 0.112058
0.499897 0.113352 0.113352
0.545623 0.114641 0.114641
0.591153 0.115923 0.115923
0.636506 0.117201 0.117201
0.681700 0.118474 0.118474
0.726747 0.119744 0.119744
0.771659 0.121009 0.121009
0.816445 0.122271 0.122271
0.853996 0.123329 0.123329
0.853996 0.123329 0.123329
0.173404 0.153992 0.108468
0.222160 0.155366 0.109842
0.270046 0.156715 0.111191
0.317345 0.158048 0.112524
0.364202 0.159368 0.113844
0.410705 0.160678 0.115154
0.456912 0.161980 0.116456
0.502866 0.163275 0.117751
0.548598 0.164563 0.119039
0.594134 0.165846 0.120322
0.639493 0.167124 0.121600
0.684691 0.168398 0.122873
0.729743 0.169667 0.124143
0.774659 0.170932 0.125408
0.819449 0.172194 0.126670
0.858436 0.173293 0.127769
0.858436 0.173293 0.127769
0.176338 0.207051 0.113137
0.225134 0.208425 0.114512
0.273045 0.209775 0.115862
0.320363 0.211108 0.117195
0.367235 0.212429 0.118516
0.413749 0.213739 0.119826
0.459966 0.215041 0.121128
0.505928 0.216336 0.122423
0.551668 0.217625 0.123712
0.597211 0.218908 0.124995
0.642576 0.220186 0.126273
0.687780 0.221460 0.127547
0.732836 0.222729 0.128816
0.777757 0.223995 0.130082
0.822552 0.225257 0.131344
0.863155 0.226401 0.132488
0.863155 0.226401 0.132488
0.179166 0.258936 0.117702
0.228004 0.260312 0.119078
0.275940 0.261662 0.120429
0.323276 0.262996 0.121762
0.370162 0.264317 0.123083
0.416688 0.265628 0.124394
0.462915 0.266930 0.125696
0.508886 0.268225 0.126992
0.554634 0.269514 0.128280
0.600183 0.270797 0.129564
0.645554 0.272076 0.130842
0.690763 0.273349 0.132116
0.735825 0.274619 0.133385
0.780751 0.275885 0.134651
0.825550 0.277147 0.135913
0.867770 0.278336 0.137103
0.867770 0.278336 0.137103
0.181926 0.310091 0.122202
0.230807 0.311468 0.123579
0.278769 0.312819 0.124930
0.326124 0.314154 0.126264
0.373024 0.315475 0.127586
0.419562 0.316786 0.128897
0.465799 0.318089 0.130200
0.511779 0.319384 0.131495
0.557534 0.320673 0.132784
0.603090 0.321957 0.134068
0.648467 0.323235 0.135346
0.693682 0.324509 0.136620
0.738749 0.325779 0.137890
0.783679 0.327045 0.139156
0.828483 0.328307 0.140418
0.872321 0.329542 0.141653
0.872321 0.329542 0.141653
0.184638 0.360716 0.126654
0.233562 0.362095 0.128033
0.281551 0.363447 0.129385
0.328924 0.364781 0.130720
0.375839 0.366103 0.132041
0.422389 0.367415 0.133353
0.468636 0.368718 0.134656
0.514624 0.370013 0.135951
0.560387 0.371303 0.137241
0.605950 0.372586 0.138524
0.651333 0.373865 0.139803
0.696554 0.375139 0.141077
0.741626 0.376409 0.142347
0.786728 0.377680 0.143618
0.832017 0.378956 0.144894
0.876824 0.380218 0.146156
0.876824 0.380218 0.146156
0.187310 0.410925 0.131070
0.236279 0.412305 0.132450
0.284294 0.413658 0.133802
0.331687 0.414993 0.135138
0.378616 0.416315 0.136460
0.425178 0.417627 0.137772
0.471435 0.418930 0.139075
0.517432 0.420226 0.140371
0.563203 0.421516 0.141660
0.608772 0.422800 0.142944
0.654508 0.424088 0.144233
0.700219 0.425376 0.145521
0.745777 0.426660 0.146804
0.791195 0.427939 0.148084
0.836483 0.429215 0.149360
0.881290 0.430478 0.150622
0.881290 0.430478 0.150622
0.189949 0.460793 0.135455
0.238964 0.462173 0.136836
0.287007 0.463527 0.138190
0.334418 0.464863 0.139525
0.381363 0.466185 0.140848
0.427937 0.467498 0.142160
0.474242 0.468802 0.143465
0.520740 0.470112 0.144775
0.567006 0.471416 0.146078
0.613067 0.472714 0.147376
0.658944 0.474006 0.148669
0.704654 0.475294 0.149956
0.750212 0.476577 0.151240
0.795630 0.477857 0.152520
0.840919 0.479133 0.153796
0.885726 0.480395 0.155058
0.885726 0.480395 0.155058
0.192561 0.510370 0.139814
0.241623 0.511752 0.141197
0.289693 0.513106 0.142551
0.337346 0.514449 0.143894
0.384806 0.515786 0.145231
0.431886 0.517112 0.146557
0.478651 0.518430 0.147875
0.525150 0.519740 0.149185
0.571416 0.521043 0.150488
0.617477 0.522341 0.151786
0.663354 0.523634 0.153079
0.709064 0.524922 0.154366
0.754622 0.526205 0.155650
0.800040 0.527485 0.156930
0.845329 0.528761 0.158206
0.890135 0.530023 0.159468
0.890135 0.530023 0.159468
0.195578 0.559707 0.144163
0.245198 0.561105 0.145561
0.293793 0.562474 0.146931
0.341734 0.563825 0.148281
0.389194 0.565162 0.149618
0.436273 0.566488 0.150945
0.483039 0.567806 0.152262
0.529538 0.569116 0.153572
0.575804 0.570419 0.154876
0.621865 0.571717 0.156174
0.667742 0.573010 0.157466
0.713452 0.574298 0.158754
0.759010 0.575581 0.160038
0.804428 0.576861 0.161317
0.849716 0.578137 0.162593
0.894523 0.579399 0.163856
0.894523 0.579399 0.163856
0.199946 0.608861 0.148531
0.249566 0.610259 0.149929
0.298161 0.611628 0.151298
0.346102 0.612978 0.152649
0.393562 0.614316 0.153986
0.440641 0.615642 0.155313
0.487407 0.616960 0.156630
0.533906 0.618270 0.157940
0.580172 0.619573 0.159244
0.626233 0.620871 0.160541
0.672110 0.622163 0.161834
0.717848 0.623452 0.163123
0.763648 0.624742 0.164413
0.809306 0.626029 0.165699
0.854833 0.627312 0.166982
0.898891 0.628553 0.168223
0.898891 0.628553 0.168223
0.204296 0.657816 0.152881
0.253916 0.659214 0.154279
0.302511 0.660583 0.155649
0.350452 0.661933 0.156999
0.397912 0.663271 0.158336
0.444991 0.664597 0.159663
0.491757 0.665915 0.160980
0.538256 0.667225 0.162290
0.584640 0.668531 0.163597
0.630945 0.669836 0.164902
0.677063 0.671135 0.166201
0.723014 0.672430 0.167496
0.768811 0.673720 0.168786
0.814467 0.675007 0.170072
0.859992 0.676289 0.171355
0.903241 0.677508 0.172574
0.903241 0.677508 0.172574
0.208630 0.706591 0.157216
0.258250 0.707989 0.158614
0.306845 0.709358 0.159983
0.354786 0.710709 0.161333
0.402246 0.712046 0.162671
0.449536 0.713378 0.164003
0.496548 0.714703 0.165327
0.543291 0.716020 0.166644
0.589799 0.717330 0.167955
0.636101 0.718634 0.169259
0.682216 0.719934 0.170558
0.728164 0.721228 0.171853
0.773959 0.722518 0.173143
0.819612 0.723805 0.174429
0.865135 0.725087 0.175712
0.907575 0.726283 0.176908
0.907575 0.726283 0.176908
0.212950 0.755202 0.161535
0.262624 0.756602 0.162935
0.311475 0.757978 0.164311
0.359666 0.759336 0.165669
0.407372 0.760680 0.167013
0.454695 0.762013 0.168346
0.501702 0.763337 0.169671
0.548440 0.764654 0.170987
0.594944 0.765964 0.172298
0.641242 0.767269 0.173602
0.687355 0.768568 0.174901
0.733299 0.769862 0.176196
0.779091 0.771153 0.177486
0.824742 0.772439 0.178772
0.870263 0.773721 0.180054
0.911895 0.774894 0.181227
0.911895 0.774894 0.181227
0.217945 0.803682 0.165861
0.267806 0.805087 0.167266
0.316643 0.806463 0.168642
0.364824 0.807820 0.169999
0.412523 0.809164 0.171343
0.459840 0.810497 0.172676
0.506841 0.811821 0.174000
0.553575 0.813138 0.175317
0.600076 0.814448 0.176627
0.646370 0.815752 0.177931
0.692479 0.817051 0.179230
0.738421 0.818346 0.180525
0.784211 0.819636 0.181815
0.829859 0.820922 0.183101
0.875378 0.822204 0.184383
0.916201 0.823355 0.185534
0.916201 0.823355 0.185534
0.223139 0.852028 0.170180
0.272976 0.853432 0.171584
0.321799 0.854808 0.172960
0.369970 0.856165 0.174317
0.417661 0.857509 0.175661
0.464972 0.858841 0.176994
0.511969 0.860166 0.178318
0.558698 0.861482 0.179634
0.605195 0.862792 0.180944
0.651485 0.864096 0.182248
0.697592 0.865395 0.183547
0.743531 0.866690 0.184842
0.789318 0.867980 0.186132
0.834964 0.869266 0.187418
0.880480 0.870548 0.188700
0.920495 0.871675 0.189827
0.920495 0.871675 0.189827
0.228321 0.900244 0.174488
0.278134 0.901648 0.175891
0.326943 0.903023 0.177266
0.375105 0.904380 0.178623
0.422788 0.905723 0.179967
0.470093 0.907056 0.181299
0.517084 0.908380 0.182623
0.563809 0.909697 0.183940
0.610302 0.911006 0.185250
0.656589 0.912311 0.186554
0.702692 0.913609 0.187853
0.748629 0.914904 0.189147
0.794413 0.916194 0.190437
0.840057 0.917480 0.191723
0.885571 0.918762 0.193005
0.924777 0.919867 0.194110
0.924777 0.919867 0.194110
0.170532 0.104073 0.104073
0.219253 0.105445 0.105445
0.267117 0.106794 0.106794
0.314400 0.108126 0.108126
0.361245 0.109446 0.109446
0.407738 0.110756 0.110756
0.453936 0.112057 0.112057
0.499883 0.113352 0.113352
0.545608 0.114640 0.114640
0.591138 0.115923 0.115923
0.636492 0.117201 0.117201
0.681685 0.118474 0.118474
0.726732 0.119743 0.119743
0.771646 0.121010 0.121179
0.816436 0.122275 0.122766
0.854004 0.123337 0.124137
0.854004 0.123337 0.124137
0.173388 0.153992 0.108468
0.222144 0.155366 0.109842
0.270030 0.156715 0.111191
0.317330 0.158047 0.112523
0.364187 0.159368 0.113844
0.410690 0.160678 0.115154
0.456897 0.161980 0.116456
0.502851 0.163274 0.117750
0.548584 0.164563 0.119039
0.594120 0.165846 0.120322
0.639480 0.167125 0.121766
0.684682 0.168402 0.123365
0.729736 0.169674 0.124949
0.774655 0.170943 0.126525
0.819449 0.172208 0.128094
0.858453 0.173309 0.129494
0.858453 0.173309 0.129494
0.176322 0.207050 0.113137
0.225119 0.208425 0.114512
0.273030 0.209775 0.115862
0.320348 0.211108 0.117195
0.367220 0.212428 0.118515
0.413734 0.213739 0.119826
0.459951 0.215041 0.121128
0.505917 0.216339 0.122709
0.551660 0.217631 0.124319
0.597205 0.218917 0.125915
0.642573 0.220198 0.127502
0.687780 0.221474 0.129082
0.732840 0.222747 0.130654
0.777763 0.224015 0.132221
0.822561 0.225280 0.133782
0.863182 0.226428 0.135222
0.863182 0.226428 0.135222
0.179150 0.258935 0.117702
0.227988 0.260311 0.119078
0.275925 0.261662 0.120428
0.323262 0.262996 0.121836
0.370151 0.264320 0.123487
0.416680 0.265634 0.125116
0.462911 0.266940 0.126730
0.508885 0.268238 0.128332
0.554635 0.269530 0.129926
0.600187 0.270816 0.131512
0.645561 0.272097 0.133090
0.690774 0.273374 0.134663
0.735838 0.274646 0.136230
0.780767 0.275915 0.137791
0.825569 0.277180 0.139349
0.867807 0.278373 0.140830
0.867807 0.278373 0.140830
0.181912 0.310092 0.122398
0.230797 0.311473 0.124099
0.278762 0.312827 0.125766
0.326120 0.314164 0.127410
0.373023 0.315489 0.129038
0.419565 0.316803 0.130653
0.465805 0.318109 0.132257
0.511787 0.319407 0.133852
0.557545 0.320699 0.135440
0.603104 0.321985 0.137020
0.648484 0.323267 0.138594
0.693702 0.324543 0.140162
0.738772 0.325816 0.141725
0.783705 0.327085 0.143284
0.828512 0.328350 0.144838
0.872366 0.329588 0.146362
0.872366 0.329588 0.146362
0.184634 0.360728 0.127912
0.233562 0.362109 0.129596
0.281554 0.363464 0.131251
0.328930 0.364802 0.132886
0.375848 0.366127 0.134507
0.422401 0.367441 0.136116
0.468651 0.368747 0.137716
0.514642 0.370046 0.139307
0.560408 0.371338 0.140890
0.605974 0.372624 0.142467
0.651360 0.373906 0.144038
0.696583 0.375183 0.145603
0.741658 0.376455 0.147163
0.786777 0.377728 0.148615
0.832066 0.379004 0.149891
0.876872 0.380267 0.151153
0.876872 0.380267 0.151153
0.187316 0.410947 0.133346
0.236289 0.412330 0.135024
0.284307 0.413685 0.136674
0.331702 0.415024 0.138305
0.378635 0.416349 0.139922
0.425200 0.417663 0.141528
0.471460 0.418969 0.143124
0.517460 0.420268 0.144712
0.563233 0.421561 0.146292
0.608806 0.422847 0.147866
0.654557 0.424137 0.149230
0.700267 0.425425 0.150518
0.745825 0.426708 0.151801
0.791243 0.427988 0.153081
0.836532 0.429264 0.154357
0.881338 0.430526 0.155619
0.881338 0.430526 0.155619
0.189965 0.460824 0.138730
0.238984 0.462208 0.140405
0.287029 0.463564 0.142052
0.334444 0.464903 0.143680
0.381391 0.466228 0.145295
0.427968 0.467543 0.146898
0.474290 0.468851 0.148462
0.520789 0.470161 0.149772
0.567055 0.471465 0.151076
0.613116 0.472762 0.152373
0.658993 0.474055 0.153666
0.704703 0.475343 0.154954
0.750261 0.476626 0.156237
0.795679 0.477906 0.157517
0.840967 0.479182 0.158793
0.885774 0.480444 0.160055
0.885774 0.480444 0.160055
0.192586 0.510411 0.144076
0.241652 0.511796 0.145749
0.289724 0.513153 0.147394
0.337395 0.514497 0.148891
0.384855 0.515835 0.150228
0.431935 0.517161 0.151554
0.478700 0.518479 0.152872
0.525199 0.519789 0.154182
0.571465 0.521092 0.155485
0.617526 0.522390 0.156783
0.663403 0.523682 0.158076
0.709113 0.524970 0.159364
0.754671 0.526254 0.160647
0.800089 0.527533 0.161927
0.845377 0.528809 0.163203
0.890184 0.530072 0.164465
0.890184 0.530072 0.164465
0.195627 0.559756 0.149161
0.245246 0.561154 0.150559
0.293842 0.562523 0.151928
0.341783 0.563873 0.153278
0.389243 0.565211 0.154615
0.436322 0.566537 0.155942
0.483088 0.567855 0.157259
0.529586 0.569165 0.158570
0.575853 0.570468 0.159873
0.621914 0.571766 0.161171
0.667790 0.573058 0.162463
0.713501 0.574346 0.163751
0.759059 0.575630 0.165035
0.804477 0.576909 0.166314
0.849765 0.578185 0.167590
0.894572 0.579448 0.168853
0.894572 0.579448 0.168853
0.199995 0.608909 0.153528
0.249614 0.610307 0.154926
0.298210 0.611677 0.156296
0.346151 0.613027 0.157646
0.393610 0.614364 0.158983
0.440690 0.615691 0.160310
0.487456 0.617008 0.161627
0.533954 0.618318 0.162937
0.580221 0.619622 0.164241
0.626281 0.620920 0.165539
0.672158 0.622212 0.166831
0.717904 0.623501 0.168120
0.763704 0.624791 0.169410
0.809362 0.626078 0.170697
0.854889 0.627360 0.171979
0.898940 0.628602 0.173221
0.898940 0.628602 0.173221
0.204345 0.657864 0.157879
0.253964 0.659262 0.159277
0.302560 0.660631 0.160646
0.350501 0.661982 0.161996
0.397961 0.663319 0.163334
0.445040 0.664646 0.164660
0.491806 0.665963 0.165978
0.538304 0.667273 0.167288
0.584696 0.668580 0.168595
0.631001 0.669885 0.169899
0.677119 0.671184 0.171199
0.723070 0.672479 0.172493
0.768867 0.673769 0.173783
0.814523 0.675056 0.175070
0.860048 0.676338 0.176352
0.903290 0.677557 0.177571
0.903290 0.677557 0.177571
0.208679 0.706640 0.162213
0.258299 0.708038 0.163611
0.306894 0.709407 0.164980
0.354835 0.710757 0.166331
0.402295 0.712095 0.167668
0.449592 0.713427 0.169000
0.496605 0.714752 0.170325
0.543347 0.716069 0.171642
0.589855 0.717379 0.172952
0.636157 0.718683 0.174257
0.682272 0.719983 0.175556
0.728220 0.721277 0.176850
0.774014 0.722567 0.178141
0.819668 0.723854 0.179427
0.865191 0.725136 0.180709
0.907624 0.726332 0.181905
0.907624 0.726332 0.181905
0.212999 0.755251 0.166532
0.262681 0.756650 0.167932
0.311531 0.758027 0.169308
0.359722 0.759385 0.170666
0.407428 0.760729 0.172010
0.454751 0.762062 0.173344
0.501758 0.763386 0.174668
0.548496 0.764703 0.175985
0.595000 0.766013 0.177295
0.641298 0.767318 0.178599
0.687411 0.768617 0.179899
0.733355 0.769911 0.181193
0.779147 0.771201 0.182483
0.824798 0.772488 0.183769
0.870319 0.773770 0.185052
0.911944 0.774943 0.186225
0.911944 0.774943 0.186225
0.218002 0.803731 0.170858
0.267863 0.805136 0.172263
0.316700 0.806511 0.173639
0.364881 0.807869 0.174996
0.412579 0.809213 0.176340
0.459896 0.810546 0.177673
0.506898 0.811870 0.178998
0.553631 0.813187 0.180314
0.600132 0.814497 0.181624
0.646426 0.815801 0.182929
0.692535 0.817100 0.184228
0.738477 0.818395 0.185522
0.784267 0.819685 0.186812
0.829915 0.820971 0.188098
0.875434 0.822253 0.189381
0.916250 0.823403 0.190531
0.916250 0.823403 0.190531
0.223196 0.852077 0.175177
0.273033 0.853481 0.176582
0.321855 0.854857 0.177957
0.370027 0.856214 0.179314
0.417717 0.857557 0.180658
0.465028 0.858890 0.181991
0.512025 0.860214 0.183315
0.558754 0.861531 0.184632
0.605251 0.862841 0.185942
0.651541 0.864145 0.187246
0.697648 0.865444 0.188545
0.743587 0.866739 0.189839
0.789374 0.868029 0.191129
0.835020 0.869315 0.192415
0.880536 0.870597 0.193697
0.920544 0.871724 0.194825
0.920544 0.871724 0.194825
0.228377 0.900293 0.179485
0.278191 0.901697 0.180889
0.327000 0.903072 0.182264
0.375161 0.904429 0.183621
0.422844 0.905772 0.184964
0.470149 0.907105 0.186297
0.517140 0.908429 0.187621
0.563865 0.909746 0.188937
0.610358 0.911055 0.190247
0.656645 0.912360 0.191551
0.702748 0.913658 0.192850
0.748685 0.914953 0.194144
0.794469 0.916243 0.195434
0.840113 0.917529 0.196720
0.885627 0.918811 0.198003
0.924826 0.919915 0.199107
0.924826 0.919915 0.199107
0.170823 0.104539 0.152389
0.219550 0.105914 0.154026
0.267419 0.107265 0.155638
0.314707 0.108600 0.157233
0.361556 0.109922 0.158817
0.408053 0.111235 0.160390
0.454255 0.112539 0.161955
0.500205 0.113836 0.163513
0.545934 0.115127 0.165064
0.591467 0.116412 0.166610
0.636823 0.117693 0.168151
0.682020 0.118969 0.169687
0.727070 0.120240 0.171219
0.771985 0.121508 0.172748
0.816775 0.122773 0.174272
0.854506 0.123838 0.175596
0.854506 0.123838 0.175596
0.173687 0.154466 0.157572
0.222450 0.155842 0.159209
0.270341 0.157194 0.160821
0.317645 0.158529 0.162417
0.364506 0.159852 0.164001
0.411013 0.161165 0.165574
0.457224 0.162469 0.167139
0.503181 0.163766 0.168697
0.548917 0.165057 0.170248
0.594456 0.166343 0.171794
0.639818 0.167623 0.173335
0.685019 0.168899 0.174872
0.730074 0.170171 0.176404
0.774993 0.171439 0.177932
0.819786 0.172704 0.179456
0.858953 0.173810 0.180820
0.858953 0.173810 0.180820
0.176629 0.207532 0.163127
0.225433 0.208910 0.164765
0.273349 0.210262 0.166378
0.320671 0.211598 0.167974
0.367547 0.212921 0.169558
0.414065 0.214234 0.171131
0.460286 0.215539 0.172696
0.506252 0.216837 0.174254
0.551995 0.218128 0.175806
0.597541 0.219414 0.177352
0.642909 0.220694 0.178892
0.688116 0.221971 0.180429
0.733176 0.223243 0.181961
0.778100 0.224511 0.183489
0.822897 0.225775 0.185013
0.863681 0.226927 0.186423
0.863681 0.226927 0.186423
0.179465 0.259426 0.168576
0.228311 0.260805 0.170216
0.276252 0.262158 0.171829
0.323593 0.263494 0.173426
0.370483 0.264818 0.175010
0.417013 0.266131 0.176583
0.463244 0.267436 0.178148
0.509218 0.268734 0.179706
0.554969 0.270026 0.181258
0.600522 0.271311 0.182804
0.645896 0.272592 0.184345
0.691108 0.273869 0.185881
0.736173 0.275141 0.187413
0.781102 0.276409 0.188941
0.825904 0.277674 0.190465
0.868305 0.278871 0.191920
0.868305 0.278871 0.191920
0.182234 0.310590 0.173961
0.231122 0.311970 0.175601
0.279090 0.313324 0.177215
0.326449 0.314661 0.178812
0.373354 0.315985 0.180396
0.419896 0.317298 0.181970
0.466136 0.318604 0.183535
0.512119 0.319902 0.185093
0.557878 0.321193 0.186645
0.603437 0.322480 0.188191
0.648818 0.323761 0.189731
0.694036 0.325037 0.191268
0.739106 0.326309 0.192800
0.784039 0.327578 0.194328
0.828846 0.328843 0.195852
0.872864 0.330085 0.197352
0.872864 0.330085 0.197352
0.184954 0.361224 0.179297
0.233886 0.362605 0.180938
0.281880 0.363960 0.182553
0.329258 0.365297 0.184150
0.376177 0.366621 0.185735
0.422731 0.367936 0.187309
0.468981 0.369241 0.188874
0.514973 0.370539 0.190432
0.560739 0.371831 0.191984
0.606305 0.373118 0.193530
0.651692 0.374399 0.195070
0.696916 0.375675 0.196607
0.741991 0.376948 0.198139
0.787273 0.378224 0.199488
0.832562 0.379500 0.200764
0.877368 0.380763 0.202027
0.877368 0.380763 0.202027
0.187635 0.411442 0.184596
0.236611 0.412824 0.186238
0.284632 0.414180 0.187854
0.332029 0.415517 0.189451
0.378963 0.416842 0.191036
0.425529 0.418157 0.192610
0.471789 0.419462 0.194176
0.517790 0.420761 0.195734
0.563564 0.422053 0.197285
0.609176 0.423340 0.198811
0.655053 0.424633 0.200103
0.700763 0.425921 0.201391
0.746321 0.427204 0.202675
0.791739 0.428484 0.203954
0.837028 0.429760 0.205230
0.881834 0.431022 0.206493
0.881834 0.431022 0.206493
0.190282 0.461317 0.189864
0.239305 0.462701 0.191507
0.287353 0.464057 0.193123
0.334769 0.465396 0.194721
0.381718 0.466721 0.196306
0.428296 0.468036 0.197880
0.474786 0.469347 0.199335
0.521285 0.470657 0.200645
0.567551 0.471960 0.201949
0.613612 0.473258 0.203247
0.659489 0.474551 0.204539
0.705199 0.475839 0.205827
0.750757 0.477122 0.207111
0.796175 0.478402 0.208390
0.841463 0.479678 0.209666
0.886270 0.480940 0.210929
0.886270 0.480940 0.210929
0.192902 0.510903 0.195105
0.241972 0.512288 0.196750
0.290047 0.513645 0.198366
0.337891 0.514993 0.199764
0.385351 0.516331 0.201101
0.432431 0.517657 0.202428
0.479196 0.518975 0.203745
0.525695 0.520285 0.205055
0.571961 0.521588 0.206359
0.618022 0.522886 0.207657
0.663899 0.524178 0.208949
0.709609 0.525466 0.210237
0.755167 0.526750 0.211521
0.800585 0.528029 0.212800
0.845873 0.529305 0.214076
0.890680 0.530568 0.215339
0.890680 0.530568 0.215339
0.196123 0.560252 0.200034
0.245742 0.561650 0.201432
0.294338 0.563019 0.202801
0.342279 0.564369 0.204152
0.389739 0.565707 0.205489
0.436818 0.567033 0.206815
0.483584 0.568351 0.208133
0.530082 0.569661 0.209443
0.576349 0.570964 0.210747
0.622410 0.572262 0.212044
0.668286 0.573554 0.213337
0.713997 0.574842 0.214625
0.759555 0.576126 0.215908
0.804973 0.577405 0.217188
0.850290 0.578682 0.218465
0.895068 0.579944 0.219726
0.895068 0.579944 0.219726
0.200491 0.609405 0.204402
0.250110 0.610803 0.205800
0.298706 0.612172 0.207169
0.346647 0.613523 0.208520
0.394106 0.614860 0.209857
0.441186 0.616187 0.211183
0.487952 0.617504 0.212501
0.534450 0.618814 0.213811
0.580717 0.620118 0.215114
0.626777 0.621416 0.216412
0.672654 0.622708 0.217705
0.718482 0.623999 0.218996
0.764282 0.625290 0.220286
0.809940 0.626576 0.221573
0.855467 0.627859 0.222855
0.899436 0.629098 0.224094
0.899436 0.629098 0.224094
0.204841 0.658360 0.208752
0.254460 0.659758 0.210150
0.303056 0.661127 0.211519
0.350997 0.662478 0.212870
0.398457 0.663815 0.214207
0.445536 0.665142 0.215533
0.492302 0.666459 0.216851
0.538800 0.667769 0.218161
0.585275 0.669079 0.219470
0.631580 0.670383 0.220775
0.677698 0.671683 0.222074
0.723648 0.672977 0.223369
0.769445 0.674268 0.224659
0.815101 0.675554 0.225946
0.860626 0.676837 0.227228
0.903786 0.678053 0.228444
0.903786 0.678053 0.228444
0.209175 0.707136 0.213086
0.258795 0.708534 0.214484
0.307390 0.709903 0.215853
0.355331 0.711253 0.217204
0.402845 0.712592 0.218543
0.450173 0.713925 0.219876
0.497185 0.715250 0.221201
0.543927 0.716567 0.222518
0.590435 0.717877 0.223828
0.636736 0.719182 0.225132
0.682851 0.720481 0.226432
0.728798 0.721775 0.227726
0.774593 0.723066 0.229016
0.820246 0.724352 0.230303
0.865768 0.725634 0.231585
0.908120 0.726828 0.232778
0.908120 0.726828 0.232778
0.213495 0.755747 0.217406
0.263265 0.757149 0.218808
0.312114 0.758525 0.220184
0.360304 0.759883 0.221542
0.408009 0.761227 0.222886
0.455331 0.762560 0.224219
0.502338 0.763885 0.225544
0.549076 0.765201 0.226861
0.595580 0.766512 0.228171
0.641877 0.767816 0.229475
0.687989 0.769115 0.230774
0.733934 0.770410 0.232069
0.779725 0.771700 0.233359
0.825376 0.772986 0.234645
0.870896 0.774268 0.235928
0.912440 0.775439 0.237098
0.912440 0.775439 0.237098
0.218589 0.804229 0.221734
0.268447 0.805634 0.223139
0.317283 0.807010 0.224515
0.365463 0.808367 0.225872
0.413160 0.809711 0.227216
0.460476 0.811044 0.228549
0.507478 0.812368 0.229873
0.554211 0.813685 0.231190
0.600711 0.814995 0.232500
0.647005 0.816300 0.233805
0.693114 0.817599 0.235104
0.739056 0.818893 0.236398
0.784845 0.820183 0.237688
0.830493 0.821469 0.238974
0.876011 0.822752 0.240257
0.916746 0.823899 0.241404
0.916746 0.823899 0.241404
0.223782 0.852576 0.226053
0.273617 0.853980 0.227458
0.322438 0.855355 0.228833
0.370609 0.856712 0.230190
0.418299 0.858056 0.231534
0.465609 0.859389 0.232867
0.512605 0.860713 0.234191
0.559334 0.862029 0.235507
0.605830 0.863339 0.236817
0.652120 0.864644 0.238122
0.698226 0.865943 0.239421
0.744165 0.867237 0.240715
0.789952 0.868527 0.242005
0.835598 0.869813 0.243291
0.881113 0.871095 0.244573
0.921040 0.872220 0.245698
0.921040 0.872220 0.245698
0.228964 0.900792 0.230361
0.278775 0.902195 0.231764
0.327583 0.903570 0.233140
0.375743 0.904927 0.234496
0.423425 0.906271 0.235840
0.470729 0.907604 0.237173
0.517720 0.908927 0.238497
0.564445 0.910244 0.239813
0.610937 0.911554 0.241123
0.657224 0.912858 0.242427
0.703327 0.914157 0.243726
0.749263 0.915451 0.245020
0.795047 0.916741 0.246310
0.840690 0.918027 0.247596
0.886204 0.919309 0.248878
0.925322 0.920411 0.249980
0.925322 0.920411 0.249980
0.171120 0.105010 0.201268
0.219851 0.106386 0.202897
0.267722 0.107737 0.204502
0.315012 0.109072 0.206090
0.361862 0.110394 0.207666
0.408360 0.111706 0.209232
0.454563 0.113011 0.210789
0.500513 0.114308 0.212340
0.546243 0.115598 0.213884
0.591777 0.116884 0.215422
0.637134 0.118164 0.216956
0.682331 0.119440 0.218485
0.727382 0.120712 0.220010
0.772297 0.121979 0.221531
0.817087 0.123244 0.223049
0.854981 0.124314 0.224370
0.854981 0.124314 0.224370
0.173983 0.154937 0.206428
0.222750 0.156313 0.208058
