assets/luts/mint.cube
# MoodFilm Filter — mint
TITLE "mint"
LUT_3D_SIZE 5
0.087721 0.153517 0.124753
0.211962 0.155198 0.127085
0.405461 0.157869 0.130754
0.600223 0.160580 0.134463
0.795740 0.163316 0.138196
0.106583 0.349544 0.137017
0.230822 0.351197 0.139349
0.424317 0.353823 0.143017
0.619074 0.356489 0.146726
0.814717 0.360457 0.151339
0.125632 0.547480 0.149667
0.250093 0.551312 0.153499
0.443930 0.557280 0.159467
0.639028 0.563287 0.165474
0.834883 0.569317 0.171504
0.145890 0.757302 0.169925
0.270430 0.761915 0.174176
0.464493 0.770128 0.181348
0.659818 0.778380 0.188560
0.855899 0.786656 0.195795
0.161109 0.914712 0.187308
0.285577 0.918551 0.191784
0.479425 0.924530 0.198742
0.674534 0.930547 0.205739
0.870399 0.936588 0.212759
0.089622 0.154412 0.312790
0.213863 0.156093 0.315099
0.407362 0.158764 0.318731
0.602123 0.161475 0.322402
0.797639 0.164211 0.326097
0.108481 0.350423 0.324928
0.232719 0.352076 0.327234
0.426214 0.354702 0.330863
0.620971 0.357367 0.334530
0.816730 0.362470 0.339911
0.127644 0.549492 0.338239
0.252106 0.553325 0.342071
0.445942 0.559293 0.348039
0.641041 0.565300 0.354046
0.836968 0.572054 0.360473
0.147911 0.759395 0.358541
0.272520 0.764691 0.363172
0.466583 0.772904 0.370365
0.661908 0.781156 0.377598
0.857989 0.789432 0.384853
0.163126 0.916729 0.376269
0.287594 0.920568 0.380760
0.481442 0.926547 0.387737
0.676552 0.932565 0.394754
0.872417 0.938606 0.401794
0.091542 0.155327 0.502662
0.215783 0.157008 0.504963
0.409282 0.159679 0.508583
0.604043 0.162391 0.512242
0.799559 0.165127 0.515924
0.110400 0.351322 0.514757
0.234638 0.352975 0.517055
0.428132 0.355601 0.520671
0.622910 0.358474 0.524471
0.818764 0.364504 0.530501
0.129679 0.551527 0.528829
0.254140 0.555359 0.532662
0.447977 0.561327 0.538630
0.643075 0.567334 0.544637
0.839079 0.574848 0.551483
0.150022 0.762191 0.549550
0.274631 0.767487 0.554185
0.468695 0.775701 0.561385
0.664020 0.783953 0.568624
0.860101 0.792229 0.575886
0.165164 0.918767 0.567221
0.289633 0.922606 0.571716
0.483480 0.928585 0.578700
0.678590 0.934603 0.585723
0.874455 0.940644 0.592769
0.093472 0.156251 0.693431
0.217713 0.157933 0.695727
0.411211 0.160604 0.699339
0.605972 0.163316 0.702990
0.801489 0.166053 0.706665
0.112328 0.352231 0.705498
0.236566 0.353884 0.707791
0.430060 0.356511 0.711399
0.624954 0.360518 0.715994
0.820808 0.366549 0.722024
0.131723 0.553571 0.720352
0.256184 0.557403 0.724184
0.450021 0.563371 0.730152
0.645120 0.569384 0.736163
0.841200 0.577651 0.743428
0.152143 0.764998 0.741494
0.276752 0.770294 0.746131
0.470816 0.778508 0.753335
0.666141 0.786760 0.760578
0.862222 0.795036 0.767844
0.167212 0.920815 0.759101
0.291681 0.924654 0.763599
0.485528 0.930633 0.770587
0.680638 0.936651 0.777613
0.876503 0.942692 0.784664
0.095036 0.156943 0.848639
0.219291 0.158639 0.852265
0.412812 0.161333 0.857917
0.607595 0.164067 0.863608
0.803133 0.166827 0.869322
0.113964 0.352983 0.867567
0.238216 0.354651 0.871190
0.431733 0.357299 0.876837
0.626734 0.362298 0.882747
0.822588 0.368328 0.888777
0.133503 0.555351 0.887105
0.257964 0.559183 0.890938
0.451801 0.565151 0.896906
0.646963 0.571820 0.902977
0.843032 0.580077 0.909222
0.153979 0.767429 0.907582
0.278581 0.772718 0.911554
0.472633 0.780920 0.917738
0.667948 0.789162 0.923961
0.864018 0.797427 0.930207
0.168957 0.922560 0.922560
0.293418 0.926392 0.926392
0.487255 0.932360 0.932360
0.682354 0.938367 0.938367
0.878208 0.944397 0.944397
