assets/luts/mint.cube
# MoodFilm Filter — mint
TITLE "mint"
LUT_3D_SIZE 17
0.087721 0.153517 0.124753
0.087721 0.153517 0.124753
0.116266 0.153896 0.125284
0.163953 0.154542 0.126180
0.211962 0.155198 0.127085
0.260160 0.155860 0.127997
0.308494 0.156527 0.128913
0.356934 0.157196 0.129832
0.405461 0.157869 0.130754
0.454062 0.158544 0.131678
0.502728 0.159221 0.132605
0.551450 0.159899 0.133533
0.600223 0.160580 0.134463
0.649042 0.161262 0.135394
0.697903 0.161945 0.136327
0.746804 0.162630 0.137261
0.795740 0.163316 0.138196
0.092413 0.202275 0.127794
0.092413 0.202275 0.127794
0.120957 0.202652 0.128324
0.168644 0.203294 0.129220
0.216653 0.203946 0.130126
0.264850 0.204603 0.131037
0.313184 0.205265 0.131953
0.361624 0.205931 0.132872
0.410150 0.206599 0.133793
0.458751 0.207269 0.134718
0.507416 0.207942 0.135644
0.556137 0.208616 0.136572
0.604910 0.209292 0.137501
0.653729 0.209969 0.138433
0.702589 0.210648 0.139365
0.751489 0.211328 0.140299
0.800425 0.212009 0.141234
0.097124 0.251234 0.130855
0.097124 0.251234 0.130855
0.125668 0.251608 0.131385
0.173355 0.252248 0.132281
0.221363 0.252897 0.133186
0.269560 0.253552 0.134098
0.317894 0.254211 0.135013
0.366333 0.254873 0.135932
0.414859 0.255538 0.136854
0.463460 0.256206 0.137778
0.512124 0.256876 0.138704
0.560846 0.257547 0.139632
0.609618 0.258220 0.140562
0.658436 0.258894 0.141493
0.707297 0.259570 0.142426
0.756196 0.260247 0.143360
0.805132 0.260925 0.144295
0.101848 0.300334 0.133930
0.101848 0.300334 0.133930
0.130392 0.300707 0.134461
0.178079 0.301344 0.135356
0.226087 0.301991 0.136262
0.274284 0.302644 0.137173
0.322617 0.303301 0.138089
0.371056 0.303961 0.139008
0.419583 0.304625 0.139930
0.468183 0.305290 0.140854
0.516847 0.305957 0.141780
0.565568 0.306627 0.142708
0.614340 0.307297 0.143638
0.663158 0.307970 0.144569
0.712019 0.308643 0.145502
0.760918 0.309318 0.146436
0.809854 0.309994 0.147371
0.106583 0.349544 0.137017
0.106583 0.349544 0.137017
0.135127 0.349916 0.137548
0.182814 0.350551 0.138443
0.230822 0.351197 0.139349
0.279019 0.351848 0.140260
0.327352 0.352503 0.141176
0.375791 0.353162 0.142095
0.424317 0.353823 0.143017
0.472917 0.354487 0.143942
0.521581 0.355153 0.144868
0.570302 0.355820 0.145796
0.619074 0.356489 0.146726
0.667892 0.357160 0.147658
0.716752 0.357832 0.148590
0.765697 0.358948 0.149829
0.814717 0.360457 0.151339
0.111327 0.398843 0.140113
0.111327 0.398843 0.140113
0.139871 0.399215 0.140644
0.187558 0.399849 0.141540
0.235565 0.400493 0.142446
0.283762 0.401143 0.143357
0.332095 0.401797 0.144273
0.380534 0.402454 0.145193
0.429060 0.403114 0.146115
0.477660 0.403776 0.147039
0.526324 0.404440 0.147966
0.575044 0.405106 0.148894
0.623893 0.406523 0.150338
0.672796 0.408029 0.151844
0.721742 0.409536 0.153351
0.770726 0.411044 0.154859
0.819747 0.412553 0.156369
0.116078 0.448219 0.143218
0.116078 0.448219 0.143218
0.144622 0.448590 0.143749
0.192309 0.449223 0.144645
0.240316 0.449866 0.145551
0.288513 0.450514 0.146463
0.336846 0.451167 0.147379
0.385284 0.451823 0.148298
0.433832 0.452699 0.149370
0.482518 0.454198 0.150869
0.531267 0.455699 0.152370
0.580074 0.457202 0.153872
0.628931 0.458706 0.155377
0.677835 0.460212 0.156882
0.726780 0.461719 0.158389
0.775765 0.463227 0.159898
0.824785 0.464736 0.161407
0.120836 0.497661 0.146330
0.120836 0.497661 0.146330
0.149380 0.498031 0.146861
0.197066 0.498663 0.147757
0.245073 0.499305 0.148663
0.293324 0.500475 0.149933
0.341742 0.501966 0.151424
0.390266 0.503460 0.152918
0.438878 0.504957 0.154415
0.487563 0.506456 0.155914
0.536313 0.507957 0.157415
0.585119 0.509459 0.158918
0.633977 0.510964 0.160422
0.682880 0.512469 0.161928
0.731826 0.513977 0.163435
0.780810 0.515485 0.164943
0.829831 0.516994 0.166452
0.125632 0.547480 0.149667
0.125632 0.547480 0.149667
0.154228 0.548360 0.150547
0.202000 0.549831 0.152018
0.250093 0.551312 0.153499
0.298376 0.552798 0.154985
0.346794 0.554289 0.156476
0.395318 0.555783 0.157970
0.443930 0.557280 0.159467
0.492615 0.558779 0.160966
0.541365 0.560280 0.162467
0.590171 0.561783 0.163970
0.639028 0.563287 0.165474
0.687932 0.564793 0.166980
0.736878 0.566300 0.168487
0.785862 0.567808 0.169995
0.834883 0.569317 0.171504
0.130689 0.599861 0.154724
0.130689 0.599861 0.154724
0.159285 0.600742 0.155605
0.207057 0.602213 0.157075
0.255150 0.603693 0.158556
0.303433 0.605180 0.160043
0.351851 0.606671 0.161534
0.400376 0.608165 0.163028
0.448987 0.609661 0.164524
0.497673 0.611160 0.166023
0.546422 0.612661 0.167524
0.595229 0.614164 0.169027
0.644086 0.615668 0.170531
0.693006 0.617342 0.172127
0.742008 0.619409 0.173935
0.791049 0.621477 0.175744
0.840126 0.623546 0.177554
0.135752 0.652295 0.159787
0.135752 0.652295 0.159787
0.164348 0.653176 0.160667
0.212120 0.654646 0.162138
0.260213 0.656127 0.163619
0.308496 0.657614 0.165105
0.356914 0.659105 0.166596
0.405438 0.660599 0.168090
0.454050 0.662095 0.169587
0.502735 0.663594 0.171086
0.551522 0.665467 0.172787
0.600385 0.667530 0.174590
0.649299 0.669595 0.176395
0.698259 0.671661 0.178202
0.747261 0.673728 0.180010
0.796302 0.675797 0.181819
0.845379 0.677866 0.183629
0.140819 0.704777 0.164854
0.140819 0.704777 0.164854
0.169415 0.705657 0.165734
0.217187 0.707128 0.167205
0.265280 0.708609 0.168686
0.313563 0.710095 0.170172
0.361983 0.711602 0.171672
0.410564 0.713657 0.173467
0.459232 0.715714 0.175264
0.507973 0.717774 0.177064
0.556780 0.719836 0.178866
0.605642 0.721899 0.180670
0.654556 0.723964 0.182475
0.703516 0.726031 0.184282
0.752518 0.728099 0.186090
0.801560 0.730168 0.187899
0.850637 0.732238 0.189710
0.145890 0.757302 0.169925
0.145890 0.757302 0.169925
0.174486 0.758183 0.170806
0.222281 0.759873 0.172394
0.270430 0.761915 0.174176
0.318769 0.763963 0.175964
0.367244 0.766015 0.177755
0.415825 0.768070 0.179551
0.464493 0.770128 0.181348
0.513235 0.772189 0.183148
0.562041 0.774251 0.184950
0.610904 0.776315 0.186754
0.659818 0.778380 0.188560
0.708778 0.780447 0.190367
0.757781 0.782516 0.192175
0.806822 0.784585 0.193984
0.855899 0.786656 0.195795
0.151087 0.811074 0.175647
0.151087 0.811074 0.175647
0.179718 0.812296 0.176710
0.227546 0.814329 0.178482
0.275696 0.816371 0.180264
0.324035 0.818419 0.182052
0.372510 0.820472 0.183844
0.421091 0.822528 0.185639
0.469759 0.824586 0.187437
0.518501 0.826647 0.189237
0.567307 0.828709 0.191039
0.616170 0.830774 0.192843
0.665084 0.832840 0.194649
0.714044 0.834907 0.196456
0.763047 0.836976 0.198264
0.812088 0.839046 0.200074
0.861165 0.841117 0.201884
0.156357 0.865569 0.181739
0.156357 0.865569 0.181739
0.184987 0.866791 0.182802
0.232816 0.868824 0.184574
0.280966 0.870867 0.186356
0.329305 0.872916 0.188144
0.377780 0.874969 0.189936
0.426361 0.877025 0.191732
0.475029 0.879084 0.193530
0.523771 0.881145 0.195330
0.572577 0.883208 0.197132
0.621440 0.885272 0.198936
0.670354 0.887339 0.200742
0.719314 0.889407 0.202549
0.768317 0.891476 0.204357
0.817358 0.893546 0.206167
0.866435 0.895617 0.207978
0.161109 0.914712 0.187308
0.161109 0.914712 0.187308
0.189707 0.915594 0.188338
0.237482 0.917068 0.190056
0.285577 0.918551 0.191784
0.333863 0.920040 0.193518
0.382284 0.921534 0.195256
0.430811 0.923030 0.196998
0.479425 0.924530 0.198742
0.528113 0.926031 0.200488
0.576865 0.927535 0.202237
0.625674 0.929040 0.203987
0.674534 0.930547 0.205739
0.723440 0.932056 0.207492
0.772388 0.933565 0.209246
0.821376 0.935076 0.211002
0.870399 0.936588 0.212759
0.161109 0.914712 0.187308
0.161109 0.914712 0.187308
0.189707 0.915594 0.188338
0.237482 0.917068 0.190056
0.285577 0.918551 0.191784
0.333863 0.920040 0.193518
0.382284 0.921534 0.195256
0.430811 0.923030 0.196998
0.479425 0.924530 0.198742
0.528113 0.926031 0.200488
0.576865 0.927535 0.202237
0.625674 0.929040 0.203987
0.674534 0.930547 0.205739
0.723440 0.932056 0.207492
0.772388 0.933565 0.209246
0.821376 0.935076 0.211002
0.870399 0.936588 0.212759
0.088193 0.153737 0.171441
0.088193 0.153737 0.171441
0.116737 0.154116 0.171969
0.164425 0.154762 0.172861
0.212434 0.155419 0.173762
0.260632 0.156081 0.174670
0.308966 0.156747 0.175581
0.357406 0.157417 0.176496
0.405933 0.158089 0.177414
0.454534 0.158764 0.178334
0.503199 0.159441 0.179256
0.551921 0.160119 0.180180
0.600694 0.160800 0.181106
0.649513 0.161482 0.182032
0.698374 0.162165 0.182961
0.747275 0.162850 0.183890
0.796211 0.163536 0.184821
0.092884 0.202494 0.174468
0.092884 0.202494 0.174468
0.121429 0.202870 0.174996
0.169116 0.203512 0.175887
0.217124 0.204164 0.176788
0.265322 0.204822 0.177696
0.313655 0.205484 0.178607
0.362095 0.206149 0.179522
0.410621 0.206817 0.180439
0.459222 0.207488 0.181359
0.507887 0.208160 0.182281
0.556608 0.208834 0.183204
0.605381 0.209510 0.184129
0.654200 0.210187 0.185056
0.703060 0.210866 0.185984
0.751960 0.211546 0.186913
0.800896 0.212227 0.187843
0.097595 0.251451 0.177514
0.097595 0.251451 0.177514
0.126139 0.251826 0.178042
0.173826 0.252465 0.178933
0.221834 0.253114 0.179835
0.270031 0.253769 0.180742
0.318365 0.254428 0.181653
0.366804 0.255091 0.182567
0.415330 0.255756 0.183485
0.463931 0.256423 0.184404
0.512595 0.257093 0.185326
0.561316 0.257764 0.186249
0.610089 0.258437 0.187174
0.658907 0.259111 0.188100
0.707768 0.259787 0.189028
0.756667 0.260464 0.189957
0.805602 0.261142 0.190887
0.102319 0.300550 0.180575
0.102319 0.300550 0.180575
0.130863 0.300924 0.181103
0.178550 0.301561 0.181994
0.226558 0.302208 0.182895
0.274755 0.302861 0.183802
0.323088 0.303518 0.184713
0.371527 0.304178 0.185628
0.420053 0.304841 0.186545
0.468653 0.305506 0.187464
0.517318 0.306174 0.188386
0.566039 0.306843 0.189309
0.614811 0.307514 0.190234
0.663629 0.308186 0.191160
0.712489 0.308859 0.192088
0.761389 0.309534 0.193017
0.810324 0.310210 0.193947
0.107054 0.349760 0.183647
0.107054 0.349760 0.183647
0.135598 0.350132 0.184175
0.183285 0.350767 0.185066
0.231292 0.351413 0.185967
0.279489 0.352064 0.186874
0.327822 0.352719 0.187785
0.376261 0.353378 0.188699
0.424787 0.354039 0.189616
0.473387 0.354703 0.190535
0.522051 0.355368 0.191457
0.570772 0.356036 0.192380
0.619544 0.356705 0.193305
0.668362 0.357375 0.194231
0.717222 0.358047 0.195159
0.766196 0.359447 0.196592
0.815216 0.360957 0.198101
0.111798 0.399059 0.186727
0.111798 0.399059 0.186727
0.140342 0.399430 0.187255
0.188028 0.400064 0.188146
0.236036 0.400708 0.189047
0.284233 0.401358 0.189954
0.332565 0.402012 0.190865
0.381004 0.402669 0.191780
0.429530 0.403329 0.192697
0.478130 0.403991 0.193616
0.526794 0.404655 0.194537
0.575535 0.405518 0.195597
0.624392 0.407022 0.197101
0.673295 0.408528 0.198607
0.722241 0.410035 0.200114
0.771226 0.411543 0.201622
0.820246 0.413052 0.203131
0.116549 0.448434 0.189816
0.116549 0.448434 0.189816
0.145093 0.448805 0.190344
0.192779 0.449438 0.191235
0.240786 0.450080 0.192136
0.288983 0.450729 0.193043
0.337316 0.451382 0.193954
0.385754 0.452038 0.194868
0.434332 0.453198 0.196132
0.483017 0.454697 0.197631
0.531767 0.456198 0.199132
0.580573 0.457701 0.200635
0.629430 0.459205 0.202139
0.678334 0.460711 0.203645
0.727279 0.462218 0.205152
0.776264 0.463726 0.206660
0.825284 0.465235 0.208170
0.121306 0.497875 0.192911
0.121306 0.497875 0.192911
0.149850 0.498245 0.193439
0.197536 0.498877 0.194330
0.245543 0.499519 0.195231
0.293823 0.500974 0.196696
0.342241 0.502465 0.198187
0.390766 0.503959 0.199681
0.439377 0.505456 0.201178
0.488062 0.506955 0.202677
0.536812 0.508456 0.204178
0.585618 0.509959 0.205681
0.634476 0.511463 0.207185
0.683379 0.512969 0.208691
0.732325 0.514476 0.210198
0.781309 0.515984 0.211706
0.830330 0.517493 0.213215
0.126131 0.547979 0.196429
0.126131 0.547979 0.196429
0.154727 0.548859 0.197310
0.202499 0.550330 0.198781
0.250592 0.551811 0.200261
0.298875 0.553298 0.201748
0.347293 0.554788 0.203239
0.395817 0.556282 0.204733
0.444429 0.557779 0.206230
0.493114 0.559278 0.207729
0.541864 0.560779 0.209230
0.590670 0.562282 0.210732
0.639528 0.563786 0.212237
0.688431 0.565292 0.213742
0.737377 0.566799 0.215249
0.786361 0.568307 0.216758
0.835397 0.569970 0.218350
0.131188 0.600360 0.201487
0.131188 0.600360 0.201487
0.159784 0.601241 0.202367
0.207556 0.602712 0.203838
0.255650 0.604192 0.205319
0.303932 0.605679 0.206806
0.352351 0.607170 0.208296
0.400875 0.608664 0.209790
0.449486 0.610161 0.211287
0.498172 0.611660 0.212786
0.546921 0.613161 0.214287
0.595728 0.614663 0.215790
0.644585 0.616168 0.217294
0.693525 0.618031 0.218994
0.742527 0.620098 0.220804
0.791568 0.622166 0.222616
0.840645 0.624235 0.224429
0.136251 0.652794 0.206549
0.136251 0.652794 0.206549
0.164847 0.653675 0.207430
0.212619 0.655146 0.208901
0.260712 0.656626 0.210381
0.308995 0.658113 0.211868
0.357413 0.659604 0.213359
0.405937 0.661098 0.214853
0.454549 0.662595 0.216350
0.503234 0.664095 0.217850
0.552041 0.666157 0.219654
0.600903 0.668220 0.221460
0.649817 0.670284 0.223268
0.698777 0.672350 0.225077
0.747779 0.674418 0.226888
0.796820 0.676486 0.228700
0.845898 0.678556 0.230513
0.141318 0.705276 0.211616
0.141318 0.705276 0.211616
0.169914 0.706156 0.212497
0.217686 0.707627 0.213968
0.265779 0.709108 0.215449
0.314062 0.710595 0.216935
0.362501 0.712291 0.218537
0.411082 0.714346 0.220335
0.459750 0.716404 0.222135
0.508492 0.718464 0.223938
0.557298 0.720525 0.225742
0.606161 0.722589 0.227549
0.655075 0.724654 0.229357
0.704035 0.726721 0.231166
0.753037 0.728788 0.232977
0.802078 0.730857 0.234788
0.851155 0.732928 0.236601
0.146389 0.757801 0.216688
0.146389 0.757801 0.216688
0.174985 0.758682 0.217568
0.222799 0.760563 0.219261
0.270949 0.762605 0.221046
0.319288 0.764653 0.222836
0.367763 0.766705 0.224630
0.416344 0.768760 0.226428
0.465012 0.770818 0.228228
0.513754 0.772879 0.230031
0.562560 0.774941 0.231835
0.611423 0.777005 0.233642
0.660337 0.779070 0.235450
0.709297 0.781137 0.237259
0.758299 0.783206 0.239070
0.807340 0.785275 0.240882
0.856417 0.787346 0.242695
0.151606 0.811764 0.222518
0.151606 0.811764 0.222518
0.180236 0.812986 0.223583
0.228065 0.815019 0.225358
0.276214 0.817061 0.227142
0.324554 0.819109 0.228933
0.373029 0.821162 0.230727
0.421610 0.823218 0.232525
0.470278 0.825276 0.234325
0.519020 0.827337 0.236128
0.567826 0.829399 0.237933
0.616689 0.831464 0.239739
0.665603 0.833530 0.241547
0.714563 0.835597 0.243357
0.763565 0.837666 0.245167
0.812607 0.839736 0.246979
0.861684 0.841807 0.248792
0.156875 0.866259 0.228619
0.156875 0.866259 0.228619
0.185506 0.867482 0.229684
0.233334 0.869515 0.231459
0.281484 0.871557 0.233243
0.329823 0.873606 0.235033
0.378298 0.875659 0.236828
0.426880 0.877715 0.238626
0.475548 0.879774 0.240426
0.524290 0.881835 0.242229
0.573096 0.883898 0.244034
0.621959 0.885963 0.245840
0.670873 0.888029 0.247648
0.719833 0.890097 0.249458
0.768836 0.892166 0.251269
0.817877 0.894236 0.253081
0.866954 0.896308 0.254894
0.161610 0.915212 0.234178
0.161610 0.915212 0.234178
0.190207 0.916094 0.235210
0.237982 0.917568 0.236931
0.286078 0.919051 0.238661
0.334363 0.920541 0.240398
0.382784 0.922034 0.242138
0.431311 0.923531 0.243882
0.479925 0.925030 0.245628
0.528613 0.926532 0.247377
0.577366 0.928036 0.249128
0.626175 0.929541 0.250880
0.675035 0.931048 0.252635
0.723941 0.932556 0.254390
0.772889 0.934066 0.256147
0.821876 0.935577 0.257905
0.870900 0.937089 0.259664
0.161610 0.915212 0.234178
0.161610 0.915212 0.234178
0.190207 0.916094 0.235210
0.237982 0.917568 0.236931
0.286078 0.919051 0.238661
0.334363 0.920541 0.240398
0.382784 0.922034 0.242138
0.431311 0.923531 0.243882
0.479925 0.925030 0.245628
0.528613 0.926532 0.247377
0.577366 0.928036 0.249128
0.626175 0.929541 0.250880
0.675035 0.931048 0.252635
0.723941 0.932556 0.254390
0.772889 0.934066 0.256147
0.821876 0.935577 0.257905
0.870900 0.937089 0.259664
0.088667 0.153961 0.218401
0.088667 0.153961 0.218401
0.117212 0.154339 0.218928
0.164900 0.154986 0.219818
0.212908 0.155642 0.220717
0.261106 0.156304 0.221622
0.309440 0.156970 0.222532
0.357880 0.157640 0.223445
0.406407 0.158312 0.224360
0.455008 0.158987 0.225278
0.503674 0.159664 0.226198
0.552396 0.160343 0.227119
0.601168 0.161023 0.228042
0.649988 0.161705 0.228967
0.698849 0.162388 0.229893
0.747749 0.163073 0.230820
0.796685 0.163759 0.231749
0.093359 0.202716 0.221421
0.093359 0.202716 0.221421
0.121903 0.203092 0.221948
0.169590 0.203734 0.222837
0.217598 0.204386 0.223736
0.265796 0.205044 0.224641
0.314130 0.205706 0.225550
0.362569 0.206371 0.226462
0.411096 0.207039 0.227377
0.459696 0.207709 0.228295
0.508361 0.208382 0.229214
0.557083 0.209056 0.230135
0.605855 0.209732 0.231058
0.654674 0.210409 0.231982
0.703534 0.211088 0.232908
0.752434 0.211768 0.233835
0.801370 0.212449 0.234763
0.098069 0.251672 0.224460
0.098069 0.251672 0.224460
0.126613 0.252047 0.224986
0.174300 0.252686 0.225875
0.222308 0.253335 0.226774
0.270506 0.253990 0.227679
0.318839 0.254649 0.228588
0.367278 0.255311 0.229500
0.415804 0.255976 0.230415
0.464405 0.256644 0.231332
0.513069 0.257313 0.232251
0.561790 0.257985 0.233172
0.610563 0.258658 0.234095
0.659381 0.259332 0.235019
0.708241 0.260008 0.235944
0.757141 0.260685 0.236871
0.806076 0.261363 0.237798
0.102793 0.300770 0.227513
0.102793 0.300770 0.227513
0.131337 0.301144 0.228039
0.179024 0.301781 0.228928
0.227032 0.302428 0.229827
0.275229 0.303081 0.230731
0.323562 0.303738 0.231640
0.372001 0.304398 0.232552
0.420527 0.305061 0.233467
0.469127 0.305726 0.234384
0.517792 0.306394 0.235303
0.566513 0.307063 0.236224
0.615285 0.307733 0.237146
0.664103 0.308406 0.238070
0.712963 0.309079 0.238995
0.761862 0.309754 0.239922
0.810798 0.310430 0.240849
0.107528 0.349979 0.230577
0.107528 0.349979 0.230577
0.136072 0.350351 0.231103
0.183759 0.350987 0.231992
0.231766 0.351632 0.232890
0.279963 0.352283 0.233795
0.328296 0.352938 0.234704
0.376735 0.353597 0.235616
0.425261 0.354258 0.236530
0.473861 0.354922 0.237447
0.522525 0.355587 0.238366
0.571246 0.356255 0.239287
0.620018 0.356924 0.240209
0.668836 0.357594 0.241133
0.717714 0.358442 0.242180
0.766698 0.359950 0.243689
0.815719 0.361459 0.245198
0.112272 0.399277 0.233649
0.112272 0.399277 0.233649
0.140815 0.399649 0.234176
0.188502 0.400283 0.235064
0.236509 0.400927 0.235963
0.284706 0.401576 0.236867
0.333039 0.402230 0.237776
0.381478 0.402888 0.238688
0.430004 0.403548 0.239602
0.478603 0.404210 0.240519
0.527267 0.404874 0.241438
0.576037 0.406020 0.242693
0.624895 0.407525 0.244198
0.673798 0.409031 0.245703
0.722744 0.410538 0.247210
0.771728 0.412046 0.248719
0.820749 0.413555 0.250228
0.117022 0.448652 0.236730
0.117022 0.448652 0.236730
0.145566 0.449023 0.237256
0.193253 0.449656 0.238145
0.241260 0.450298 0.239043
0.289457 0.450947 0.239948
0.337789 0.451600 0.240856
0.386228 0.452256 0.241768
0.434834 0.453701 0.243229
0.483520 0.455200 0.244728
0.532269 0.456701 0.246229
0.581076 0.458203 0.247732
0.629933 0.459708 0.249236
0.678836 0.461214 0.250742
0.727782 0.462721 0.252249
0.776767 0.464229 0.253757
0.825787 0.465738 0.255266
0.121780 0.498093 0.239817
0.121780 0.498093 0.239817
0.150323 0.498463 0.240343
0.198010 0.499095 0.241232
0.246043 0.499990 0.242306
0.294325 0.501477 0.243793
0.342744 0.502968 0.245284
0.391268 0.504462 0.246778
0.439880 0.505959 0.248274
0.488565 0.507458 0.249773
0.537315 0.508959 0.251274
0.586121 0.510461 0.252777
0.634978 0.511966 0.254281
0.683882 0.513471 0.255787
0.732828 0.514978 0.257294
0.781812 0.516487 0.258802
0.830833 0.517996 0.260312
0.126634 0.548481 0.243526
0.126634 0.548481 0.243526
0.155230 0.549362 0.244406
0.203002 0.550833 0.245877
0.251095 0.552314 0.247358
0.299377 0.553800 0.248845
0.347796 0.555291 0.250335
0.396320 0.556785 0.251829
0.444932 0.558282 0.253326
0.493617 0.559781 0.254825
0.542367 0.561282 0.256326
0.591173 0.562785 0.257829
0.640030 0.564289 0.259333
0.688934 0.565795 0.260839
0.737879 0.567302 0.262346
0.786864 0.568810 0.263854
0.835919 0.570663 0.265551
0.131691 0.600863 0.248583
0.131691 0.600863 0.248583
0.160287 0.601743 0.249464
0.208059 0.603214 0.250935
0.256152 0.604695 0.252415
0.304435 0.606182 0.253902
0.352853 0.607672 0.255393
0.401378 0.609167 0.256887
0.449989 0.610663 0.258384
0.498674 0.612162 0.259883
0.547424 0.613663 0.261384
0.596230 0.615166 0.262886
0.645088 0.616670 0.264391
0.694046 0.618724 0.266195
0.743049 0.620791 0.268006
0.792090 0.622859 0.269819
0.841167 0.624928 0.271633
0.136754 0.653297 0.253646
0.136754 0.653297 0.253646
0.165350 0.654177 0.254526
0.213122 0.655648 0.255997
0.261215 0.657129 0.257478
0.309497 0.658616 0.258965
0.357916 0.660106 0.260455
0.406440 0.661600 0.261949
0.455052 0.663097 0.263446
0.503756 0.664788 0.265050
0.552562 0.666850 0.266855
0.601425 0.668913 0.268663
0.650339 0.670977 0.270472
0.699299 0.673043 0.272282
0.748301 0.675111 0.274094
0.797342 0.677179 0.275907
0.846419 0.679249 0.277721
0.141821 0.705779 0.258713
0.141821 0.705779 0.258713
0.170417 0.706659 0.259594
0.218189 0.708130 0.261064
0.266282 0.709611 0.262545
0.314564 0.711097 0.264032
0.363023 0.712985 0.265738
0.411604 0.715039 0.267537
0.460272 0.717097 0.269338
0.509014 0.719157 0.271142
0.557820 0.721219 0.272948
0.606683 0.723282 0.274756
0.655597 0.725347 0.276565
0.704557 0.727414 0.278375
0.753559 0.729482 0.280187
0.802600 0.731551 0.282000
0.851677 0.733621 0.283814
0.146892 0.758304 0.263784
0.146892 0.758304 0.263784
0.175492 0.759224 0.264687
0.223321 0.761256 0.266462
0.271470 0.763298 0.268248
0.319810 0.765346 0.270039
0.368285 0.767398 0.271835
0.416866 0.769454 0.273634
0.465534 0.771512 0.275435
0.514276 0.773572 0.277239
0.563082 0.775634 0.279045
0.611945 0.777698 0.280853
0.660859 0.779764 0.282662
0.709819 0.781831 0.284473
0.758821 0.783899 0.286284
0.807862 0.785969 0.288098
0.856940 0.788039 0.289912
0.152127 0.812458 0.269722
0.152127 0.812458 0.269722
0.180758 0.813680 0.270787
0.228587 0.815712 0.272563
0.276736 0.817755 0.274349
0.325076 0.819803 0.276140
0.373551 0.821855 0.277936
0.422132 0.823911 0.279735
0.470800 0.825970 0.281537
0.519542 0.828030 0.283341
0.568348 0.830093 0.285147
0.617211 0.832157 0.286954
0.666125 0.834223 0.288763
0.715085 0.836291 0.290574
0.764088 0.838360 0.292386
0.813129 0.840430 0.294199
0.862206 0.842501 0.296014
0.157397 0.866953 0.275826
0.157397 0.866953 0.275826
0.186028 0.868175 0.276892
0.233856 0.870208 0.278668
0.282006 0.872251 0.280454
0.330345 0.874300 0.282245
0.378821 0.876353 0.284041
0.427402 0.878409 0.285840
0.476070 0.880468 0.287642
0.524812 0.882529 0.289446
0.573618 0.884592 0.291252
0.622481 0.886657 0.293060
0.671395 0.888723 0.294869
0.720355 0.890791 0.296680
0.769358 0.892860 0.298492
0.818399 0.894930 0.300305
0.867476 0.897002 0.302119
0.162113 0.915716 0.281371
0.162113 0.915716 0.281371
0.190711 0.916598 0.282404
0.238486 0.918072 0.284126
0.286582 0.919555 0.285858
0.334867 0.921044 0.287595
0.383288 0.922538 0.289337
0.431815 0.924035 0.291082
0.480429 0.925534 0.292830
0.529117 0.927036 0.294580
0.577869 0.928539 0.296332
0.626679 0.930045 0.298085
0.675538 0.931552 0.299841
0.724445 0.933060 0.301597
0.773393 0.934570 0.303355
0.822380 0.936081 0.305115
0.871403 0.937593 0.306875
0.162113 0.915716 0.281371
0.162113 0.915716 0.281371
0.190711 0.916598 0.282404
0.238486 0.918072 0.284126
0.286582 0.919555 0.285858
0.334867 0.921044 0.287595
0.383288 0.922538 0.289337
0.431815 0.924035 0.291082
0.480429 0.925534 0.292830
0.529117 0.927036 0.294580
0.577869 0.928539 0.296332
0.626679 0.930045 0.298085
0.675538 0.931552 0.299841
0.724445 0.933060 0.301597
0.773393 0.934570 0.303355
0.822380 0.936081 0.305115
0.871403 0.937593 0.306875
0.089144 0.154186 0.265533
0.089144 0.154186 0.265533
0.117689 0.154565 0.266059
0.165376 0.155211 0.266947
0.213385 0.155867 0.267845
0.261583 0.156529 0.268749
0.309917 0.157195 0.269657
0.358357 0.157865 0.270568
0.406884 0.158537 0.271482
0.455485 0.159212 0.272398
0.504150 0.159889 0.273316
0.552872 0.160568 0.274236
0.601645 0.161248 0.275158
0.650464 0.161930 0.276081
0.699325 0.162614 0.277005
0.748225 0.163298 0.277931
0.797162 0.163984 0.278858
0.093835 0.202939 0.268547
0.093835 0.202939 0.268547
