assets/luts/mint.cube
# MoodFilm Filter — mint
TITLE "mint"
LUT_3D_SIZE 9
0.087721 0.153517 0.124753
0.116266 0.153896 0.125284
0.211962 0.155198 0.127085
0.308494 0.156527 0.128913
0.405461 0.157869 0.130754
0.502728 0.159221 0.132605
0.600223 0.160580 0.134463
0.697903 0.161945 0.136327
0.795740 0.163316 0.138196
0.097124 0.251234 0.130855
0.125668 0.251608 0.131385
0.221363 0.252897 0.133186
0.317894 0.254211 0.135013
0.414859 0.255538 0.136854
0.512124 0.256876 0.138704
0.609618 0.258220 0.140562
0.707297 0.259570 0.142426
0.805132 0.260925 0.144295
0.106583 0.349544 0.137017
0.135127 0.349916 0.137548
0.230822 0.351197 0.139349
0.327352 0.352503 0.141176
0.424317 0.353823 0.143017
0.521581 0.355153 0.144868
0.619074 0.356489 0.146726
0.716752 0.357832 0.148590
0.814717 0.360457 0.151339
0.116078 0.448219 0.143218
0.144622 0.448590 0.143749
0.240316 0.449866 0.145551
0.336846 0.451167 0.147379
0.433832 0.452699 0.149370
0.531267 0.455699 0.152370
0.628931 0.458706 0.155377
0.726780 0.461719 0.158389
0.824785 0.464736 0.161407
0.125632 0.547480 0.149667
0.154228 0.548360 0.150547
0.250093 0.551312 0.153499
0.346794 0.554289 0.156476
0.443930 0.557280 0.159467
0.541365 0.560280 0.162467
0.639028 0.563287 0.165474
0.736878 0.566300 0.168487
0.834883 0.569317 0.171504
0.135752 0.652295 0.159787
0.164348 0.653176 0.160667
0.260213 0.656127 0.163619
0.356914 0.659105 0.166596
0.454050 0.662095 0.169587
0.551522 0.665467 0.172787
0.649299 0.669595 0.176395
0.747261 0.673728 0.180010
0.845379 0.677866 0.183629
0.145890 0.757302 0.169925
0.174486 0.758183 0.170806
0.270430 0.761915 0.174176
0.367244 0.766015 0.177755
0.464493 0.770128 0.181348
0.562041 0.774251 0.184950
0.659818 0.778380 0.188560
0.757781 0.782516 0.192175
0.855899 0.786656 0.195795
0.156357 0.865569 0.181739
0.184987 0.866791 0.182802
0.280966 0.870867 0.186356
0.377780 0.874969 0.189936
0.475029 0.879084 0.193530
0.572577 0.883208 0.197132
0.670354 0.887339 0.200742
0.768317 0.891476 0.204357
0.866435 0.895617 0.207978
0.161109 0.914712 0.187308
0.189707 0.915594 0.188338
0.285577 0.918551 0.191784
0.382284 0.921534 0.195256
0.479425 0.924530 0.198742
0.576865 0.927535 0.202237
0.674534 0.930547 0.205739
0.772388 0.933565 0.209246
0.870399 0.936588 0.212759
0.088667 0.153961 0.218401
0.117212 0.154339 0.218928
0.212908 0.155642 0.220717
0.309440 0.156970 0.222532
0.406407 0.158312 0.224360
0.503674 0.159664 0.226198
0.601168 0.161023 0.228042
0.698849 0.162388 0.229893
0.796685 0.163759 0.231749
0.098069 0.251672 0.224460
0.126613 0.252047 0.224986
0.222308 0.253335 0.226774
0.318839 0.254649 0.228588
0.415804 0.255976 0.230415
0.513069 0.257313 0.232251
0.610563 0.258658 0.234095
0.708241 0.260008 0.235944
0.806076 0.261363 0.237798
0.107528 0.349979 0.230577
0.136072 0.350351 0.231103
0.231766 0.351632 0.232890
0.328296 0.352938 0.234704
0.425261 0.354258 0.236530
0.522525 0.355587 0.238366
0.620018 0.356924 0.240209
0.717714 0.358442 0.242180
0.815719 0.361459 0.245198
0.117022 0.448652 0.236730
0.145566 0.449023 0.237256
0.241260 0.450298 0.239043
0.337789 0.451600 0.240856
0.434834 0.453701 0.243229
0.532269 0.456701 0.246229
0.629933 0.459708 0.249236
0.727782 0.462721 0.252249
0.825787 0.465738 0.255266
0.126634 0.548481 0.243526
0.155230 0.549362 0.244406
0.251095 0.552314 0.247358
0.347796 0.555291 0.250335
0.444932 0.558282 0.253326
0.542367 0.561282 0.256326
0.640030 0.564289 0.259333
0.737879 0.567302 0.262346
0.835919 0.570663 0.265551
0.136754 0.653297 0.253646
0.165350 0.654177 0.254526
0.261215 0.657129 0.257478
0.357916 0.660106 0.260455
0.455052 0.663097 0.263446
0.552562 0.666850 0.266855
0.650339 0.670977 0.270472
0.748301 0.675111 0.274094
0.846419 0.679249 0.277721
0.146892 0.758304 0.263784
0.175492 0.759224 0.264687
0.271470 0.763298 0.268248
0.368285 0.767398 0.271835
0.465534 0.771512 0.275435
0.563082 0.775634 0.279045
0.660859 0.779764 0.282662
0.758821 0.783899 0.286284
0.856940 0.788039 0.289912
0.157397 0.866953 0.275826
0.186028 0.868175 0.276892
0.282006 0.872251 0.280454
0.378821 0.876353 0.284041
0.476070 0.880468 0.287642
0.573618 0.884592 0.291252
0.671395 0.888723 0.294869
0.769358 0.892860 0.298492
0.867476 0.897002 0.302119
0.162113 0.915716 0.281371
0.190711 0.916598 0.282404
0.286582 0.919555 0.285858
0.383288 0.922538 0.289337
0.480429 0.925534 0.292830
0.577869 0.928539 0.296332
0.675538 0.931552 0.299841
0.773393 0.934570 0.303355
0.871403 0.937593 0.306875
0.089622 0.154412 0.312790
0.118166 0.154791 0.313316
0.213863 0.156093 0.315099
0.310395 0.157422 0.316909
0.407362 0.158764 0.318731
0.504628 0.160116 0.320563
0.602123 0.161475 0.322402
0.699803 0.162840 0.324247
0.797639 0.164211 0.326097
0.099023 0.252119 0.318830
0.127567 0.252493 0.319355
0.223262 0.253781 0.321137
0.319792 0.255095 0.322945
0.416758 0.256423 0.324767
0.514023 0.257760 0.326598
0.611516 0.259104 0.328435
0.709195 0.260454 0.330279
0.807030 0.261809 0.332128
0.108481 0.350423 0.324928
0.137025 0.350795 0.325453
0.232719 0.352076 0.327234
0.329249 0.353382 0.329042
0.426214 0.354702 0.330863
0.523478 0.356031 0.332693
0.620971 0.357367 0.334530
0.718725 0.359453 0.336893
0.816730 0.362470 0.339911
0.117975 0.449094 0.331062
0.146519 0.449465 0.331586
0.242213 0.450740 0.333368
0.338742 0.452041 0.335175
0.435845 0.454712 0.337942
0.533280 0.457712 0.340942
0.630944 0.460719 0.343949
0.728793 0.463731 0.346962
0.826798 0.466749 0.349979
0.127644 0.549492 0.338239
0.156240 0.550373 0.339119
0.252106 0.553325 0.342071
0.348807 0.556302 0.345048
0.445942 0.559293 0.348039
0.543377 0.562293 0.351039
0.641041 0.565300 0.354046
0.738890 0.568312 0.357059
0.836968 0.572054 0.360473
0.137764 0.654308 0.348359
0.166360 0.655188 0.349239
0.262226 0.658140 0.352191
0.358927 0.661117 0.355168
0.456064 0.664120 0.358166
0.553612 0.668241 0.361778
0.651389 0.672369 0.365398
0.749351 0.676502 0.369023
0.847469 0.680641 0.372653
0.147911 0.759395 0.358541
0.176541 0.760616 0.359608
0.272520 0.764691 0.363172
0.369334 0.768791 0.366762
0.466583 0.772904 0.370365
0.564131 0.777026 0.373978
0.661908 0.781156 0.377598
0.759871 0.785292 0.381223
0.857989 0.789432 0.384853
0.158447 0.868346 0.370756
0.187077 0.869568 0.371823
0.283056 0.873644 0.375388
0.379870 0.877745 0.378978
0.477119 0.881860 0.382581
0.574668 0.885985 0.386194
0.672445 0.890116 0.389814
0.770407 0.894253 0.393440
0.868526 0.898395 0.397070
0.163126 0.916729 0.376269
0.191724 0.917611 0.377303
0.287594 0.920568 0.380760
0.384301 0.923551 0.384242
0.481442 0.926547 0.387737
0.578882 0.929552 0.391242
0.676552 0.932565 0.394754
0.774406 0.935583 0.398272
0.872417 0.938606 0.401794
0.090580 0.154868 0.407585
0.119125 0.155247 0.408109
0.214821 0.156549 0.409889
0.311353 0.157878 0.411695
0.408320 0.159220 0.413514
0.505586 0.160572 0.415343
0.603081 0.161931 0.417178
0.700761 0.163297 0.419020
0.798598 0.164668 0.420866
0.099981 0.252569 0.413612
0.128525 0.252944 0.414136
0.224220 0.254232 0.415915
0.320750 0.255546 0.417719
0.417716 0.256874 0.419537
0.514980 0.258211 0.421364
0.612474 0.259555 0.423198
0.710153 0.260905 0.425038
0.807987 0.262260 0.426883
0.109439 0.350871 0.419698
0.137983 0.351243 0.420221
0.233677 0.352524 0.421999
0.330207 0.353830 0.423803
0.427172 0.355150 0.425620
0.524435 0.356479 0.427447
0.621928 0.357816 0.429281
0.719740 0.360468 0.432040
0.817745 0.363486 0.435058
0.118933 0.449540 0.425819
0.147476 0.449911 0.426343
0.243170 0.451186 0.428120
0.339725 0.452736 0.430098
0.436861 0.455727 0.433089
0.534296 0.458727 0.436089
0.631959 0.461734 0.439096
0.729808 0.464747 0.442108
0.827814 0.467765 0.445126
0.128660 0.550508 0.433386
0.157256 0.551388 0.434266
0.253121 0.554340 0.437218
0.349822 0.557317 0.440195
0.446958 0.560308 0.443186
0.544393 0.563308 0.446186
0.642057 0.566315 0.449193
0.739906 0.569328 0.452206
0.838022 0.573449 0.455829
0.138780 0.655323 0.443506
0.167376 0.656204 0.444386
0.263241 0.659155 0.447338
0.359942 0.662133 0.450315
0.457118 0.665517 0.453521
0.554666 0.669637 0.457136
0.652443 0.673765 0.460757
0.750405 0.677899 0.464384
0.848523 0.682037 0.468016
0.148965 0.760791 0.453897
0.177595 0.762013 0.454964
0.273574 0.766087 0.458530
0.370388 0.770187 0.462122
0.467637 0.774301 0.465727
0.565186 0.778423 0.469342
0.662963 0.782553 0.472963
0.760925 0.786688 0.476590
0.859043 0.790829 0.480222
0.159501 0.869743 0.466118
0.188131 0.870965 0.467186
0.284110 0.875041 0.470752
0.380924 0.879143 0.474344
0.478174 0.883258 0.477950
0.575722 0.887382 0.481564
0.673499 0.891513 0.485186
0.771462 0.895651 0.488813
0.869580 0.899792 0.492446
0.164144 0.917746 0.471598
0.192741 0.918629 0.472632
0.288612 0.921586 0.476090
0.385318 0.924568 0.479574
0.482460 0.927565 0.483072
0.579900 0.930570 0.486579
0.677569 0.933582 0.490092
0.775424 0.936601 0.493612
0.873434 0.939624 0.497136
0.091542 0.155327 0.502662
0.120087 0.155706 0.503186
0.215783 0.157008 0.504963
0.312315 0.158337 0.506766
0.409282 0.159679 0.508583
0.506548 0.161031 0.510409
0.604043 0.162391 0.512242
0.701723 0.163756 0.514081
0.799559 0.165127 0.515924
0.100942 0.253023 0.508680
0.129486 0.253398 0.509203
0.225181 0.254686 0.510979
0.321711 0.256000 0.512781
0.418677 0.257328 0.514597
0.515941 0.258665 0.516421
0.613435 0.260009 0.518253
0.711114 0.261359 0.520090
0.808948 0.262714 0.521932
0.110400 0.351322 0.514757
0.138944 0.351695 0.515280
0.234638 0.352975 0.517055
0.331167 0.354282 0.518856
0.428132 0.355601 0.520671
0.525396 0.356931 0.522494
0.622910 0.358474 0.524471
0.720759 0.361487 0.527484
0.818764 0.364504 0.530501
0.119893 0.449990 0.520869
0.148437 0.450361 0.521392
0.244130 0.451636 0.523167
0.340743 0.453755 0.525542
0.437879 0.456746 0.528532
0.535314 0.459746 0.531532
0.632978 0.462753 0.534539
0.730827 0.465766 0.537552
0.828832 0.468783 0.540570
0.129679 0.551527 0.528829
0.158275 0.552407 0.529710
0.254140 0.555359 0.532662
0.350841 0.558336 0.535639
0.447977 0.561327 0.538630
0.545412 0.564327 0.541630
0.643075 0.567334 0.544637
0.740961 0.570712 0.547850
0.839079 0.574848 0.551483
0.139799 0.656342 0.538949
0.168395 0.657222 0.539830
0.264260 0.660174 0.542782
0.360961 0.663152 0.545759
0.458175 0.666916 0.549175
0.555723 0.671037 0.552790
0.653500 0.675164 0.556413
0.751462 0.679298 0.560041
0.849580 0.683436 0.563675
0.150022 0.762191 0.549550
0.178653 0.763413 0.550618
0.274631 0.767487 0.554185
0.371445 0.771587 0.557778
0.468695 0.775701 0.561385
0.566243 0.779823 0.565001
0.664020 0.783953 0.568624
0.761982 0.788089 0.572252
0.860101 0.792229 0.575886
0.160558 0.871144 0.561776
0.189189 0.872366 0.562844
0.285167 0.876442 0.566412
0.381982 0.880544 0.570005
0.479231 0.884659 0.573612
0.576779 0.888783 0.577228
0.674557 0.892914 0.580851
0.772519 0.897051 0.584480
0.870638 0.901193 0.588113
0.165164 0.918767 0.567221
0.193762 0.919649 0.568256
0.289633 0.922606 0.571716
0.386339 0.925589 0.575201
0.483480 0.928585 0.578700
0.580921 0.931591 0.582208
0.678590 0.934603 0.585723
0.776444 0.937621 0.589244
0.874455 0.940644 0.592769
0.092506 0.155788 0.597958
0.121051 0.156167 0.598481
0.216747 0.157470 0.600256
0.313279 0.158798 0.602057
0.410246 0.160141 0.603872
0.507512 0.161493 0.605695
0.605006 0.162853 0.607526
0.702687 0.164218 0.609363
0.800523 0.165589 0.611204
0.101905 0.253480 0.603968
0.130449 0.253854 0.604491
0.226144 0.255143 0.606265
0.322675 0.256457 0.608064
0.419640 0.257784 0.609878
0.516905 0.259121 0.611700
0.614398 0.260466 0.613529
0.712077 0.261816 0.615365
0.809912 0.263171 0.617205
0.111363 0.351776 0.610037
0.139907 0.352148 0.610560
0.235601 0.353429 0.612333
0.332130 0.354735 0.614132
0.429095 0.356055 0.615944
0.526359 0.357384 0.617766
0.623931 0.359495 0.620141
0.721780 0.362508 0.623154
0.819785 0.365526 0.626171
0.120856 0.450442 0.616142
0.149400 0.450812 0.616664
0.245093 0.452088 0.618437
0.341765 0.454776 0.621211
0.438900 0.457767 0.624202
0.536335 0.460767 0.627202
0.633999 0.463774 0.630209
0.731848 0.466787 0.633222
0.829853 0.469804 0.636240
0.130700 0.552548 0.624499
0.159296 0.553428 0.625380
0.255161 0.556380 0.628331
0.351862 0.559357 0.631309
0.448998 0.562348 0.634300
0.546433 0.565348 0.637300
0.644097 0.568355 0.640307
0.742021 0.572113 0.643730
0.840139 0.576249 0.647364
0.140820 0.657363 0.634619
0.169416 0.658244 0.635500
0.265281 0.661195 0.638451
0.361985 0.664206 0.641447
0.459234 0.668318 0.645055
0.556782 0.672438 0.648671
0.654559 0.676566 0.652295
0.752521 0.680700 0.655925
0.850640 0.684838 0.659559
0.151082 0.763594 0.645430
0.179712 0.764816 0.646498
0.275691 0.768890 0.650067
0.372505 0.772990 0.653661
0.469754 0.777103 0.657269
0.567302 0.781226 0.660885
0.665079 0.785356 0.664509
0.763042 0.789491 0.668139
0.861160 0.793631 0.671774
0.161618 0.872547 0.657660
0.190248 0.873769 0.658728
0.286227 0.877845 0.662297
0.383041 0.881946 0.665891
0.480291 0.886062 0.669499
0.577839 0.890186 0.673116
0.675616 0.894317 0.676740
0.773579 0.898454 0.680370
0.871697 0.902596 0.684005
0.166187 0.919790 0.663070
0.194785 0.920672 0.664105
0.290656 0.923629 0.667566
0.387362 0.926612 0.671052
0.484503 0.929608 0.674552
0.581944 0.932614 0.678061
0.679613 0.935626 0.681577
0.777467 0.938644 0.685099
0.875478 0.941667 0.688626
0.093472 0.156251 0.693431
0.122016 0.156630 0.693953
0.217713 0.157933 0.695727
0.314245 0.159262 0.697526
0.411211 0.160604 0.699339
0.508478 0.161957 0.701161
0.605972 0.163316 0.702990
0.703653 0.164682 0.704825
0.801489 0.166053 0.706665
0.102870 0.253938 0.699435
0.131415 0.254313 0.699957
0.227109 0.255601 0.701729
0.323640 0.256915 0.703527
0.420605 0.258243 0.705339
0.517870 0.259580 0.707159
0.615363 0.260924 0.708987
0.713042 0.262274 0.710820
0.810877 0.263629 0.712659
0.112328 0.352231 0.705498
0.140872 0.352604 0.706020
0.236566 0.353884 0.707791
0.333095 0.355191 0.709588
0.430060 0.356511 0.711399
0.527324 0.357840 0.713219
0.624954 0.360518 0.715994
0.722803 0.363531 0.719007
0.820808 0.366549 0.722024
0.121821 0.450895 0.711597
0.150365 0.451266 0.712118
0.246087 0.452822 0.714087
0.342788 0.455799 0.717064
0.439924 0.458790 0.720055
0.537359 0.461790 0.723055
0.635022 0.464797 0.726062
0.732871 0.467810 0.729075
0.830876 0.470827 0.732092
0.131723 0.553571 0.720352
0.160319 0.554451 0.721233
0.256184 0.557403 0.724184
0.352885 0.560380 0.727162
0.450021 0.563371 0.730152
0.547456 0.566371 0.733152
0.645120 0.569384 0.736163
0.743082 0.573515 0.739793
0.841200 0.577651 0.743428
0.141843 0.658386 0.730472
0.170439 0.659267 0.731353
0.266304 0.662218 0.734304
0.363047 0.665610 0.737510
0.460296 0.669721 0.741118
0.557844 0.673842 0.744736
0.655621 0.677970 0.748360
0.753583 0.682103 0.751991
0.851701 0.686242 0.755626
0.152143 0.764998 0.741494
0.180774 0.766220 0.742562
0.276752 0.770294 0.746131
0.373567 0.774394 0.749727
0.470816 0.778508 0.753335
0.568364 0.782630 0.756953
0.666141 0.786760 0.760578
0.764103 0.790895 0.764208
0.862222 0.795036 0.767844
0.162679 0.873952 0.753727
0.191310 0.875174 0.754795
0.287289 0.879250 0.758365
0.384103 0.883351 0.761960
0.481352 0.887467 0.765569
0.578901 0.891591 0.769187
0.676678 0.895722 0.772812
0.774641 0.899859 0.776442
0.872759 0.904001 0.780078
0.167212 0.920815 0.759101
0.195810 0.921697 0.760137
0.291681 0.924654 0.763599
0.388387 0.927637 0.767086
0.485528 0.930633 0.770587
0.582969 0.933639 0.774096
0.680638 0.936651 0.777613
0.778492 0.939669 0.781136
0.876503 0.942692 0.784664
0.094439 0.156716 0.789054
0.122984 0.157095 0.789576
0.218680 0.158398 0.791348
0.315212 0.159727 0.793146
0.412179 0.161070 0.794957
0.509445 0.162422 0.796778
0.606940 0.163782 0.798605
0.704620 0.165148 0.800439
0.802456 0.166519 0.802277
0.103837 0.254398 0.795052
0.132382 0.254773 0.795574
0.228076 0.256061 0.797345
0.324607 0.257375 0.799141
0.421572 0.258703 0.800951
0.518837 0.260040 0.802770
0.616330 0.261384 0.804596
0.714009 0.262735 0.806428
0.811844 0.264090 0.808265
0.113294 0.352689 0.801110
0.141838 0.353061 0.801631
0.237532 0.354342 0.803401
0.334062 0.355648 0.805197
0.431027 0.356968 0.807006
0.528315 0.358536 0.808993
0.625979 0.361543 0.812001
0.723828 0.364556 0.815013
0.821833 0.367573 0.818031
0.122787 0.451351 0.807204
0.151331 0.451722 0.807725
0.247111 0.453847 0.810094
0.343812 0.456824 0.813071
0.440948 0.459815 0.816062
0.538383 0.462815 0.819062
0.636047 0.465822 0.822069
0.733896 0.468835 0.825081
0.831901 0.471852 0.828099
0.132748 0.554596 0.816359
0.161344 0.555476 0.817239
0.257209 0.558428 0.820191
0.353910 0.561405 0.823168
0.451046 0.564396 0.826159
0.548481 0.567396 0.829159
0.646183 0.570789 0.832379
0.744145 0.574920 0.836010
0.842263 0.579056 0.839646
0.142868 0.659411 0.826479
0.171464 0.660291 0.827359
0.267329 0.663243 0.830311
0.364110 0.667015 0.833727
0.461359 0.671127 0.837336
0.558907 0.675247 0.840954
0.656684 0.679375 0.844580
0.754646 0.683509 0.848211
0.852764 0.687647 0.851847
0.153207 0.766404 0.837712
0.181837 0.767626 0.838780
0.277816 0.771700 0.842350
0.374630 0.775800 0.845946
0.471879 0.779914 0.849555
0.569427 0.784036 0.853174
0.667204 0.788166 0.856800
0.765167 0.792301 0.860431
0.863285 0.796442 0.864067
0.163743 0.875358 0.849947
0.192373 0.876580 0.851016
0.288352 0.880656 0.854586
0.385166 0.884758 0.858182
0.482416 0.888873 0.861792
0.579964 0.892997 0.865410
0.677741 0.897129 0.869036
0.775704 0.901266 0.872668
0.873822 0.905408 0.876304
0.168239 0.921842 0.855286
0.196837 0.922724 0.856322
0.292707 0.925681 0.859784
0.389414 0.928664 0.863273
0.486555 0.931660 0.866774
0.583995 0.934665 0.870285
0.681665 0.937678 0.873802
0.779519 0.940696 0.877326
0.877530 0.943719 0.880854
0.095036 0.156943 0.848639
0.123584 0.157325 0.849471
0.219291 0.158639 0.852265
0.315834 0.159979 0.855084
0.412812 0.161333 0.857917
0.510089 0.162696 0.860759
0.607595 0.164067 0.863608
0.705286 0.165444 0.866463
0.803133 0.166827 0.869322
0.104471 0.254658 0.858073
0.133018 0.255036 0.858905
0.228724 0.256335 0.861697
0.325265 0.257660 0.864515
0.422242 0.258999 0.867347
0.519517 0.260347 0.870187
0.617021 0.261702 0.873035
0.714711 0.263063 0.875888
0.812561 0.264477 0.878751
0.113964 0.352983 0.867567
0.142511 0.353359 0.868398
0.238216 0.354651 0.871190
0.334757 0.355968 0.874007
0.431733 0.357299 0.876837
0.529070 0.359291 0.879740
0.626734 0.362298 0.882747
0.724583 0.365311 0.885760
0.822588 0.368328 0.888777
0.123493 0.451681 0.877096
0.152040 0.452055 0.877928
0.247867 0.454602 0.880840
0.344567 0.457579 0.883818
0.441703 0.460570 0.886808
0.539138 0.463570 0.889808
0.636802 0.466577 0.892815
0.734651 0.469590 0.895828
0.832656 0.472607 0.898846
0.133503 0.555351 0.887105
0.162099 0.556231 0.887986
0.257964 0.559183 0.890938
0.354665 0.562160 0.893915
0.451801 0.565151 0.896906
0.549236 0.568151 0.899906
0.646963 0.571820 0.902977
0.744920 0.575946 0.906097
0.843032 0.580077 0.909222
0.143623 0.660166 0.897225
0.172219 0.661047 0.898106
0.268084 0.663998 0.901058
0.364888 0.668045 0.904138
0.462132 0.672151 0.907237
0.559674 0.676267 0.910344
0.657446 0.680389 0.913459
0.755403 0.684517 0.916579
0.853515 0.688650 0.919705
0.153979 0.767429 0.907582
0.182608 0.768649 0.908495
0.278581 0.772718 0.911554
0.375390 0.776812 0.914640
0.472633 0.780920 0.917738
0.570176 0.785038 0.920846
0.667948 0.789162 0.923961
0.765905 0.793292 0.927082
0.864018 0.797427 0.930207
0.164497 0.876365 0.918100
0.193126 0.877586 0.919013
0.289099 0.881656 0.922073
0.385908 0.885752 0.925158
0.483152 0.889862 0.928257
0.580695 0.893981 0.931365
0.678467 0.898107 0.934480
0.776424 0.902238 0.937601
0.874537 0.906375 0.940726
0.168957 0.922560 0.922560
0.197553 0.923440 0.923440
0.293418 0.926392 0.926392
0.390119 0.929369 0.929369
0.487255 0.932360 0.932360
0.584690 0.935360 0.935360
0.682354 0.938367 0.938367
0.780203 0.941380 0.941380
0.878208 0.944397 0.944397
