assets/luts/mocha.cube
TITLE "mocha"
LUT_3D_SIZE 33
0.036500 0.005000 0.000000
0.065172 0.006766 0.000000
0.093844 0.008532 0.000000
0.121809 0.009590 0.000000
0.149598 0.010473 0.000000
0.177387 0.011356 0.000000
0.205176 0.012239 0.000000
0.232966 0.013122 0.000000
0.260755 0.014005 0.000000
0.288544 0.014888 0.000000
0.316333 0.015771 0.000000
0.344123 0.016654 0.000000
0.371912 0.017537 0.000000
0.399701 0.018420 0.000000
0.427490 0.019303 0.000000
0.455280 0.020186 0.000000
0.483069 0.021069 0.000000
0.510858 0.021952 0.000000
0.538647 0.022835 0.000000
0.566436 0.023718 0.000000
0.594226 0.024601 0.000000
0.622015 0.025484 0.000000
0.649804 0.026367 0.000000
0.677593 0.027250 0.000000
0.705383 0.028133 0.000000
0.733172 0.029016 0.000000
0.760961 0.029899 0.000000
0.788750 0.030782 0.000000
0.816540 0.031665 0.000000
0.844329 0.032548 0.000000
0.872118 0.033431 0.000000
0.899907 0.034314 0.000000
0.927696 0.035196 0.000000
0.039967 0.035373 0.000000
0.067964 0.036464 0.000000
0.095753 0.037347 0.000000
0.123542 0.038230 0.000000
0.151331 0.039113 0.000000
0.179121 0.039996 0.000000
0.206910 0.040879 0.000000
0.234699 0.041762 0.000000
0.262488 0.042645 0.000000
0.290278 0.043528 0.000000
0.318067 0.044411 0.000000
0.345856 0.045294 0.000000
0.373645 0.046177 0.000000
0.401435 0.047060 0.000000
0.429224 0.047943 0.000000
0.457013 0.048825 0.000000
0.484802 0.049708 0.000000
0.512591 0.050591 0.000000
0.540381 0.051474 0.000000
0.568170 0.052357 0.000000
0.595959 0.053240 0.000000
0.623748 0.054123 0.000000
0.651538 0.055006 0.000000
0.679327 0.055889 0.000000
0.707116 0.056772 0.000000
0.734905 0.057655 0.000000
0.762695 0.058538 0.000000
0.790484 0.059421 0.000000
0.818273 0.060304 0.000000
0.846062 0.061187 0.000000
0.873852 0.062070 0.000000
0.901641 0.062953 0.000000
0.929430 0.063836 0.000000
0.041908 0.064220 0.000000
0.069697 0.065103 0.000000
0.097486 0.065986 0.000000
0.125276 0.066869 0.000000
0.153065 0.067752 0.000000
0.180854 0.068635 0.000000
0.208643 0.069518 0.000000
0.236433 0.070401 0.000000
0.264222 0.071284 0.000000
0.292011 0.072167 0.000000
0.319800 0.073050 0.000000
0.347590 0.073933 0.000000
0.375379 0.074816 0.000000
0.403168 0.075699 0.000000
0.430957 0.076582 0.000000
0.458746 0.077465 0.000000
0.486536 0.078348 0.000000
0.514325 0.079231 0.000000
0.542114 0.080114 0.000000
0.569903 0.080997 0.000000
0.597693 0.081880 0.000000
0.625482 0.082763 0.000000
0.653271 0.083646 0.000000
0.681060 0.084529 0.000000
0.708850 0.085412 0.000000
0.736639 0.086295 0.000000
0.764428 0.087178 0.000000
0.792217 0.088061 0.000000
0.820007 0.088944 0.000000
0.847796 0.089827 0.000000
0.875585 0.090710 0.000000
0.903374 0.091593 0.000000
0.931163 0.092476 0.000000
0.043641 0.092860 0.000000
0.071431 0.093743 0.000000
0.099220 0.094626 0.000000
0.127009 0.095509 0.000000
0.154798 0.096392 0.000000
0.182588 0.097275 0.000000
0.210377 0.098158 0.000000
0.238166 0.099041 0.000000
0.265955 0.099924 0.000000
0.293745 0.100807 0.000000
0.321534 0.101690 0.000000
0.349323 0.102573 0.000000
0.377112 0.103456 0.000000
0.404901 0.104339 0.000000
0.432691 0.105222 0.000000
0.460480 0.106105 0.000000
0.488269 0.106988 0.000000
0.516058 0.107871 0.000000
0.543848 0.108754 0.000000
0.571637 0.109637 0.000000
0.599426 0.110520 0.000000
0.627215 0.111403 0.000000
0.655005 0.112286 0.000000
0.682794 0.113169 0.000000
0.710583 0.114052 0.000000
0.738372 0.114935 0.000000
0.766162 0.115818 0.000000
0.793951 0.116701 0.000000
0.821740 0.117584 0.000000
0.849529 0.118467 0.000000
0.877318 0.119350 0.000000
0.905740 0.120865 0.000000
0.934412 0.122631 0.000000
0.045375 0.121500 0.000000
0.073164 0.122383 0.000000
0.100953 0.123266 0.000000
0.128743 0.124149 0.000000
0.156532 0.125032 0.000000
0.184321 0.125915 0.000000
0.212110 0.126798 0.000000
0.239900 0.127681 0.000000
0.267689 0.128564 0.000000
0.295478 0.129447 0.000000
0.323267 0.130330 0.000000
0.351057 0.131213 0.000000
0.378846 0.132096 0.000000
0.406635 0.132979 0.000000
0.434424 0.133862 0.000000
0.462213 0.134745 0.000000
0.490003 0.135628 0.000000
0.517792 0.136511 0.000000
0.545581 0.137394 0.000000
0.573370 0.138277 0.000000
0.601160 0.139160 0.000000
0.628949 0.140043 0.000000
0.656738 0.140926 0.000000
0.684527 0.141809 0.000000
0.712317 0.142692 0.000000
0.740106 0.143575 0.000000
0.767895 0.144458 0.000000
0.795684 0.145341 0.000000
0.823473 0.146223 0.000000
0.851862 0.147706 0.000000
0.880534 0.149472 0.000000
0.909207 0.151238 0.000000
0.937879 0.153004 0.000000
0.047108 0.150140 0.000000
0.074898 0.151023 0.000000
0.102687 0.151906 0.000000
0.130476 0.152789 0.000000
0.158265 0.153672 0.000000
0.186055 0.154555 0.000000
0.213844 0.155438 0.000000
0.241633 0.156321 0.000000
0.269422 0.157204 0.000000
0.297212 0.158087 0.000000
0.325001 0.158970 0.000000
0.352790 0.159852 0.000000
0.380579 0.160735 0.000000
0.408368 0.161618 0.000000
0.436158 0.162501 0.000000
0.463947 0.163384 0.000000
0.491736 0.164267 0.000000
0.519525 0.165150 0.000000
0.547315 0.166033 0.000000
0.575104 0.166916 0.000000
0.602893 0.167799 0.000000
0.630682 0.168682 0.000000
0.658472 0.169565 0.000000
0.686261 0.170448 0.000000
0.714050 0.171331 0.000000
0.741839 0.172214 0.000000
0.769629 0.173097 0.000000
0.797985 0.174547 0.000000
0.826657 0.176313 0.000000
0.855329 0.178079 0.000000
0.884001 0.179845 0.000000
0.912674 0.181611 0.000000
0.941346 0.183377 0.000000
0.048842 0.178779 0.000000
0.076631 0.179662 0.000000
0.104420 0.180545 0.000000
0.132210 0.181428 0.000000
0.159999 0.182311 0.000000
0.187788 0.183194 0.000000
0.215577 0.184077 0.000000
0.243367 0.184960 0.000000
0.271156 0.185843 0.000000
0.298945 0.186726 0.000000
0.326734 0.187609 0.000000
0.354523 0.188492 0.000000
0.382313 0.189375 0.000000
0.410102 0.190258 0.000000
0.437891 0.191141 0.000000
0.465680 0.192024 0.000000
0.493470 0.192907 0.000000
0.521259 0.193790 0.000000
0.549048 0.194673 0.000000
0.576837 0.195556 0.000000
0.604627 0.196439 0.000000
0.632416 0.197322 0.000000
0.660205 0.198205 0.000000
0.687994 0.199088 0.000000
0.715784 0.199971 0.000000
0.744107 0.201389 0.000000
0.772779 0.203154 0.000000
0.801452 0.204920 0.000000
0.830124 0.206686 0.000000
0.858796 0.208452 0.000000
0.887468 0.210218 0.000000
0.916141 0.211984 0.000000
0.944813 0.213750 0.000000
0.050575 0.207419 0.000000
0.078365 0.208302 0.000000
0.106154 0.209185 0.000000
0.133943 0.210068 0.000000
0.161732 0.210951 0.000000
0.189522 0.211834 0.000000
0.217311 0.212717 0.000000
0.245100 0.213600 0.000000
0.272889 0.214483 0.000000
0.300678 0.215366 0.000000
0.328468 0.216249 0.000000
0.356257 0.217132 0.000000
0.384046 0.218015 0.000000
0.411835 0.218898 0.000000
0.439625 0.219781 0.000000
0.467414 0.220664 0.000000
0.495203 0.221547 0.000000
0.522992 0.222430 0.000000
0.550782 0.223313 0.000000
0.578571 0.224196 0.000000
0.606360 0.225079 0.000000
0.634149 0.225962 0.000000
0.661939 0.226845 0.000000
0.690230 0.228230 0.000000
0.718902 0.229996 0.000000
0.747574 0.231762 0.000000
0.776246 0.233528 0.000000
0.804919 0.235294 0.000000
0.833591 0.237060 0.000000
0.862263 0.238826 0.000000
0.890935 0.240592 0.000000
0.919608 0.242358 0.001514
0.948280 0.244124 0.003280
0.052309 0.236059 0.000000
0.080098 0.236942 0.000000
0.107887 0.237825 0.000000
0.135677 0.238708 0.000000
0.163466 0.239591 0.000000
0.191255 0.240474 0.000000
0.219044 0.241357 0.000000
0.246834 0.242240 0.000000
0.274623 0.243123 0.000000
0.302412 0.244006 0.000000
0.330201 0.244889 0.000000
0.357990 0.245772 0.000000
0.385780 0.246655 0.000000
0.413569 0.247538 0.000000
0.441358 0.248421 0.000000
0.469147 0.249304 0.000000
0.496937 0.250187 0.000000
0.524726 0.251070 0.000000
0.552515 0.251953 0.000000
0.580304 0.252836 0.000000
0.608094 0.253719 0.000000
0.636352 0.255071 0.000000
0.665025 0.256837 0.000000
0.693697 0.258603 0.000000
0.722369 0.260369 0.000000
0.751041 0.262135 0.000000
0.779713 0.263901 0.000000
0.808386 0.265667 0.000000
0.837058 0.267433 0.000000
0.865730 0.269199 0.001449
0.894402 0.270965 0.003215
0.923075 0.272731 0.004981
0.951747 0.274497 0.006747
0.054042 0.264699 0.000000
0.081832 0.265582 0.000000
0.109621 0.266465 0.000000
0.137410 0.267348 0.000000
0.165199 0.268231 0.000000
0.192989 0.269114 0.000000
0.220778 0.269997 0.000000
0.248567 0.270879 0.000000
0.276356 0.271762 0.000000
0.304145 0.272645 0.000000
0.331935 0.273528 0.000000
0.359724 0.274411 0.000000
0.387513 0.275294 0.000000
0.415302 0.276177 0.000000
0.443092 0.277060 0.000000
0.470881 0.277943 0.000000
0.498670 0.278826 0.000000
0.526459 0.279709 0.000000
0.554249 0.280592 0.000000
0.582475 0.281912 0.000000
0.611147 0.283678 0.000000
0.639819 0.285444 0.000000
0.668492 0.287210 0.000000
0.697164 0.288976 0.000000
0.725836 0.290742 0.000000
0.754508 0.292508 0.000000
0.783180 0.294274 0.000000
0.811853 0.296040 0.001384
0.840525 0.297806 0.003150
0.869197 0.299572 0.004916
0.897869 0.301338 0.006682
0.926542 0.303104 0.008448
0.955214 0.304870 0.010214
0.055776 0.293338 0.000000
0.083565 0.294221 0.000000
0.111354 0.295104 0.000000
0.139144 0.295987 0.000000
0.166933 0.296870 0.000000
0.194722 0.297753 0.000000
0.222511 0.298636 0.000000
0.250300 0.299519 0.000000
0.278090 0.300402 0.000000
0.305879 0.301285 0.000000
0.333668 0.302168 0.000000
0.361457 0.303051 0.000000
0.389247 0.303934 0.000000
0.417036 0.304817 0.000000
0.444825 0.305700 0.000000
0.472614 0.306583 0.000000
0.500404 0.307466 0.000000
0.528597 0.308754 0.000000
0.557270 0.310520 0.000000
0.585942 0.312286 0.000000
0.614614 0.314052 0.000000
0.643286 0.315818 0.000000
0.671959 0.317584 0.000000
0.700631 0.319349 0.000000
0.729303 0.321115 0.000000
0.757975 0.322881 0.001319
0.786647 0.324647 0.003085
0.815320 0.326413 0.004851
0.843992 0.328179 0.006617
0.872664 0.329945 0.008383
0.901336 0.331711 0.010149
0.930008 0.333477 0.011915
0.958681 0.335243 0.013681
0.057509 0.321978 0.000000
0.085299 0.322861 0.000000
0.113088 0.323744 0.000000
0.140877 0.324627 0.000000
0.168666 0.325510 0.000000
0.196455 0.326393 0.000000
0.224245 0.327276 0.000000
0.252034 0.328159 0.000000
0.279823 0.329042 0.000000
0.307612 0.329925 0.000000
0.335402 0.330808 0.000000
0.363191 0.331691 0.000000
0.390980 0.332574 0.000000
0.418769 0.333457 0.000000
0.446559 0.334340 0.000000
0.474720 0.335595 0.000000
0.503392 0.337361 0.000000
0.532064 0.339127 0.000000
0.560737 0.340893 0.000000
0.589409 0.342659 0.000000
0.618081 0.344425 0.000000
0.646753 0.346191 0.000000
0.675425 0.347957 0.000000
0.704098 0.349723 0.001254
0.732770 0.351489 0.003020
0.761442 0.353255 0.004786
0.790114 0.355021 0.006552
0.818787 0.356787 0.008318
0.847459 0.358553 0.010084
0.876131 0.360318 0.011850
0.904803 0.362084 0.013616
0.933475 0.363850 0.015382
0.962148 0.365616 0.017148
0.059243 0.350618 0.000000
0.087032 0.351501 0.000000
0.114821 0.352384 0.000000
0.142611 0.353267 0.000000
0.170400 0.354150 0.000000
0.198189 0.355033 0.000000
0.225978 0.355916 0.000000
0.253767 0.356799 0.000000
0.281557 0.357682 0.000000
0.309346 0.358565 0.000000
0.337135 0.359448 0.000000
0.364924 0.360331 0.000000
0.392714 0.361214 0.000000
0.420842 0.362436 0.000000
0.449515 0.364202 0.000000
0.478187 0.365968 0.000000
0.506859 0.367734 0.000000
0.535531 0.369500 0.000000
0.564204 0.371266 0.000000
0.592876 0.373032 0.000000
0.621548 0.374798 0.000000
0.650220 0.376564 0.001189
0.678892 0.378330 0.002955
0.707565 0.380096 0.004721
0.736237 0.381862 0.006487
0.764909 0.383628 0.008253
0.793581 0.385394 0.010019
0.822254 0.387160 0.011785
0.850926 0.388926 0.013551
0.879598 0.390692 0.015317
0.908270 0.392458 0.017083
0.936942 0.394224 0.018849
0.965615 0.395990 0.020615
0.060976 0.379258 0.000000
0.088766 0.380141 0.000000
0.116555 0.381024 0.000000
0.144344 0.381906 0.000000
0.172133 0.382789 0.000000
0.199922 0.383672 0.000000
0.227712 0.384555 0.000000
0.255501 0.385438 0.000000
0.283290 0.386321 0.000000
0.311079 0.387204 0.000000
0.338869 0.388087 0.000000
0.366965 0.389277 0.000000
0.395637 0.391043 0.000000
0.424309 0.392809 0.000000
0.452982 0.394575 0.000000
0.481654 0.396341 0.000000
0.510326 0.398107 0.000000
0.538998 0.399873 0.000000
0.567671 0.401639 0.000000
0.596343 0.403405 0.001124
0.625015 0.405171 0.002890
0.653687 0.406937 0.004656
0.682359 0.408703 0.006422
0.711032 0.410469 0.008188
0.739704 0.412235 0.009954
0.768376 0.414001 0.011720
0.797048 0.415767 0.013486
0.825721 0.417533 0.015252
0.854393 0.419299 0.017018
0.883065 0.421065 0.018784
0.911737 0.422831 0.020550
0.940409 0.424597 0.022316
0.969082 0.426363 0.024082
0.062710 0.407897 0.000000
0.090499 0.408780 0.000000
0.118288 0.409663 0.000000
0.146077 0.410546 0.000000
0.173867 0.411429 0.000000
0.201656 0.412312 0.000000
0.229445 0.413195 0.000000
0.257234 0.414078 0.000000
0.285024 0.414961 0.000000
0.313088 0.416119 0.000000
0.341760 0.417885 0.000000
0.370432 0.419651 0.000000
0.399104 0.421417 0.000000
0.427776 0.423183 0.000000
0.456449 0.424949 0.000000
0.485121 0.426715 0.000000
0.513793 0.428481 0.000000
0.542465 0.430247 0.001059
0.571137 0.432013 0.002825
0.599810 0.433778 0.004591
0.628482 0.435544 0.006357
0.657154 0.437310 0.008123
0.685826 0.439076 0.009889
0.714499 0.440842 0.011655
0.743171 0.442608 0.013421
0.771843 0.444374 0.015187
0.800515 0.446140 0.016953
0.829187 0.447906 0.018719
0.857860 0.449672 0.020485
0.886532 0.451438 0.022251
0.915204 0.453204 0.024017
0.943876 0.454970 0.025783
0.972549 0.456736 0.027549
0.064443 0.436537 0.000000
0.092232 0.437420 0.000000
0.120022 0.438303 0.000000
0.147811 0.439186 0.000000
0.175600 0.440069 0.000000
0.203389 0.440952 0.000000
0.231179 0.441835 0.000000
0.259210 0.442960 0.000000
0.287882 0.444726 0.000000
0.316554 0.446492 0.000000
0.345227 0.448258 0.000000
0.373899 0.450024 0.000000
0.402571 0.451790 0.000000
0.431243 0.453556 0.000000
0.459916 0.455322 0.000000
0.488588 0.457088 0.000994
0.517260 0.458854 0.002760
0.545932 0.460620 0.004526
0.574604 0.462386 0.006292
0.603277 0.464152 0.008058
0.631949 0.465918 0.009824
0.660621 0.467684 0.011590
0.689293 0.469450 0.013356
0.717966 0.471216 0.015122
0.746638 0.472982 0.016888
0.775310 0.474747 0.018654
0.803982 0.476513 0.020420
0.832654 0.478279 0.022186
0.861327 0.480045 0.023952
0.889999 0.481811 0.025718
0.918671 0.483577 0.027484
0.947343 0.485343 0.029250
0.976016 0.487109 0.031016
0.066177 0.465177 0.000000
0.093966 0.466060 0.000000
0.121755 0.466943 0.000000
0.149544 0.467826 0.000000
0.177334 0.468709 0.000000
0.205333 0.469801 0.000000
0.234005 0.471567 0.000000
0.262677 0.473333 0.000000
0.291349 0.475099 0.000000
0.320021 0.476865 0.000000
0.348694 0.478631 0.000000
0.377366 0.480397 0.000000
0.406038 0.482163 0.000000
0.434710 0.483929 0.000929
0.463383 0.485695 0.002695
0.492055 0.487461 0.004461
0.520727 0.489227 0.006227
0.549399 0.490993 0.007993
0.578071 0.492759 0.009759
0.606744 0.494525 0.011525
0.635416 0.496291 0.013291
0.664088 0.498057 0.015057
0.692760 0.499823 0.016823
0.721433 0.501589 0.018589
0.750105 0.503355 0.020355
0.778777 0.505121 0.022121
0.807449 0.506887 0.023887
0.836121 0.508653 0.025653
0.864794 0.510419 0.027419
0.893466 0.512185 0.029185
0.922138 0.513951 0.030951
0.950810 0.515717 0.032717
0.979483 0.517483 0.034483
0.067910 0.493816 0.000000
0.095699 0.494699 0.000000
0.123489 0.495582 0.000000
0.151455 0.496643 0.000000
0.180127 0.498409 0.000000
0.208800 0.500175 0.000000
0.237472 0.501941 0.000000
0.266144 0.503707 0.000000
0.294816 0.505472 0.000000
0.323488 0.507238 0.000000
0.352161 0.509004 0.000000
0.380833 0.510770 0.000864
0.409505 0.512536 0.002630
0.438177 0.514302 0.004396
0.466850 0.516068 0.006162
0.495522 0.517834 0.007928
0.524194 0.519600 0.009694
0.552866 0.521366 0.011460
0.581538 0.523132 0.013226
0.610211 0.524898 0.014992
0.638883 0.526664 0.016758
0.667555 0.528430 0.018524
0.696227 0.530196 0.020290
0.724900 0.531962 0.022056
0.753572 0.533728 0.023822
0.782244 0.535494 0.025588
0.810916 0.537260 0.027354
0.839588 0.539026 0.029120
0.868261 0.540792 0.030886
0.896933 0.542558 0.032652
0.925605 0.544324 0.034418
0.954277 0.546090 0.036184
0.982949 0.547856 0.037949
0.069644 0.522456 0.000000
0.097578 0.523484 0.000000
0.126250 0.525250 0.000000
0.154922 0.527016 0.000000
0.183594 0.528782 0.000000
0.212267 0.530548 0.000000
0.240939 0.532314 0.000000
0.269611 0.534080 0.000000
0.298283 0.535846 0.000000
0.326955 0.537612 0.000799
0.355628 0.539378 0.002565
0.384300 0.541144 0.004331
0.412972 0.542910 0.006097
0.441644 0.544676 0.007863
0.470316 0.546442 0.009629
0.498989 0.548207 0.011395
0.527661 0.549973 0.013161
0.556333 0.551739 0.014927
0.585005 0.553505 0.016693
0.613678 0.555271 0.018459
0.642350 0.557037 0.020225
0.671022 0.558803 0.021991
0.699694 0.560569 0.023757
0.728366 0.562335 0.025523
0.757039 0.564101 0.027289
0.785711 0.565867 0.029055
0.814383 0.567633 0.030821
0.843055 0.569399 0.032587
0.871728 0.571165 0.034353
0.900400 0.572931 0.036119
0.929072 0.574697 0.037885
0.957744 0.576463 0.039650
0.986416 0.578229 0.041416
0.072372 0.552091 0.000000
0.101045 0.553857 0.000000
0.129717 0.555623 0.000000
0.158389 0.557389 0.000000
0.187061 0.559155 0.000000
0.215733 0.560921 0.000000
0.244406 0.562687 0.000000
0.273078 0.564453 0.000734
0.301750 0.566219 0.002500
0.330422 0.567985 0.004266
0.359095 0.569751 0.006032
0.387767 0.571517 0.007798
0.416439 0.573283 0.009564
0.445111 0.575049 0.011330
0.473783 0.576815 0.013096
0.502456 0.578581 0.014862
0.531128 0.580347 0.016628
0.559800 0.582113 0.018394
0.588472 0.583879 0.020160
0.617145 0.585645 0.021926
0.645817 0.587411 0.023692
0.674489 0.589176 0.025458
0.703161 0.590942 0.027224
0.731833 0.592708 0.028990
0.760506 0.594474 0.030756
0.789178 0.596240 0.032522
0.817850 0.598006 0.034288
0.846522 0.599772 0.036054
0.875195 0.601538 0.037820
0.903867 0.603304 0.039585
0.932539 0.605070 0.041351
0.961211 0.606836 0.043117
0.989883 0.608602 0.044883
0.075839 0.582464 0.000000
0.104512 0.584230 0.000000
0.133184 0.585996 0.000000
0.161856 0.587762 0.000000
0.190528 0.589528 0.000000
0.219200 0.591294 0.000669
0.247873 0.593060 0.002435
0.276545 0.594826 0.004201
0.305217 0.596592 0.005967
0.333889 0.598358 0.007733
0.362562 0.600124 0.009499
0.391234 0.601890 0.011265
0.419906 0.603656 0.013031
0.448578 0.605422 0.014797
0.477250 0.607188 0.016563
0.505923 0.608954 0.018329
0.534595 0.610720 0.020095
0.563267 0.612486 0.021861
0.591939 0.614252 0.023627
0.620612 0.616018 0.025393
0.649284 0.617784 0.027159
0.677956 0.619550 0.028925
0.706628 0.621316 0.030691
0.735300 0.623082 0.032457
0.763973 0.624848 0.034223
0.792645 0.626614 0.035989
0.821317 0.628380 0.037755
0.849989 0.630146 0.039521
0.878661 0.631911 0.041287
0.907334 0.633677 0.043052
0.936006 0.635443 0.044818
0.964678 0.637209 0.046584
0.993350 0.638975 0.048350
0.079306 0.612838 0.000000
0.107979 0.614604 0.000000
0.136651 0.616370 0.000000
0.165323 0.618135 0.000604
0.193995 0.619901 0.002370
0.222667 0.621667 0.004136
0.251340 0.623433 0.005902
0.280012 0.625199 0.007668
0.308684 0.626965 0.009434
0.337356 0.628731 0.011200
0.366029 0.630497 0.012966
0.394701 0.632263 0.014732
0.423373 0.634029 0.016498
0.452045 0.635795 0.018264
0.480717 0.637561 0.020030
0.509390 0.639327 0.021796
0.538062 0.641093 0.023562
0.566734 0.642859 0.025328
0.595406 0.644625 0.027094
0.624078 0.646391 0.028860
0.652751 0.648157 0.030626
0.681423 0.649923 0.032392
0.710095 0.651689 0.034158
0.738767 0.653455 0.035924
0.767440 0.655221 0.037690
0.796112 0.656987 0.039456
0.824784 0.658753 0.041222
0.853456 0.660519 0.042988
0.882128 0.662285 0.044753
0.910801 0.664051 0.046519
0.939473 0.665817 0.048285
0.968145 0.667583 0.050051
0.996817 0.669349 0.051817
0.082773 0.643211 0.000000
0.111446 0.644977 0.000539
0.140118 0.646743 0.002305
0.168790 0.648509 0.004071
0.197462 0.650275 0.005837
0.226134 0.652041 0.007603
0.254807 0.653807 0.009369
0.283479 0.655573 0.011135
0.312151 0.657339 0.012901
0.340823 0.659105 0.014667
0.369495 0.660870 0.016433
0.398168 0.662636 0.018199
0.426840 0.664402 0.019965
0.455512 0.666168 0.021731
0.484184 0.667934 0.023497
0.512857 0.669700 0.025263
0.541529 0.671466 0.027029
0.570201 0.673232 0.028795
0.598873 0.674998 0.030561
0.627545 0.676764 0.032327
0.656218 0.678530 0.034093
0.684890 0.680296 0.035859
0.713562 0.682062 0.037625
0.742234 0.683828 0.039391
0.770907 0.685594 0.041157
0.799579 0.687360 0.042923
0.828251 0.689126 0.044688
0.856923 0.690892 0.046454
0.885595 0.692658 0.048220
0.914268 0.694424 0.049986
0.942940 0.696190 0.051752
0.970692 0.697295 0.053468
0.997865 0.698029 0.055151
0.086240 0.673584 0.002240
0.114912 0.675350 0.004006
0.143585 0.677116 0.005772
0.172257 0.678882 0.007538
0.200929 0.680648 0.009304
0.229601 0.682414 0.011070
0.258274 0.684180 0.012836
0.286946 0.685946 0.014602
0.315618 0.687712 0.016368
0.344290 0.689478 0.018134
0.372962 0.691244 0.019900
0.401635 0.693010 0.021666
0.430307 0.694776 0.023432
0.458979 0.696542 0.025198
0.487651 0.698308 0.026964
0.516324 0.700074 0.028730
0.544996 0.701840 0.030496
0.573668 0.703606 0.032262
0.602340 0.705371 0.034028
0.631012 0.707137 0.035794
0.659685 0.708903 0.037560
0.688357 0.710669 0.039326
0.717029 0.712435 0.041092
0.745701 0.714201 0.042858
0.774374 0.715967 0.044624
0.803046 0.717733 0.046390
0.831718 0.719499 0.048155
0.860390 0.721265 0.049921
0.889062 0.723031 0.051687
0.916915 0.724150 0.053406
0.944169 0.724845 0.055089
0.971339 0.725535 0.056767
0.998424 0.726220 0.058439
0.089707 0.703957 0.005707
0.118379 0.705723 0.007473
0.147052 0.707489 0.009239
0.175724 0.709255 0.011005
0.204396 0.711021 0.012771
0.233068 0.712787 0.014537
0.261741 0.714553 0.016303
0.290413 0.716319 0.018069
0.319085 0.718085 0.019835
0.347757 0.719851 0.021601
0.376429 0.721617 0.023367
0.405102 0.723383 0.025133
0.433774 0.725149 0.026899
0.462446 0.726915 0.028665
0.491118 0.728681 0.030431
0.519791 0.730447 0.032197
0.548463 0.732213 0.033963
0.577135 0.733979 0.035729
0.605807 0.735745 0.037495
0.634479 0.737511 0.039261
0.663152 0.739277 0.041027
0.691824 0.741043 0.042793
0.720496 0.742809 0.044559
0.749168 0.744575 0.046325
0.777841 0.746340 0.048090
0.806513 0.748106 0.049856
0.835185 0.749872 0.051622
0.863133 0.751008 0.053344
0.890467 0.751664 0.055027
0.917718 0.752314 0.056705
0.944884 0.752960 0.058378
0.971965 0.753600 0.060046
0.998962 0.754235 0.061708
0.093174 0.734330 0.009174
0.121846 0.736096 0.010940
0.150519 0.737862 0.012706
0.179191 0.739628 0.014472
0.207863 0.741394 0.016238
0.236535 0.743160 0.018004
0.265208 0.744926 0.019770
0.293880 0.746692 0.021536
0.322552 0.748458 0.023302
0.351224 0.750224 0.025068
0.379896 0.751990 0.026834
0.408569 0.753756 0.028600
0.437241 0.755522 0.030366
0.465913 0.757288 0.032132
0.494585 0.759054 0.033898
0.523258 0.760820 0.035664
0.551930 0.762586 0.037430
0.580602 0.764352 0.039196
0.609274 0.766118 0.040962
0.637946 0.767884 0.042728
0.666619 0.769650 0.044494
0.695291 0.771416 0.046260
0.723963 0.773182 0.048026
0.752635 0.774948 0.049792
0.781307 0.776714 0.051557
0.809344 0.777869 0.053282
0.836760 0.778485 0.054965
0.864091 0.779096 0.056643
0.891338 0.779702 0.058317
0.918500 0.780303 0.059984
0.945578 0.780899 0.061647
0.972572 0.781489 0.063305
0.999481 0.782074 0.064957
0.096641 0.764704 0.012641
0.125313 0.766470 0.014407
0.153986 0.768236 0.016173
0.182658 0.770002 0.017939
0.211330 0.771768 0.019705
0.240002 0.773534 0.021471
0.268674 0.775299 0.023237
0.297347 0.777065 0.025003
0.326019 0.778831 0.026769
0.354691 0.780597 0.028535
0.383363 0.782363 0.030301
0.412036 0.784129 0.032067
0.440708 0.785895 0.033833
0.469380 0.787661 0.035599
0.498052 0.789427 0.037365
0.526724 0.791193 0.039131
0.555397 0.792959 0.040897
0.584069 0.794725 0.042663
0.612741 0.796491 0.044429
0.641413 0.798257 0.046195
0.670086 0.800023 0.047961
0.698758 0.801789 0.049727
0.727430 0.803555 0.051492
0.755550 0.804733 0.053220
0.783046 0.805310 0.054903
0.810458 0.805881 0.056582
0.837786 0.806448 0.058255
0.865029 0.807009 0.059923
0.892188 0.807565 0.061586
