assets/luts/mocha.cube
TITLE "mocha"
LUT_3D_SIZE 5
0.036500 0.005000 0.000000
0.260755 0.014005 0.000000
0.483069 0.021069 0.000000
0.705383 0.028133 0.000000
0.927696 0.035196 0.000000
0.052309 0.236059 0.000000
0.274623 0.243123 0.000000
0.496937 0.250187 0.000000
0.722369 0.260369 0.000000
0.951747 0.274497 0.006747
0.066177 0.465177 0.000000
0.291349 0.475099 0.000000
0.520727 0.489227 0.006227
0.750105 0.503355 0.020355
0.979483 0.517483 0.034483
0.089707 0.703957 0.005707
0.319085 0.718085 0.019835
0.548463 0.732213 0.033963
0.777841 0.746340 0.048090
0.998962 0.754235 0.061708
0.117443 0.946943 0.033443
0.346821 0.961071 0.047571
0.571725 0.967627 0.061219
0.789838 0.969998 0.074345
1.000000 0.972036 0.087138
0.041134 0.009634 0.172384
0.263448 0.016698 0.179448
0.485762 0.023762 0.186512
0.708076 0.030826 0.193576
0.930390 0.037890 0.200640
0.055002 0.238752 0.186252
0.277316 0.245816 0.193316
0.499630 0.252880 0.200380
0.727755 0.265755 0.213255
0.957133 0.279883 0.227383
0.068870 0.467870 0.200120
0.296736 0.480486 0.212736
0.526113 0.494613 0.226863
0.755491 0.508741 0.240991
0.984869 0.522869 0.255119
0.095094 0.709344 0.226344
0.324472 0.723471 0.240472
0.553849 0.737599 0.254599
0.782512 0.751041 0.268482
0.999759 0.756139 0.279267
0.122830 0.952330 0.254080
0.352038 0.965994 0.268079
0.574459 0.968570 0.278876
0.791479 0.970814 0.289340
1.000000 0.972725 0.299472
0.043827 0.012327 0.390327
0.266141 0.019391 0.397391
0.488455 0.026455 0.404455
0.710769 0.033519 0.411519
0.934784 0.042284 0.420284
0.057695 0.241445 0.404195
0.280009 0.248509 0.411259
0.503764 0.257014 0.419764
0.733142 0.271142 0.433892
0.962520 0.285270 0.448020
0.072745 0.471745 0.419245
0.302122 0.485872 0.433372
0.531500 0.500000 0.447500
0.760878 0.514128 0.461628
0.990256 0.528255 0.475755
0.100480 0.714730 0.446980
0.329858 0.728858 0.461108
0.559236 0.742986 0.475236
0.784354 0.753024 0.486720
1.000000 0.757996 0.494844
0.128216 0.957716 0.474716
0.355817 0.967015 0.486415
0.577145 0.969465 0.494551
0.793072 0.971582 0.502354
1.000000 0.973366 0.509825
0.046521 0.015021 0.608271
0.268835 0.022085 0.615335
0.491148 0.029148 0.622398
0.713462 0.036212 0.629462
0.940170 0.047670 0.640921
0.060389 0.244139 0.622139
0.282702 0.251202 0.629202
0.509151 0.262401 0.640401
0.738529 0.276529 0.654528
0.967906 0.290656 0.668656
0.078131 0.477131 0.639881
0.307509 0.491259 0.654009
0.536887 0.505386 0.668136
0.766264 0.519514 0.682264
0.995642 0.533642 0.696392
0.105867 0.720117 0.667617
0.335245 0.734244 0.681744
0.564622 0.748372 0.695872
0.786147 0.754959 0.702978
1.000000 0.759804 0.708441
0.133603 0.963102 0.695352
0.359548 0.967989 0.702771
0.579782 0.970311 0.708246
0.794616 0.972302 0.713388
1.000000 0.973959 0.718198
0.049214 0.017714 0.826214
0.271528 0.024778 0.833278
0.493842 0.031842 0.840342
0.716179 0.038929 0.847429
0.945557 0.053057 0.861557
0.063082 0.246832 0.840082
0.285396 0.253896 0.847146
0.514537 0.267787 0.861037
0.743915 0.281915 0.875165
0.973293 0.296043 0.889293
0.083518 0.482517 0.860517
0.312895 0.496645 0.874645
0.542273 0.510773 0.888773
0.771651 0.524901 0.902901
0.997987 0.537391 0.914242
0.111253 0.725503 0.888253
0.340631 0.739631 0.902381
0.568524 0.751795 0.914121
0.787892 0.756845 0.917255
1.000000 0.761563 0.920057
0.138687 0.966385 0.913999
0.363230 0.968914 0.917146
0.582371 0.971109 0.919960
0.796112 0.972973 0.922441
1.000000 0.974503 0.924590
