assets/luts/mocha.cube
TITLE "mocha"
LUT_3D_SIZE 9
0.036500 0.005000 0.000000
0.149598 0.010473 0.000000
0.260755 0.014005 0.000000
0.371912 0.017537 0.000000
0.483069 0.021069 0.000000
0.594226 0.024601 0.000000
0.705383 0.028133 0.000000
0.816540 0.031665 0.000000
0.927696 0.035196 0.000000
0.045375 0.121500 0.000000
0.156532 0.125032 0.000000
0.267689 0.128564 0.000000
0.378846 0.132096 0.000000
0.490003 0.135628 0.000000
0.601160 0.139160 0.000000
0.712317 0.142692 0.000000
0.823473 0.146223 0.000000
0.937879 0.153004 0.000000
0.052309 0.236059 0.000000
0.163466 0.239591 0.000000
0.274623 0.243123 0.000000
0.385780 0.246655 0.000000
0.496937 0.250187 0.000000
0.608094 0.253719 0.000000
0.722369 0.260369 0.000000
0.837058 0.267433 0.000000
0.951747 0.274497 0.006747
0.059243 0.350618 0.000000
0.170400 0.354150 0.000000
0.281557 0.357682 0.000000
0.392714 0.361214 0.000000
0.506859 0.367734 0.000000
0.621548 0.374798 0.000000
0.736237 0.381862 0.006487
0.850926 0.388926 0.013551
0.965615 0.395990 0.020615
0.066177 0.465177 0.000000
0.177334 0.468709 0.000000
0.291349 0.475099 0.000000
0.406038 0.482163 0.000000
0.520727 0.489227 0.006227
0.635416 0.496291 0.013291
0.750105 0.503355 0.020355
0.864794 0.510419 0.027419
0.979483 0.517483 0.034483
0.075839 0.582464 0.000000
0.190528 0.589528 0.000000
0.305217 0.596592 0.005967
0.419906 0.603656 0.013031
0.534595 0.610720 0.020095
0.649284 0.617784 0.027159
0.763973 0.624848 0.034223
0.878661 0.631911 0.041287
0.993350 0.638975 0.048350
0.089707 0.703957 0.005707
0.204396 0.711021 0.012771
0.319085 0.718085 0.019835
0.433774 0.725149 0.026899
0.548463 0.732213 0.033963
0.663152 0.739277 0.041027
0.777841 0.746340 0.048090
0.890467 0.751664 0.055027
0.998962 0.754235 0.061708
0.103575 0.825450 0.019575
0.218264 0.832514 0.026639
0.332953 0.839578 0.033703
0.447642 0.846642 0.040767
0.562331 0.853706 0.047831
0.675602 0.858967 0.054780
0.785390 0.860908 0.061464
0.893828 0.862765 0.068065
1.000000 0.864539 0.074583
0.117443 0.946943 0.033443
0.232132 0.954007 0.040507
0.346821 0.961071 0.047571
0.460643 0.966317 0.054532
0.571725 0.967627 0.061219
0.681457 0.968854 0.067824
0.789838 0.969998 0.074345
0.896869 0.971058 0.080783
1.000000 0.972036 0.087138
0.039193 0.007693 0.062818
0.150945 0.011820 0.066945
0.262101 0.015351 0.070476
0.373258 0.018883 0.074008
0.484415 0.022415 0.077540
0.595572 0.025947 0.081072
0.706729 0.029479 0.084604
0.817886 0.033011 0.088136
0.929043 0.036543 0.091668
0.046722 0.122847 0.070347
0.157878 0.126378 0.073878
0.269035 0.129910 0.077410
0.380192 0.133442 0.080942
0.491349 0.136974 0.084474
0.602506 0.140506 0.088006
0.713663 0.144038 0.091538
0.825883 0.148633 0.096133
0.940572 0.155697 0.103197
0.053655 0.237405 0.077280
0.164812 0.240937 0.080812
0.275969 0.244469 0.084344
0.387126 0.248001 0.087876
0.498283 0.251533 0.091408
0.610373 0.255998 0.095873
0.725062 0.263062 0.102937
0.839751 0.270126 0.110001
0.954440 0.277190 0.117065
0.060589 0.351964 0.084214
0.171746 0.355496 0.087746
0.282903 0.359028 0.091278
0.394863 0.363363 0.095614
0.509552 0.370427 0.102677
0.624241 0.377491 0.109741
0.738930 0.384555 0.116805
0.853619 0.391619 0.123869
0.968308 0.398683 0.130933
0.067523 0.466523 0.091148
0.179354 0.470729 0.095354
0.294042 0.477793 0.102417
0.408731 0.484856 0.109481
0.523420 0.491920 0.116545
0.638109 0.498984 0.123609
0.752798 0.506048 0.130673
0.867487 0.513112 0.137737
0.982176 0.520176 0.144801
0.078533 0.585158 0.102158
0.193221 0.592221 0.109221
0.307910 0.599285 0.116285
0.422599 0.606349 0.123349
0.537288 0.613413 0.130413
0.651977 0.620477 0.137477
0.766666 0.627541 0.144541
0.881355 0.634605 0.151605
0.996044 0.641669 0.158669
0.092400 0.706650 0.116026
0.207089 0.713714 0.123089
0.321778 0.720778 0.130153
0.436467 0.727842 0.137217
0.551156 0.734906 0.144281
0.665845 0.741970 0.151345
0.780534 0.749034 0.158409
0.891145 0.752654 0.164719
0.999367 0.755193 0.170735
0.106268 0.828143 0.129893
0.220957 0.835207 0.136957
0.335646 0.842271 0.144021
0.450335 0.849335 0.151085
0.565024 0.856399 0.158149
0.676764 0.859717 0.164496
0.786279 0.861626 0.170515
0.894444 0.863451 0.176451
1.000000 0.865194 0.182304
0.120136 0.949636 0.143761
0.234825 0.956700 0.150825
0.349514 0.963764 0.157889
0.462290 0.966827 0.164273
0.573098 0.968105 0.170295
0.682556 0.969300 0.176234
0.790664 0.970412 0.182090
0.897422 0.971441 0.187863
1.000000 0.972387 0.193552
0.041134 0.009634 0.172384
0.152291 0.013166 0.175916
0.263448 0.016698 0.179448
0.374605 0.020230 0.182980
0.485762 0.023762 0.186512
0.596919 0.027294 0.190044
0.708076 0.030826 0.193576
0.819233 0.034358 0.197108
0.930390 0.037890 0.200640
0.048068 0.124193 0.179318
0.159225 0.127725 0.182850
0.270382 0.131257 0.186382
0.381539 0.134789 0.189914
0.492696 0.138321 0.193446
0.603853 0.141853 0.196978
0.715010 0.145385 0.200510
0.828577 0.151327 0.206452
0.943265 0.158390 0.213515
0.055002 0.238752 0.186252
0.166159 0.242284 0.189784
0.277316 0.245816 0.193316
0.388473 0.249348 0.196848
0.499630 0.252880 0.200380
0.613067 0.258692 0.206192
0.727755 0.265755 0.213255
0.842444 0.272819 0.220319
0.957133 0.279883 0.227383
0.061936 0.353311 0.193186
0.173093 0.356843 0.196718
0.284250 0.360375 0.200250
0.397557 0.366057 0.205932
0.512246 0.373121 0.212996
0.626935 0.380185 0.220059
0.741623 0.387248 0.227123
0.856312 0.394312 0.234187
0.971001 0.401376 0.241251
0.068870 0.467870 0.200120
0.182047 0.473422 0.205672
0.296736 0.480486 0.212736
0.411425 0.487550 0.219800
0.526113 0.494613 0.226863
0.640802 0.501677 0.233927
0.755491 0.508741 0.240991
0.870180 0.515805 0.248055
0.984869 0.522869 0.255119
0.081226 0.587851 0.212476
0.195915 0.594915 0.219540
0.310604 0.601979 0.226604
0.425292 0.609043 0.233668
0.539981 0.616106 0.240731
0.654670 0.623170 0.247795
0.769359 0.630234 0.254859
0.884048 0.637298 0.261923
0.997609 0.643634 0.268683
0.095094 0.709344 0.226344
0.209783 0.716408 0.233408
0.324472 0.723471 0.240472
0.439160 0.730535 0.247535
0.553849 0.737599 0.254599
0.668538 0.744663 0.261663
0.782512 0.751041 0.268482
0.891811 0.753632 0.273916
0.999759 0.756139 0.279267
0.108962 0.830837 0.240212
0.223651 0.837900 0.247276
0.338339 0.844964 0.254339
0.453028 0.852028 0.261403
0.567322 0.858494 0.268280
0.677914 0.860455 0.273717
0.787156 0.862332 0.279071
0.895047 0.864126 0.284342
1.000000 0.865836 0.289529
0.122830 0.952330 0.254080
0.237518 0.959393 0.261143
0.352038 0.965994 0.268079
0.463924 0.967324 0.273519
0.574459 0.968570 0.278876
0.683644 0.969734 0.284149
0.791479 0.970814 0.289340
0.897963 0.971811 0.294447
1.000000 0.972725 0.299472
0.042481 0.010981 0.281356
0.153638 0.014513 0.284888
0.264795 0.018045 0.288420
0.375952 0.021577 0.291952
0.487109 0.025109 0.295484
0.598266 0.028641 0.299016
0.709422 0.032172 0.302547
0.820579 0.035704 0.306079
0.932091 0.039591 0.309966
0.049415 0.125540 0.288290
0.160572 0.129072 0.291822
0.271729 0.132604 0.295354
0.382886 0.136136 0.298886
0.494043 0.139668 0.302418
0.605199 0.143199 0.305949
0.716581 0.146956 0.309706
0.831270 0.154020 0.316770
0.945959 0.161084 0.323834
0.056349 0.240099 0.295224
0.167506 0.243631 0.298756
0.278663 0.247163 0.302288
0.389820 0.250695 0.305820
0.501071 0.254321 0.309446
0.615760 0.261385 0.316510
0.730449 0.268449 0.323574
0.845138 0.275513 0.330638
0.959827 0.282577 0.337701
0.063283 0.354658 0.302158
0.174440 0.358190 0.305690
0.285597 0.361722 0.309222
0.400250 0.368750 0.316250
0.514939 0.375814 0.323314
0.629628 0.382878 0.330378
0.744317 0.389942 0.337442
0.859005 0.397006 0.344506
0.973694 0.404069 0.351569
0.070217 0.469217 0.309092
0.184740 0.476115 0.315990
0.299429 0.483179 0.323054
0.414118 0.490243 0.330118
0.528807 0.497307 0.337182
0.643496 0.504371 0.344246
0.758184 0.511434 0.351309
0.872873 0.518498 0.358373
0.987562 0.525562 0.365437
0.083919 0.590544 0.322794
0.198608 0.597608 0.329858
0.313297 0.604672 0.336922
0.427986 0.611736 0.343986
0.542675 0.618800 0.351050
0.657364 0.625864 0.358113
0.772052 0.632927 0.365177
0.886741 0.639991 0.372241
0.998052 0.644872 0.378026
0.097787 0.712037 0.336662
0.212476 0.719101 0.343726
0.327165 0.726165 0.350790
0.441854 0.733229 0.357854
0.556543 0.740293 0.364918
0.671231 0.747356 0.371981
0.783439 0.752039 0.377849
0.892465 0.754598 0.382617
1.000000 0.757074 0.387303
0.111655 0.833530 0.350530
0.226344 0.840594 0.357594
0.341033 0.847658 0.364658
0.455722 0.854721 0.371722
0.568733 0.859251 0.377672
0.679052 0.861180 0.382443
0.788020 0.863025 0.387132
0.895639 0.864788 0.391737
1.000000 0.866467 0.396260
0.125523 0.955023 0.364398
0.240212 0.962087 0.371462
0.353934 0.966511 0.377494
0.465546 0.967809 0.382269
0.575808 0.969024 0.386961
0.684720 0.970156 0.391570
0.792281 0.971204 0.396095
0.898492 0.972170 0.400537
1.000000 0.973052 0.404896
0.043827 0.012327 0.390327
0.154984 0.015859 0.393859
0.266141 0.019391 0.397391
0.377298 0.022923 0.400923
0.488455 0.026455 0.404455
0.599612 0.029987 0.407987
0.710769 0.033519 0.411519
0.821926 0.037051 0.415051
0.934784 0.042284 0.420284
0.050761 0.126886 0.397261
0.161918 0.130418 0.400793
0.273075 0.133950 0.404325
0.384232 0.137482 0.407857
0.495389 0.141014 0.411389
0.606546 0.144546 0.414921
0.719274 0.149649 0.420024
0.833963 0.156713 0.427088
0.948652 0.163777 0.434152
0.057695 0.241445 0.404195
0.168852 0.244977 0.407727
0.280009 0.248509 0.411259
0.391166 0.252041 0.414791
0.503764 0.257014 0.419764
0.618453 0.264078 0.426828
0.733142 0.271142 0.433892
0.847831 0.278206 0.440956
0.962520 0.285270 0.448020
0.064629 0.356004 0.411129
0.175786 0.359536 0.414661
0.288254 0.364379 0.419504
0.402943 0.371443 0.426568
0.517632 0.378507 0.433632
0.632321 0.385571 0.440696
0.747010 0.392635 0.447760
0.861699 0.399699 0.454824
0.976388 0.406763 0.461888
0.072745 0.471745 0.419245
0.187433 0.478808 0.426308
0.302122 0.485872 0.433372
0.416811 0.492936 0.440436
0.531500 0.500000 0.447500
0.646189 0.507064 0.454564
0.760878 0.514128 0.461628
0.875567 0.521192 0.468692
0.990256 0.528255 0.475755
0.086612 0.593237 0.433112
0.201301 0.600301 0.440176
0.315990 0.607365 0.447240
0.430679 0.614429 0.454304
0.545368 0.621493 0.461368
0.660057 0.628557 0.468432
0.774746 0.635621 0.475496
0.889435 0.642684 0.482560
0.998482 0.646098 0.486873
0.100480 0.714730 0.446980
0.215169 0.721794 0.454044
0.329858 0.728858 0.461108
0.444547 0.735922 0.468172
0.559236 0.742986 0.475236
0.673925 0.750050 0.482300
0.784354 0.753024 0.486720
0.893106 0.755551 0.490824
1.000000 0.757996 0.494844
0.114348 0.836223 0.460848
0.229037 0.843287 0.467912
0.343726 0.850351 0.474976
0.458415 0.857415 0.482040
0.570132 0.859997 0.486568
0.680178 0.861893 0.490674
0.788873 0.863707 0.494698
0.896218 0.865438 0.498638
1.000000 0.867085 0.502495
0.128216 0.957716 0.474716
0.242905 0.964780 0.481780
0.355817 0.967015 0.486415
0.467156 0.968282 0.490525
0.577145 0.969465 0.494551
0.685783 0.970565 0.498494
0.793072 0.971582 0.502354
0.899010 0.972516 0.506131
1.000000 0.973366 0.509825
0.045174 0.013674 0.499299
0.156331 0.017206 0.502831
0.267488 0.020738 0.506363
0.378645 0.024270 0.509895
0.489802 0.027802 0.513427
0.600959 0.031334 0.516959
0.712116 0.034866 0.520491
0.823273 0.038398 0.524023
0.937477 0.044977 0.530602
0.052108 0.128233 0.506233
0.163265 0.131765 0.509765
0.274422 0.135297 0.513297
0.385579 0.138829 0.516829
0.496736 0.142361 0.520361
0.607893 0.145893 0.523893
0.721967 0.152342 0.530342
0.836656 0.159406 0.537406
0.951345 0.166470 0.544470
0.059042 0.242792 0.513167
0.170199 0.246324 0.516699
0.281356 0.249856 0.520231
0.392513 0.253388 0.523763
0.506458 0.259707 0.530082
0.621146 0.266771 0.537146
0.735835 0.273835 0.544210
0.850524 0.280899 0.551274
0.965213 0.287963 0.558338
0.065976 0.357351 0.520101
0.177133 0.360883 0.523633
0.290948 0.367073 0.529823
0.405636 0.374136 0.536886
0.520325 0.381200 0.543950
0.635014 0.388264 0.551014
0.749703 0.395328 0.558078
0.864392 0.402392 0.565142
0.979081 0.409456 0.572206
0.075438 0.474438 0.529563
0.190127 0.481502 0.536627
0.304815 0.488565 0.543690
0.419504 0.495629 0.550754
0.534193 0.502693 0.557818
0.648882 0.509757 0.564882
0.763571 0.516821 0.571946
0.878260 0.523885 0.579010
0.992949 0.530949 0.586074
0.089306 0.595931 0.543431
0.203994 0.602994 0.550494
0.318683 0.610058 0.557558
0.433372 0.617122 0.564622
0.548061 0.624186 0.571686
0.662750 0.631250 0.578750
0.777439 0.638314 0.585814
0.890365 0.644103 0.591706
0.998901 0.647312 0.595225
0.103174 0.717423 0.557298
0.217862 0.724487 0.564362
0.332551 0.731551 0.571426
0.447240 0.738615 0.578490
0.561929 0.745679 0.585554
0.675428 0.751419 0.591575
0.785257 0.753998 0.595097
0.893735 0.756493 0.598535
1.000000 0.758906 0.601890
0.117041 0.838916 0.571166
0.231730 0.845980 0.578230
0.346419 0.853044 0.585294
0.460397 0.858781 0.591444
0.571519 0.860730 0.594969
0.681291 0.862595 0.598410
0.789713 0.864377 0.601768
0.896785 0.866076 0.605043
1.000000 0.867691 0.608235
0.130909 0.960409 0.585034
0.245272 0.966190 0.591313
0.357688 0.967508 0.594841
0.468754 0.968743 0.598285
0.578470 0.969894 0.601646
0.686835 0.970963 0.604924
0.793850 0.971948 0.608119
0.899514 0.972850 0.611231
1.000000 0.973669 0.614259
0.046521 0.015021 0.608271
0.157678 0.018553 0.611803
0.268835 0.022085 0.615335
0.379992 0.025617 0.618867
0.491148 0.029148 0.622398
0.602305 0.032680 0.625930
0.713462 0.036212 0.629462
0.825482 0.040607 0.633857
0.940170 0.047670 0.640921
0.053455 0.129580 0.615205
0.164612 0.133112 0.618737
0.275769 0.136644 0.622269
0.386925 0.140175 0.625800
0.498082 0.143707 0.629332
0.609972 0.147972 0.633597
0.724661 0.155036 0.640661
0.839349 0.162100 0.647725
0.954038 0.169163 0.654788
0.060389 0.244139 0.622139
0.171546 0.247671 0.625671
0.282702 0.251202 0.629202
0.394462 0.255337 0.633337
0.509151 0.262401 0.640401
0.623840 0.269465 0.647465
0.738529 0.276529 0.654528
0.853217 0.283592 0.661592
0.967906 0.290656 0.668656
0.067323 0.358698 0.629073
0.178952 0.362702 0.633077
0.293641 0.369766 0.640141
0.408330 0.376830 0.647205
0.523019 0.383894 0.654269
0.637707 0.390958 0.661332
0.752396 0.398021 0.668396
0.867085 0.405085 0.675460
0.981774 0.412149 0.682524
0.078131 0.477131 0.639881
0.192820 0.484195 0.646945
0.307509 0.491259 0.654009
0.422198 0.498323 0.661073
0.536887 0.505386 0.668136
0.651575 0.512450 0.675200
0.766264 0.519514 0.682264
0.880953 0.526578 0.689328
0.995642 0.533642 0.696392
0.091999 0.598624 0.653749
0.206688 0.605688 0.660813
0.321377 0.612752 0.667877
0.436065 0.619816 0.674940
0.550754 0.626879 0.682004
0.665443 0.633943 0.689068
0.780132 0.641007 0.696132
0.891045 0.645336 0.700228
0.999307 0.648514 0.703082
0.105867 0.720117 0.667617
0.220556 0.727181 0.674681
0.335245 0.734244 0.681744
0.449933 0.741308 0.688808
0.564622 0.748372 0.695872
0.676592 0.752412 0.700122
0.786147 0.754959 0.702978
0.894353 0.757423 0.705751
1.000000 0.759804 0.708441
0.119735 0.841610 0.681485
0.234424 0.848673 0.688549
0.349112 0.855737 0.695612
0.462045 0.859534 0.700015
0.572894 0.861451 0.702874
0.682393 0.863284 0.705651
0.790542 0.865034 0.708343
0.897340 0.866701 0.710953
1.000000 0.868285 0.713480
0.133603 0.963102 0.695352
0.247405 0.966703 0.699909
0.359548 0.967989 0.702771
0.470340 0.969192 0.705550
0.579782 0.970311 0.708246
0.687874 0.971348 0.710859
0.794616 0.972302 0.713388
0.900007 0.973172 0.715835
1.000000 0.973959 0.718198
0.047867 0.016367 0.717242
0.159024 0.019899 0.720774
0.270181 0.023431 0.724306
0.381338 0.026963 0.727838
0.492495 0.030495 0.731370
0.603652 0.034027 0.734902
0.714809 0.037559 0.738434
0.828175 0.043300 0.744175
0.942864 0.050364 0.751239
0.054801 0.130926 0.724176
0.165958 0.134458 0.727708
0.277115 0.137990 0.731240
0.388272 0.141522 0.734772
0.499429 0.145054 0.738304
0.612665 0.150665 0.743915
0.727354 0.157729 0.750979
0.842043 0.164793 0.758043
0.956732 0.171857 0.765107
0.061735 0.245485 0.731110
0.172892 0.249017 0.734642
0.284049 0.252549 0.738174
0.397155 0.258030 0.743655
0.511844 0.265094 0.750719
0.626533 0.272158 0.757783
0.741222 0.279222 0.764847
0.855911 0.286286 0.771911
0.970600 0.293350 0.778975
0.068669 0.360044 0.738044
0.181645 0.365395 0.743395
0.296334 0.372459 0.750459
0.411023 0.379523 0.757523
0.525712 0.386587 0.764587
0.640401 0.393651 0.771651
0.755090 0.400715 0.778715
0.869779 0.407779 0.785778
0.984467 0.414842 0.792842
0.080824 0.479824 0.750199
0.195513 0.486888 0.757263
0.310202 0.493952 0.764327
0.424891 0.501016 0.771391
0.539580 0.508080 0.778455
0.654269 0.515144 0.785519
0.768957 0.522208 0.792582
0.883646 0.529271 0.799646
0.997542 0.535909 0.806069
0.094692 0.601317 0.764067
0.209381 0.608381 0.771131
0.324070 0.615445 0.778195
0.438759 0.622509 0.785259
0.553448 0.629573 0.792323
0.668137 0.636636 0.799386
0.782373 0.643328 0.805984
0.891712 0.646557 0.808255
0.999701 0.649703 0.810443
0.108560 0.722810 0.777935
0.223249 0.729874 0.784999
0.337938 0.736938 0.792063
0.452627 0.744002 0.799127
0.567111 0.750794 0.805899
0.677743 0.753393 0.808173
0.787026 0.755908 0.810364
0.894958 0.758340 0.812472
1.000000 0.760689 0.814496
0.122428 0.844303 0.791803
0.237117 0.851367 0.798867
0.351755 0.858306 0.805814
0.463681 0.860274 0.808091
0.574257 0.862159 0.810285
0.683483 0.863961 0.812396
0.791358 0.865680 0.814423
0.897883 0.867315 0.816368
1.000000 0.868867 0.818229
0.136296 0.965796 0.805671
0.249525 0.967203 0.808009
0.361395 0.968457 0.810206
0.471914 0.969628 0.812320
0.581083 0.970716 0.814350
0.688901 0.971721 0.816298
0.795370 0.972643 0.818162
0.900488 0.973482 0.819943
1.000000 0.974237 0.821641
0.049214 0.017714 0.826214
0.160371 0.021246 0.829746
0.271528 0.024778 0.833278
0.382685 0.028310 0.836810
0.493842 0.031842 0.840342
0.604999 0.035374 0.843874
0.716179 0.038929 0.847429
0.830868 0.045993 0.854493
0.945557 0.053057 0.861557
0.056148 0.132273 0.833148
0.167305 0.135805 0.836680
0.278462 0.139337 0.840212
0.389619 0.142869 0.843744
0.500776 0.146401 0.847276
0.615358 0.153358 0.854233
0.730047 0.160422 0.861297
0.844736 0.167486 0.868361
0.959425 0.174550 0.875425
0.063082 0.246832 0.840082
0.174239 0.250364 0.843614
0.285396 0.253896 0.847146
0.399848 0.260723 0.853973
0.514537 0.267787 0.861037
0.629226 0.274851 0.868101
0.743915 0.281915 0.875165
0.858604 0.288979 0.882229
0.973293 0.296043 0.889293
0.070016 0.361391 0.847016
0.184339 0.368088 0.853714
0.299027 0.375152 0.860777
0.413716 0.382216 0.867841
0.528405 0.389280 0.874905
0.643094 0.396344 0.881969
0.757783 0.403408 0.889033
0.872472 0.410472 0.896097
0.987161 0.417536 0.903161
0.083518 0.482517 0.860517
0.198206 0.489581 0.867581
0.312895 0.496645 0.874645
0.427584 0.503709 0.881709
0.542273 0.510773 0.888773
0.656962 0.517837 0.895837
0.771651 0.524901 0.902901
0.886340 0.531965 0.909965
0.997987 0.537391 0.914242
0.097385 0.604010 0.874385
0.212074 0.611074 0.881449
0.326763 0.618138 0.888513
0.441452 0.625202 0.895577
0.556141 0.632266 0.902641
0.670830 0.639330 0.909705
0.783302 0.644569 0.914181
0.892368 0.647767 0.915787
1.000000 0.650881 0.917310
0.111253 0.725503 0.888253
0.225942 0.732567 0.895317
0.340631 0.739631 0.902381
0.455320 0.746695 0.909445
0.568524 0.751795 0.914121
0.678883 0.754362 0.915729
0.787892 0.756845 0.917255
0.895551 0.759246 0.918698
1.000000 0.761563 0.920057
0.125121 0.846996 0.902121
0.239810 0.854060 0.909185
0.353652 0.859067 0.914060
0.465305 0.861003 0.915672
0.575608 0.862856 0.917200
0.684560 0.864626 0.918646
0.792162 0.866313 0.920008
0.898414 0.867917 0.921288
1.000000 0.869437 0.922484
0.138687 0.966385 0.913999
0.251633 0.967691 0.915614
0.363230 0.968914 0.917146
0.473476 0.970053 0.918594
0.582371 0.971109 0.919960
0.689917 0.972083 0.921242
0.796112 0.972973 0.922441
0.900957 0.973780 0.923557
1.000000 0.974503 0.924590
