assets/luts/mood.cube
# MoodFilm Filter — mood
TITLE "mood"
LUT_3D_SIZE 5
0.237198 0.169278 0.169278
0.383861 0.176680 0.176680
0.523918 0.183748 0.183748
0.660469 0.190640 0.190640
0.747553 0.195035 0.195035
0.252184 0.335402 0.194035
0.399452 0.341954 0.201340
0.539678 0.348150 0.208289
0.676285 0.354162 0.215055
0.772328 0.358371 0.219809
0.265106 0.494933 0.217746
0.413918 0.501764 0.225158
0.557611 0.509016 0.232410
0.697433 0.516073 0.239466
0.797010 0.521098 0.244492
0.286201 0.651941 0.241444
0.437858 0.659595 0.249098
0.582150 0.666877 0.256380
0.722694 0.673970 0.263473
0.820950 0.678929 0.268432
0.311485 0.806584 0.264979
0.463759 0.814268 0.272664
0.608120 0.821554 0.279949
0.748609 0.828644 0.287040
0.844392 0.833478 0.291873
0.238390 0.171323 0.287144
0.385128 0.178742 0.295325
0.525226 0.185825 0.303170
0.661807 0.192731 0.310838
0.749695 0.197176 0.315834
0.253373 0.337250 0.314255
0.400723 0.343818 0.322338
0.540990 0.350029 0.330063
0.677627 0.356056 0.337604
0.774475 0.360315 0.342959
0.266330 0.496836 0.340573
0.416104 0.503951 0.348479
0.559798 0.511203 0.355731
0.699619 0.518259 0.362787
0.799196 0.523285 0.367813
0.288388 0.654128 0.364765
0.440098 0.661786 0.372525
0.584569 0.669103 0.381363
0.725136 0.676223 0.390001
0.823213 0.681192 0.396069
0.313968 0.808848 0.392072
0.466250 0.816560 0.401300
0.610631 0.823872 0.410129
0.751143 0.830989 0.418761
0.846747 0.835833 0.424700
0.239780 0.173787 0.429267
0.386597 0.181209 0.437414
0.526727 0.188294 0.445223
0.663328 0.195200 0.452854
0.752213 0.199695 0.457873
0.254704 0.339409 0.456214
0.402141 0.345982 0.464264
0.542441 0.352193 0.471954
0.679099 0.358221 0.479459
0.776966 0.362674 0.484738
0.267646 0.499005 0.482408
0.418616 0.506463 0.490147
0.562309 0.513714 0.497399
0.702131 0.520771 0.504455
0.801708 0.525796 0.509480
0.290900 0.656640 0.506433
0.442883 0.664320 0.514702
0.587343 0.671635 0.523465
0.727904 0.678754 0.532031
0.825730 0.683709 0.538033
0.316774 0.811380 0.534077
0.469030 0.819089 0.543232
0.613401 0.826400 0.551989
0.753907 0.833516 0.560550
0.849260 0.838346 0.566426
0.241080 0.176161 0.566315
0.387976 0.183587 0.574446
0.528138 0.190672 0.582238
0.664760 0.197579 0.589850
0.754642 0.202124 0.594906
0.255945 0.341480 0.593156
0.403470 0.348056 0.601191
0.543804 0.354269 0.608863
0.680483 0.360297 0.616350
0.779390 0.365099 0.621470
0.269384 0.501233 0.619225
0.421040 0.508887 0.626879
0.564734 0.516139 0.634131
0.704555 0.523195 0.641187
0.804135 0.528223 0.646365
0.293324 0.659064 0.643165
0.445580 0.666766 0.651919
0.590030 0.674080 0.660643
0.730585 0.681198 0.669170
0.828161 0.686140 0.675132
0.319494 0.813826 0.671204
0.471724 0.821533 0.680320
0.616086 0.828842 0.689039
0.756585 0.835957 0.697562
0.851688 0.840774 0.703398
0.242325 0.178481 0.700343
0.389301 0.185911 0.708465
0.529496 0.192998 0.716245
0.666139 0.199906 0.723845
0.757019 0.204501 0.728941
0.257132 0.343497 0.727097
0.404745 0.350078 0.735123
0.545114 0.356292 0.742783
0.682184 0.362445 0.750207
0.781762 0.367470 0.755233
0.271756 0.503605 0.752988
0.423412 0.511258 0.760641
0.567105 0.518510 0.767893
0.706927 0.525567 0.774950
0.806515 0.530603 0.780604
0.295771 0.661441 0.777052
0.448224 0.669159 0.786154
0.592665 0.676472 0.794852
0.733213 0.683589 0.803353
0.830539 0.688518 0.809283
0.322162 0.816219 0.805379
0.474367 0.823924 0.814468
0.618719 0.831233 0.823160
0.759212 0.838347 0.831657
0.854065 0.843151 0.837463
