assets/luts/mood.cube
# MoodFilm Filter — mood
TITLE "mood"
LUT_3D_SIZE 17
0.237198 0.169278 0.169278
0.274897 0.171181 0.171181
0.311765 0.173041 0.173041
0.348042 0.174872 0.174872
0.383861 0.176680 0.176680
0.419306 0.178469 0.178469
0.454438 0.180242 0.180242
0.489297 0.182001 0.182001
0.523918 0.183748 0.183748
0.558327 0.185485 0.185485
0.592544 0.187212 0.187212
0.626586 0.188930 0.188930
0.660469 0.190640 0.190640
0.694204 0.192342 0.192342
0.727802 0.194038 0.194038
0.747553 0.195035 0.195035
0.747553 0.195035 0.195035
0.241296 0.208449 0.175140
0.279008 0.210111 0.177008
0.315873 0.211730 0.178834
0.352138 0.213318 0.180629
0.387940 0.214883 0.182401
0.423365 0.216429 0.184153
0.458473 0.217959 0.185890
0.493308 0.219475 0.187613
0.527904 0.220979 0.189324
0.562285 0.222472 0.191024
0.596474 0.223955 0.192714
0.630487 0.225429 0.194395
0.664340 0.226895 0.196069
0.698045 0.228353 0.197734
0.731613 0.229804 0.199393
0.752957 0.230664 0.200439
0.752957 0.230664 0.200439
0.245131 0.252071 0.181637
0.282922 0.253748 0.183510
0.319840 0.255381 0.185340
0.356145 0.256983 0.187139
0.391980 0.258561 0.188914
0.427432 0.260120 0.190670
0.462563 0.261663 0.192409
0.497419 0.263191 0.194135
0.532033 0.264708 0.195848
0.566431 0.266213 0.197551
0.600635 0.267709 0.199244
0.634662 0.269196 0.200928
0.668528 0.270674 0.202603
0.702245 0.272145 0.204271
0.735824 0.273609 0.205933
0.759622 0.274603 0.207104
0.759622 0.274603 0.207104
0.248730 0.294192 0.187905
0.286603 0.295879 0.189784
0.323575 0.297520 0.191617
0.359920 0.299130 0.193419
0.395786 0.300716 0.195197
0.431265 0.302282 0.196954
0.466419 0.303832 0.198696
0.501295 0.305368 0.200424
0.535926 0.306891 0.202139
0.570340 0.308404 0.203843
0.604558 0.309906 0.205537
0.638599 0.311400 0.207223
0.672478 0.312885 0.208900
0.706206 0.314363 0.210570
0.739796 0.315833 0.212232
0.766046 0.316957 0.213528
0.766046 0.316957 0.213528
0.252184 0.335402 0.194035
0.290141 0.337098 0.195919
0.327168 0.338746 0.197756
0.363554 0.340362 0.199560
0.399452 0.341954 0.201340
0.434957 0.343525 0.203100
0.470134 0.345080 0.204843
0.505029 0.346621 0.206572
0.539678 0.348150 0.208289
0.574107 0.349667 0.209994
0.608340 0.351174 0.211690
0.642394 0.352672 0.213377
0.676285 0.354162 0.215055
0.710024 0.355645 0.216726
0.743625 0.357120 0.218390
0.772328 0.358371 0.219809
0.772328 0.358371 0.219809
0.255530 0.375961 0.200066
0.293576 0.377664 0.201955
0.330658 0.379318 0.203795
0.367085 0.380939 0.205601
0.403016 0.382535 0.207383
0.438548 0.384111 0.209145
0.473747 0.385671 0.210890
0.508662 0.387215 0.212620
0.543328 0.388748 0.214338
0.577774 0.390269 0.216045
0.612021 0.391780 0.217742
0.646088 0.393282 0.219430
0.679990 0.394776 0.221109
0.713741 0.396262 0.222781
0.747878 0.397917 0.224494
0.778561 0.399466 0.226043
0.778561 0.399466 0.226043
0.258791 0.416011 0.206020
0.296928 0.417721 0.207913
0.334068 0.419381 0.209756
0.370537 0.421007 0.211566
0.406500 0.422607 0.213349
0.442059 0.424187 0.215113
0.477282 0.425750 0.216859
0.512217 0.427298 0.218591
0.546900 0.428834 0.220310
0.581361 0.430358 0.222018
0.615665 0.431886 0.223720
0.650516 0.433645 0.225479
0.685195 0.435395 0.227229
0.719716 0.437137 0.228971
0.754090 0.438872 0.230706
0.784773 0.440421 0.232255
0.784773 0.440421 0.232255
0.261980 0.455647 0.211910
0.300212 0.457364 0.213808
0.337412 0.459029 0.215655
0.373923 0.460659 0.217467
0.409920 0.462263 0.219252
0.445506 0.463846 0.221017
0.480751 0.465412 0.222765
0.516037 0.467069 0.224528
0.551520 0.468860 0.226319
0.586770 0.470639 0.228098
0.621811 0.472407 0.229866
0.656663 0.474166 0.231625
0.691342 0.475916 0.233375
0.725862 0.477658 0.235118
0.760236 0.479393 0.236852
0.790919 0.480942 0.238401
0.790919 0.480942 0.238401
0.265106 0.494933 0.217746
0.303438 0.496656 0.219650
0.340698 0.498326 0.221500
0.377253 0.499960 0.223314
0.413918 0.501764 0.225158
0.450328 0.503602 0.226996
0.486380 0.505421 0.228815
0.522128 0.507225 0.230619
0.557611 0.509016 0.232410
0.592861 0.510795 0.234189
0.627902 0.512564 0.235957
0.662753 0.514322 0.237716
0.697433 0.516073 0.239466
0.731953 0.517815 0.241209
0.766327 0.519550 0.242943
0.797010 0.521098 0.244492
0.797010 0.521098 0.244492
0.268305 0.533953 0.223548
0.307591 0.535936 0.225530
0.345726 0.537860 0.227455
0.383118 0.539747 0.229342
0.419961 0.541607 0.231201
0.456371 0.543444 0.233039
0.492423 0.545264 0.234858
0.528171 0.547068 0.236662
0.563654 0.548858 0.238453
0.598904 0.550637 0.240232
0.633945 0.552406 0.242001
0.668797 0.554165 0.243759
0.703476 0.555915 0.245510
0.737996 0.557657 0.247252
0.772370 0.559392 0.248987
0.803053 0.560940 0.250535
0.803053 0.560940 0.250535
0.274306 0.573520 0.229549
0.313593 0.575502 0.231532
0.351728 0.577427 0.233456
0.389119 0.579314 0.235343
0.425963 0.581173 0.237203
0.462373 0.583011 0.239040
0.498425 0.584830 0.240860
0.534172 0.586634 0.242664
0.569656 0.588425 0.244455
0.604906 0.590204 0.246234
0.639946 0.591973 0.248002
0.674798 0.593732 0.249761
0.709562 0.595486 0.251515
0.744265 0.597237 0.253267
0.778820 0.598981 0.255011
0.809055 0.600507 0.256537
0.809055 0.600507 0.256537
0.280271 0.612841 0.235513
0.319557 0.614824 0.237496
0.357692 0.616748 0.239421
0.395084 0.618635 0.241308
0.431927 0.620495 0.243167
0.468337 0.622332 0.245005
0.504389 0.624152 0.246824
0.540137 0.625956 0.248628
0.575620 0.627747 0.250419
0.611024 0.629533 0.252206
0.646249 0.631311 0.253983
0.681284 0.633079 0.255751
0.716145 0.634839 0.257511
0.750845 0.636590 0.259262
0.785398 0.638334 0.261006
0.815019 0.639829 0.262501
0.815019 0.639829 0.262501
0.286201 0.651941 0.241444
0.325488 0.653924 0.243427
0.363623 0.655849 0.245351
0.401014 0.657736 0.247238
0.437858 0.659595 0.249098
0.474304 0.661435 0.250937
0.510546 0.663264 0.252766
0.546481 0.665077 0.254580
0.582150 0.666877 0.256380
0.617583 0.668666 0.258168
0.652805 0.670443 0.259946
0.687836 0.672211 0.261714
0.722694 0.673970 0.263473
0.757392 0.675721 0.265224
0.791942 0.677465 0.266968
0.820950 0.678929 0.268432
0.820950 0.678929 0.268432
0.292102 0.690841 0.247344
0.331388 0.692824 0.249327
0.369634 0.694754 0.251257
0.407221 0.696651 0.253154
0.444254 0.698520 0.255023
0.480851 0.700367 0.256870
0.517088 0.702196 0.258699
0.553018 0.704009 0.260512
0.588682 0.705809 0.262312
0.624111 0.707597 0.264100
0.659330 0.709374 0.265877
0.694358 0.711142 0.267645
0.729213 0.712901 0.269404
0.763908 0.714652 0.271155
0.798455 0.716396 0.272899
0.826850 0.717829 0.274332
0.826850 0.717829 0.274332
0.298383 0.729577 0.253237
0.337859 0.731569 0.255230
0.376180 0.733503 0.257164
0.413756 0.735400 0.259060
0.450781 0.737268 0.260928
0.487371 0.739115 0.262775
0.523602 0.740944 0.264604
0.559527 0.742757 0.266417
0.595187 0.744556 0.268216
0.630612 0.746344 0.270004
0.665827 0.748121 0.271781
0.700852 0.749889 0.273549
0.735703 0.751648 0.275308
0.770396 0.753399 0.277059
0.804941 0.755142 0.278802
0.832722 0.756544 0.280204
0.832722 0.756544 0.280204
0.304946 0.768159 0.259120
0.344395 0.770150 0.261111
0.382701 0.772083 0.263044
0.420265 0.773979 0.264940
0.457282 0.775847 0.266808
0.493865 0.777693 0.268654
0.530090 0.779522 0.270483
0.566010 0.781334 0.272295
0.601665 0.783134 0.274095
0.637086 0.784921 0.275882
0.672298 0.786699 0.277659
0.707320 0.788466 0.279427
0.742168 0.790225 0.281186
0.776858 0.791975 0.282936
0.811400 0.793719 0.284680
0.838569 0.795090 0.286051
0.838569 0.795090 0.286051
0.311485 0.806584 0.264979
0.350907 0.808573 0.266968
0.389197 0.810505 0.268901
0.426751 0.812401 0.270796
0.463759 0.814268 0.272664
0.500335 0.816114 0.274510
0.536554 0.817942 0.276338
0.572469 0.819755 0.278150
0.608120 0.821554 0.279949
0.643537 0.823341 0.281737
0.678745 0.825118 0.283514
0.713764 0.826886 0.285281
0.748609 0.828644 0.287040
0.783296 0.830395 0.288790
0.817836 0.832138 0.290533
0.844392 0.833478 0.291873
0.844392 0.833478 0.291873
0.237173 0.169303 0.170822
0.274878 0.171210 0.172980
0.311752 0.173075 0.175093
0.348034 0.174911 0.177174
0.383858 0.176723 0.179230
0.419308 0.178516 0.181266
0.454444 0.180293 0.183285
0.489308 0.182057 0.185289
0.523934 0.183809 0.187279
0.558347 0.185549 0.189258
0.592569 0.187281 0.191226
0.626616 0.189003 0.193185
0.660503 0.190717 0.195134
0.694242 0.192424 0.197075
0.727845 0.194124 0.199009
0.747645 0.195127 0.200220
0.747645 0.195127 0.200220
0.241279 0.208469 0.177248
0.278997 0.210135 0.179366
0.315867 0.211758 0.181440
0.352137 0.213351 0.183482
0.387944 0.214921 0.185499
0.423374 0.216471 0.187496
0.458487 0.218005 0.189475
0.493327 0.219525 0.191440
0.527927 0.221033 0.193392
0.562312 0.222530 0.195332
0.596506 0.224018 0.197262
0.630524 0.225496 0.199182
0.664381 0.226966 0.201093
0.698090 0.228429 0.202995
0.731662 0.229884 0.204891
0.753056 0.230750 0.206150
0.753056 0.230750 0.206150
0.245129 0.252106 0.184579
0.282926 0.253788 0.186698
0.319849 0.255425 0.188771
0.356159 0.257031 0.190813
0.391998 0.258614 0.192829
0.427455 0.260177 0.194826
0.462592 0.261724 0.196805
0.497452 0.263257 0.198770
0.532070 0.264777 0.200722
0.566472 0.266287 0.202662
0.600681 0.267787 0.204591
0.634713 0.269278 0.206511
0.668583 0.270760 0.208422
0.702305 0.272236 0.210325
0.735888 0.273704 0.212221
0.759735 0.274704 0.213603
0.759735 0.274704 0.213603
0.248743 0.294242 0.191667
0.286621 0.295933 0.193787
0.323598 0.297579 0.195861
0.359949 0.299193 0.197902
0.395819 0.300783 0.199918
0.431303 0.302354 0.201914
0.466462 0.303908 0.203893
0.501342 0.305448 0.205857
0.535977 0.306975 0.207808
0.570396 0.308492 0.209747
0.604619 0.309999 0.211676
0.638664 0.311496 0.213596
0.672547 0.312986 0.215507
0.706280 0.314467 0.217409
0.739874 0.315942 0.219304
0.766173 0.317072 0.220810
0.766173 0.317072 0.220810
0.252211 0.335467 0.198605
0.290174 0.337167 0.200727
0.327206 0.338819 0.202802
0.363596 0.340440 0.204843
0.399499 0.342035 0.206859
0.435009 0.343611 0.208855
0.470191 0.345170 0.210833
0.505090 0.346715 0.212796
0.539743 0.348248 0.214747
0.574177 0.349769 0.216686
0.608414 0.351281 0.218614
0.642473 0.352783 0.220533
0.676368 0.354277 0.222444
0.710112 0.355764 0.224346
0.743716 0.357243 0.226240
0.772468 0.358500 0.227869
0.772468 0.358500 0.227869
0.255571 0.376040 0.205435
0.293622 0.377747 0.207560
0.330710 0.379405 0.209635
0.367142 0.381031 0.211677
0.403077 0.382631 0.213693
0.438614 0.384211 0.215688
0.473818 0.385775 0.217666
0.508737 0.387324 0.219629
0.543408 0.388860 0.221580
0.577858 0.390385 0.223518
0.612109 0.391901 0.225446
0.646180 0.393407 0.227365
0.680087 0.394904 0.229274
0.713842 0.396395 0.231176
0.748028 0.398067 0.232950
0.778711 0.399616 0.234499
0.778711 0.399616 0.234499
0.258846 0.416104 0.212180
0.296989 0.417819 0.214308
0.334134 0.419482 0.216384
0.370607 0.421112 0.218427
0.406576 0.422717 0.220443
0.442139 0.424301 0.222438
0.477366 0.425868 0.224416
0.512305 0.427420 0.226379
0.546993 0.428960 0.228329
0.581459 0.430488 0.230267
0.615815 0.432036 0.232176
0.650666 0.433795 0.233935
0.685345 0.435545 0.235685
0.719866 0.437287 0.237428
0.754240 0.439022 0.239162
0.784923 0.440571 0.240711
0.784923 0.440571 0.240711
0.262048 0.455754 0.218855
0.300287 0.457475 0.220986
0.337491 0.459144 0.223065
0.374007 0.460778 0.225108
0.410009 0.462386 0.227124
0.445599 0.463974 0.229120
0.480850 0.465544 0.231098
0.516187 0.467219 0.232984
0.551670 0.469010 0.234775
0.586920 0.470789 0.236554
0.621961 0.472557 0.238323
0.656812 0.474316 0.240081
0.691492 0.476066 0.241832
0.726012 0.477808 0.243574
0.760386 0.479543 0.245309
0.791069 0.481092 0.246857
0.791069 0.481092 0.246857
0.265187 0.495054 0.225471
0.303526 0.496782 0.227606
0.340791 0.498455 0.229686
0.377351 0.500093 0.231730
0.414068 0.501914 0.233614
0.450478 0.503752 0.235452
0.486530 0.505571 0.237271
0.522278 0.507375 0.239075
0.557761 0.509166 0.240866
0.593011 0.510945 0.242645
0.628052 0.512713 0.244413
0.662903 0.514472 0.246172
0.697583 0.516223 0.247922
0.732103 0.517965 0.249665
0.766477 0.519699 0.251399
0.797160 0.521248 0.252948
0.797160 0.521248 0.252948
0.268455 0.534103 0.232004
0.307741 0.536085 0.233986
0.345876 0.538010 0.235911
0.383268 0.539897 0.237798
0.420111 0.541757 0.239657
0.456521 0.543594 0.241495
0.492573 0.545414 0.243314
0.528321 0.547218 0.245119
0.563804 0.549008 0.246909
0.599054 0.550787 0.248688
0.634095 0.552556 0.250457
0.668947 0.554315 0.252216
0.703626 0.556065 0.253966
0.738146 0.557807 0.255708
0.772520 0.559542 0.257443
0.803204 0.561091 0.259016
0.803204 0.561091 0.259016
0.274456 0.573670 0.238005
0.313743 0.575652 0.239988
0.351878 0.577577 0.241912
0.389269 0.579464 0.243800
0.426113 0.581323 0.245659
0.462522 0.583161 0.247496
0.498575 0.584980 0.249316
0.534322 0.586784 0.251120
0.569806 0.588575 0.252911
0.605056 0.590354 0.254690
0.640096 0.592123 0.256458
0.674948 0.593881 0.258217
0.709727 0.595641 0.260211
0.744439 0.597400 0.262420
0.779002 0.599152 0.264620
0.809232 0.600685 0.266553
0.809232 0.600685 0.266553
0.280421 0.612991 0.243969
0.319707 0.614974 0.245952
0.357842 0.616898 0.247877
0.395234 0.618785 0.249764
0.432077 0.620645 0.251623
0.468487 0.622482 0.253461
0.504539 0.624302 0.255280
0.540287 0.626106 0.257084
0.575770 0.627897 0.258875
0.611192 0.629691 0.261068
0.646426 0.631477 0.263303
0.681469 0.633253 0.265527
0.716337 0.635021 0.267741
0.751046 0.636780 0.269945
0.785607 0.638532 0.272141
0.815224 0.640033 0.274039
0.815224 0.640033 0.274039
0.286351 0.652091 0.249900
0.325638 0.654074 0.251883
0.363773 0.655999 0.253807
0.401164 0.657886 0.255695
0.438008 0.659745 0.257554
0.474468 0.661587 0.259508
0.510718 0.663424 0.261796
0.546661 0.665246 0.264066
0.582338 0.667054 0.266321
0.617779 0.668850 0.268563
0.653009 0.670636 0.270793
0.688048 0.672412 0.273013
0.722914 0.674179 0.275222
0.757619 0.675938 0.277422
0.792177 0.677690 0.279614
0.821181 0.679160 0.281478
0.821181 0.679160 0.281478
0.292252 0.690991 0.255800
0.331538 0.692974 0.257783
0.369801 0.694909 0.259995
0.407396 0.696815 0.262350
0.444438 0.698692 0.264675
0.481043 0.700547 0.266977
0.517287 0.702383 0.269259
0.553225 0.704205 0.271524
0.588897 0.706013 0.273775
0.624334 0.707809 0.276013
0.659560 0.709594 0.278239
0.694597 0.711370 0.280455
0.729459 0.713137 0.282660
0.764162 0.714896 0.284857
0.798717 0.716647 0.287045
0.827108 0.718086 0.288876
0.827108 0.718086 0.288876
0.298562 0.729744 0.262599
0.338045 0.731744 0.265047
0.376375 0.733686 0.267435
0.413958 0.735591 0.269785
0.450992 0.737467 0.272105
0.487589 0.739322 0.274402
0.523828 0.741158 0.276680
0.559761 0.742979 0.278941
0.595428 0.744787 0.281188
0.630861 0.746583 0.283422
0.666084 0.748368 0.285645
0.701117 0.750143 0.287857
0.735976 0.751910 0.290060
0.770677 0.753669 0.292253
0.805229 0.755420 0.294439
0.833007 0.756828 0.296236
0.833007 0.756828 0.296236
0.305152 0.768353 0.270009
0.344609 0.770352 0.272452
0.382923 0.772293 0.274835
0.420495 0.774197 0.277180
0.457519 0.776073 0.279496
0.494110 0.777927 0.281789
0.530343 0.779763 0.284063
0.566271 0.781584 0.286321
0.601934 0.783391 0.288565
0.637362 0.785186 0.290796
0.672582 0.786971 0.293015
0.707611 0.788747 0.295224
0.742468 0.790513 0.297424
0.777165 0.792272 0.299615
0.811715 0.794023 0.301797
0.838879 0.795400 0.303561
0.838879 0.795400 0.303561
0.311718 0.806804 0.277382
0.351148 0.808802 0.279819
0.389446 0.810742 0.282198
0.427007 0.812645 0.284539
0.464023 0.814521 0.286851
0.500607 0.816374 0.289141
0.536833 0.818210 0.291412
0.572756 0.820030 0.293667
0.608415 0.821837 0.295907
0.643840 0.823633 0.298135
0.679055 0.825417 0.300352
0.714081 0.827192 0.302558
0.748935 0.828959 0.304755
0.783630 0.830717 0.306944
0.818177 0.832468 0.309124
0.844728 0.833815 0.310854
0.844728 0.833815 0.310854
0.237622 0.170020 0.212028
0.275333 0.171926 0.214138
0.312211 0.173791 0.216206
0.348496 0.175626 0.218244
0.384322 0.177437 0.220258
0.419775 0.179230 0.222254
0.454912 0.181007 0.224234
0.489778 0.182770 0.226200
0.524405 0.184521 0.228154
0.558819 0.186261 0.230097
0.593041 0.187992 0.232030
0.627088 0.189713 0.233955
0.660976 0.191427 0.235871
0.694716 0.193133 0.237780
0.728319 0.194833 0.239682
0.748366 0.195847 0.240878
0.748366 0.195847 0.240878
0.241713 0.209101 0.218337
0.279438 0.210767 0.220413
0.316312 0.212389 0.222445
0.352586 0.213982 0.224447
0.388395 0.215551 0.226426
0.423827 0.217100 0.228385
0.458941 0.218634 0.230329
0.493782 0.220154 0.232258
0.528383 0.221661 0.234176
0.562770 0.223158 0.236082
0.596964 0.224644 0.237979
0.630982 0.226122 0.239866
0.664840 0.227592 0.241746
0.698550 0.229054 0.243618
0.732122 0.230509 0.245483
0.753763 0.231386 0.246728
0.753763 0.231386 0.246728
0.245560 0.252740 0.225530
0.283364 0.254421 0.227611
0.320292 0.256058 0.229648
0.356606 0.257664 0.231653
0.392447 0.259246 0.233635
0.427906 0.260808 0.235597
0.463044 0.262355 0.237543
0.497906 0.263887 0.239475
0.532525 0.265407 0.241395
0.566928 0.266916 0.243304
0.601137 0.268416 0.245203
0.635170 0.269906 0.247093
0.669041 0.271388 0.248974
0.702763 0.272863 0.250849
0.736347 0.274331 0.252716
0.760441 0.275343 0.254086
0.760441 0.275343 0.254086
0.249171 0.294875 0.232494
0.287058 0.296566 0.234580
0.324039 0.298212 0.236620
0.360393 0.299826 0.238628
0.396266 0.301415 0.240612
0.431752 0.302985 0.242576
0.466913 0.304539 0.244524
0.501794 0.306078 0.246458
0.536431 0.307605 0.248379
0.570850 0.309122 0.250289
0.605074 0.310628 0.252190
0.639120 0.312125 0.254081
0.673003 0.313614 0.255964
0.706737 0.315095 0.257840
0.740331 0.316570 0.259708
0.766878 0.317711 0.261202
0.766878 0.317711 0.261202
0.252636 0.336100 0.239318
0.290608 0.337799 0.241409
0.327645 0.339452 0.243452
0.364039 0.341072 0.245463
0.399944 0.342667 0.247449
0.435456 0.344242 0.249415
0.470640 0.345801 0.251364
0.505541 0.347346 0.253299
0.540195 0.348878 0.255222
0.574630 0.350399 0.257133
0.608868 0.351910 0.259035
0.642927 0.353412 0.260927
0.676823 0.354905 0.262811
0.710567 0.356391 0.264688
0.744172 0.357870 0.266557
0.773172 0.359140 0.268176
0.773172 0.359140 0.268176
0.255994 0.376671 0.246043
0.294054 0.378378 0.248138
0.331147 0.380037 0.250184
0.367582 0.381662 0.252197
0.403520 0.383262 0.254185
0.439059 0.384842 0.256153
0.474265 0.386405 0.258104
0.509186 0.387953 0.260040
0.543858 0.389489 0.261964
0.578309 0.391014 0.263876
0.612561 0.392529 0.265779
0.646633 0.394035 0.267672
0.680540 0.395532 0.269557
0.714367 0.397045 0.271422
0.748741 0.398780 0.273157
0.779424 0.400328 0.274705
0.779424 0.400328 0.274705
0.259266 0.416735 0.252689
0.297418 0.418449 0.254789
0.334569 0.420113 0.256839
0.371046 0.421743 0.258854
0.407017 0.423347 0.260844
0.442583 0.424930 0.262813
0.477812 0.426497 0.264765
0.512753 0.428049 0.266703
0.547442 0.429588 0.268627
0.581908 0.431117 0.270541
0.616527 0.432749 0.272383
0.651379 0.434508 0.274141
0.686058 0.436258 0.275892
0.720579 0.438000 0.277634
0.754953 0.439735 0.279369
0.785636 0.441283 0.280917
0.785636 0.441283 0.280917
0.262466 0.456384 0.259272
0.300714 0.458105 0.261377
0.337924 0.459774 0.263429
0.374444 0.461408 0.265447
0.410449 0.463015 0.267438
0.446042 0.464602 0.269409
0.481294 0.466172 0.271362
0.516900 0.467932 0.273191
0.552383 0.469722 0.274981
0.587633 0.471501 0.276760
0.622674 0.473270 0.278529
0.657525 0.475029 0.280288
0.692204 0.476779 0.282038
0.726725 0.478521 0.283780
0.761099 0.480256 0.285515
0.791782 0.481804 0.287063
0.791782 0.481804 0.287063
0.265603 0.495682 0.265800
0.303952 0.497410 0.267910
0.341223 0.499084 0.269966
0.377937 0.500768 0.271961
0.414781 0.502627 0.273820
0.451191 0.504465 0.275658
0.487243 0.506284 0.277477
0.522990 0.508088 0.279282
0.558474 0.509879 0.281072
0.593724 0.511658 0.282851
0.628764 0.513426 0.284620
0.663616 0.515185 0.286379
0.698295 0.516935 0.288129
0.732816 0.518678 0.289871
0.767190 0.520412 0.291606
0.797873 0.521961 0.293154
0.797873 0.521961 0.293154
0.269168 0.534816 0.272210
0.308454 0.536798 0.274193
0.346589 0.538723 0.276117
0.383981 0.540610 0.278004
0.420824 0.542469 0.279864
0.457234 0.544307 0.281701
0.493286 0.546126 0.283521
0.529034 0.547930 0.285325
0.564517 0.549721 0.287116
0.599767 0.551500 0.288895
0.634808 0.553269 0.290663
0.669659 0.555028 0.292422
0.704339 0.556778 0.294172
0.738859 0.558520 0.295914
0.773233 0.560255 0.297649
0.803919 0.561806 0.299359
0.803919 0.561806 0.299359
0.275169 0.574382 0.278211
0.314456 0.576365 0.280194
0.352591 0.578290 0.282119
0.389982 0.580177 0.284006
0.426825 0.582036 0.285865
0.463235 0.583874 0.287703
0.499287 0.585693 0.289522
0.535035 0.587497 0.291326
0.570519 0.589288 0.293117
0.605768 0.591067 0.294896
0.640809 0.592835 0.296664
0.675661 0.594594 0.298423
0.710505 0.596359 0.300535
0.745215 0.598117 0.302697
0.779777 0.599869 0.304851
0.809945 0.601397 0.306740
0.809945 0.601397 0.306740
0.281133 0.613704 0.284176
0.320420 0.615687 0.286158
0.358555 0.617611 0.288083
0.395946 0.619498 0.289970
0.432790 0.621358 0.291829
0.469200 0.623195 0.293667
0.505252 0.625015 0.295486
0.540999 0.626819 0.297291
0.576527 0.628613 0.299176
0.611970 0.630409 0.301375
0.647203 0.632194 0.303563
0.682245 0.633969 0.305741
0.717112 0.635736 0.307910
0.751820 0.637494 0.310071
0.786379 0.639245 0.312224
0.815934 0.640743 0.314082
0.815934 0.640743 0.314082
0.287064 0.652804 0.290106
0.326351 0.654787 0.292089
0.364486 0.656712 0.294014
0.401877 0.658599 0.295901
0.438721 0.660458 0.297760
0.475248 0.662306 0.299845
0.511497 0.664142 0.302085
0.547439 0.665963 0.304309
0.583114 0.667770 0.306519
0.618554 0.669565 0.308717
0.653783 0.671350 0.310904
0.688821 0.673125 0.313081
0.723686 0.674892 0.315249
0.758390 0.676650 0.317410
0.792947 0.678401 0.319562
0.821889 0.679868 0.321388
0.821889 0.679868 0.321388
0.292964 0.691704 0.296007
0.332251 0.693687 0.297989
0.370584 0.695628 0.300315
0.408177 0.697532 0.302622
0.445217 0.699408 0.304901
0.481820 0.701262 0.307158
0.518064 0.703098 0.309397
0.554000 0.704919 0.311619
0.589671 0.706726 0.313829
0.625107 0.708521 0.316026
0.660332 0.710306 0.318212
0.695367 0.712081 0.320388
0.730229 0.713847 0.322556
0.764931 0.715605 0.324715
0.799485 0.717356 0.326867
0.827813 0.718792 0.328662
0.827813 0.718792 0.328662
0.299348 0.730461 0.302855
0.338828 0.732461 0.305257
0.377155 0.734402 0.307601
0.414737 0.736305 0.309907
0.451768 0.738181 0.312185
0.488365 0.740035 0.314441
0.524602 0.741871 0.316678
0.560534 0.743691 0.318900
0.596200 0.745498 0.321108
0.631632 0.747293 0.323304
0.666854 0.749077 0.325490
0.701885 0.750852 0.327665
0.736744 0.752618 0.329832
0.771443 0.754376 0.331991
0.805995 0.756127 0.334141
0.833710 0.757532 0.335905
0.833710 0.757532 0.335905
0.305936 0.769068 0.310117
0.345389 0.771066 0.312517
0.383700 0.773006 0.314859
0.421271 0.774909 0.317164
0.458293 0.776784 0.319440
0.494883 0.778638 0.321695
0.531114 0.780473 0.323932
0.567041 0.782293 0.326153
0.602703 0.784100 0.328360
0.638131 0.785895 0.330555
0.673349 0.787679 0.332740
0.708378 0.789453 0.334915
0.743233 0.791219 0.337080
0.777930 0.792977 0.339238
0.812479 0.794728 0.341388
0.839581 0.796102 0.343120
0.839581 0.796102 0.343120
0.312499 0.807516 0.317352
0.351925 0.809513 0.319750
0.390221 0.811453 0.322091
0.427780 0.813355 0.324394
0.464795 0.815230 0.326670
0.501377 0.817083 0.328923
0.537603 0.818918 0.331159
0.573524 0.820738 0.333379
0.609182 0.822544 0.335585
0.644606 0.824339 0.337780
0.679820 0.826123 0.339964
0.714846 0.827897 0.342138
0.749699 0.829663 0.344303
0.784392 0.831421 0.346460
0.818939 0.833171 0.348609
0.845428 0.834514 0.350309
0.845428 0.834514 0.350309
0.238016 0.170682 0.250167
0.275735 0.172589 0.252269
0.312618 0.174453 0.254329
0.348907 0.176288 0.256359
0.384736 0.178100 0.258366
0.420190 0.179892 0.260353
0.455330 0.181669 0.262325
0.490197 0.183432 0.264283
0.524825 0.185183 0.266229
0.559241 0.186923 0.268164
0.593464 0.188654 0.270090
0.627513 0.190376 0.272007
0.661401 0.192089 0.273915
0.695142 0.193795 0.275816
0.728746 0.195495 0.277710
0.749040 0.196522 0.278912
0.749040 0.196522 0.278912
0.242094 0.209680 0.256445
0.279826 0.211346 0.258513
