assets/luts/mood.cube
# MoodFilm Filter — mood
TITLE "mood"
LUT_3D_SIZE 9
0.237198 0.169278 0.169278
0.311765 0.173041 0.173041
0.383861 0.176680 0.176680
0.454438 0.180242 0.180242
0.523918 0.183748 0.183748
0.592544 0.187212 0.187212
0.660469 0.190640 0.190640
0.727802 0.194038 0.194038
0.747553 0.195035 0.195035
0.245131 0.252071 0.181637
0.319840 0.255381 0.185340
0.391980 0.258561 0.188914
0.462563 0.261663 0.192409
0.532033 0.264708 0.195848
0.600635 0.267709 0.199244
0.668528 0.270674 0.202603
0.735824 0.273609 0.205933
0.759622 0.274603 0.207104
0.252184 0.335402 0.194035
0.327168 0.338746 0.197756
0.399452 0.341954 0.201340
0.470134 0.345080 0.204843
0.539678 0.348150 0.208289
0.608340 0.351174 0.211690
0.676285 0.354162 0.215055
0.743625 0.357120 0.218390
0.772328 0.358371 0.219809
0.258791 0.416011 0.206020
0.334068 0.419381 0.209756
0.406500 0.422607 0.213349
0.477282 0.425750 0.216859
0.546900 0.428834 0.220310
0.615665 0.431886 0.223720
0.685195 0.435395 0.227229
0.754090 0.438872 0.230706
0.784773 0.440421 0.232255
0.265106 0.494933 0.217746
0.340698 0.498326 0.221500
0.413918 0.501764 0.225158
0.486380 0.505421 0.228815
0.557611 0.509016 0.232410
0.627902 0.512564 0.235957
0.697433 0.516073 0.239466
0.766327 0.519550 0.242943
0.797010 0.521098 0.244492
0.274306 0.573520 0.229549
0.351728 0.577427 0.233456
0.425963 0.581173 0.237203
0.498425 0.584830 0.240860
0.569656 0.588425 0.244455
0.639946 0.591973 0.248002
0.709562 0.595486 0.251515
0.778820 0.598981 0.255011
0.809055 0.600507 0.256537
0.286201 0.651941 0.241444
0.363623 0.655849 0.245351
0.437858 0.659595 0.249098
0.510546 0.663264 0.252766
0.582150 0.666877 0.256380
0.652805 0.670443 0.259946
0.722694 0.673970 0.263473
0.791942 0.677465 0.266968
0.820950 0.678929 0.268432
0.298383 0.729577 0.253237
0.376180 0.733503 0.257164
0.450781 0.737268 0.260928
0.523602 0.740944 0.264604
0.595187 0.744556 0.268216
0.665827 0.748121 0.271781
0.735703 0.751648 0.275308
0.804941 0.755142 0.278802
0.832722 0.756544 0.280204
0.311485 0.806584 0.264979
0.389197 0.810505 0.268901
0.463759 0.814268 0.272664
0.536554 0.817942 0.276338
0.608120 0.821554 0.279949
0.678745 0.825118 0.283514
0.748609 0.828644 0.287040
0.817836 0.832138 0.290533
0.844392 0.833478 0.291873
0.237622 0.170020 0.212028
0.312211 0.173791 0.216206
0.384322 0.177437 0.220258
0.454912 0.181007 0.224234
0.524405 0.184521 0.228154
0.593041 0.187992 0.232030
0.660976 0.191427 0.235871
0.728319 0.194833 0.239682
0.748366 0.195847 0.240878
0.245560 0.252740 0.225530
0.320292 0.256058 0.229648
0.392447 0.259246 0.233635
0.463044 0.262355 0.237543
0.532525 0.265407 0.241395
0.601137 0.268416 0.245203
0.669041 0.271388 0.248974
0.736347 0.274331 0.252716
0.760441 0.275343 0.254086
0.252636 0.336100 0.239318
0.327645 0.339452 0.243452
0.399944 0.342667 0.247449
0.470640 0.345801 0.251364
0.540195 0.348878 0.255222
0.608868 0.351910 0.259035
0.676823 0.354905 0.262811
0.744172 0.357870 0.266557
0.773172 0.359140 0.268176
0.259266 0.416735 0.252689
0.334569 0.420113 0.256839
0.407017 0.423347 0.260844
0.477812 0.426497 0.264765
0.547442 0.429588 0.268627
0.616527 0.432749 0.272383
0.686058 0.436258 0.275892
0.754953 0.439735 0.279369
0.785636 0.441283 0.280917
0.265603 0.495682 0.265800
0.341223 0.499084 0.269966
0.414781 0.502627 0.273820
0.487243 0.506284 0.277477
0.558474 0.509879 0.281072
0.628764 0.513426 0.284620
0.698295 0.516935 0.288129
0.767190 0.520412 0.291606
0.797873 0.521961 0.293154
0.275169 0.574382 0.278211
0.352591 0.578290 0.282119
0.426825 0.582036 0.285865
0.499287 0.585693 0.289522
0.570519 0.589288 0.293117
0.640809 0.592835 0.296664
0.710505 0.596359 0.300535
0.779777 0.599869 0.304851
0.809945 0.601397 0.306740
0.287064 0.652804 0.290106
0.364486 0.656712 0.294014
0.438721 0.660458 0.297760
0.511497 0.664142 0.302085
0.583114 0.667770 0.306519
0.653783 0.671350 0.310904
0.723686 0.674892 0.315249
0.792947 0.678401 0.319562
0.821889 0.679868 0.321388
0.299348 0.730461 0.302855
0.377155 0.734402 0.307601
0.451768 0.738181 0.312185
0.524602 0.741871 0.316678
0.596200 0.745498 0.321108
0.666854 0.749077 0.325490
0.736744 0.752618 0.329832
0.805995 0.756127 0.334141
0.833710 0.757532 0.335905
0.312499 0.807516 0.317352
0.390221 0.811453 0.322091
0.464795 0.815230 0.326670
0.537603 0.818918 0.331159
0.609182 0.822544 0.335585
0.679820 0.826123 0.339964
0.749699 0.829663 0.344303
0.818939 0.833171 0.348609
0.845428 0.834514 0.350309
0.238390 0.171323 0.287144
0.313004 0.175096 0.291297
0.385128 0.178742 0.295325
0.455727 0.182311 0.299275
0.525226 0.185825 0.303170
0.593867 0.189296 0.307022
0.661807 0.192731 0.310838
0.729153 0.196137 0.314624
0.749695 0.197176 0.315834
0.246300 0.253885 0.300550
0.321059 0.257204 0.304644
0.393227 0.260392 0.308606
0.463833 0.263501 0.312490
0.533320 0.266553 0.316317
0.601938 0.269561 0.320101
0.669847 0.272534 0.323848
0.737156 0.275476 0.327565
0.761745 0.276513 0.328949
0.253373 0.337250 0.314255
0.328409 0.340603 0.318365
0.400723 0.343818 0.322338
0.471428 0.346952 0.326229
0.540990 0.350029 0.330063
0.609668 0.353061 0.333852
0.677627 0.356056 0.337604
0.744981 0.359021 0.341326
0.774475 0.360315 0.342959
0.259998 0.417887 0.327543
0.335331 0.421266 0.331670
0.407794 0.424500 0.335651
0.478598 0.427651 0.339549
0.548235 0.430742 0.343388
0.617851 0.434073 0.347041
0.687382 0.437582 0.350550
0.756276 0.441059 0.354027
0.786959 0.442607 0.355576
0.266330 0.496836 0.340573
0.341983 0.500238 0.344716
0.416104 0.503951 0.348479
0.488566 0.507608 0.352136
0.559798 0.511203 0.355731
0.630088 0.514750 0.359278
0.699619 0.518259 0.362787
0.768514 0.521736 0.366264
0.799196 0.523285 0.367813
0.276493 0.575706 0.352870
0.353914 0.579613 0.356777
0.428149 0.583360 0.360524
0.500611 0.587017 0.364181
0.571842 0.590612 0.367776
0.642133 0.594159 0.371323
0.711958 0.597693 0.375443
0.781228 0.601202 0.379711
0.811272 0.602724 0.381574
0.288388 0.654128 0.364765
0.365809 0.658035 0.368672
0.440098 0.661786 0.372525
0.512954 0.665476 0.376976
0.584569 0.669103 0.381363
0.655235 0.672683 0.385701
0.725136 0.676223 0.390001
0.794396 0.679732 0.394269
0.823213 0.681192 0.396069
0.300820 0.731796 0.377729
0.378618 0.735735 0.382428
0.453226 0.739513 0.386966
0.526056 0.743202 0.391414
0.597652 0.746828 0.395799
0.668303 0.750407 0.400136
0.738191 0.753947 0.404434
0.807441 0.757455 0.408700
0.835031 0.758853 0.410438
0.313968 0.808848 0.392072
0.391681 0.812783 0.396765
0.466250 0.816560 0.401300
0.539054 0.820247 0.405745
0.610631 0.823872 0.410129
0.681267 0.827450 0.414464
0.751143 0.830989 0.418761
0.820382 0.834497 0.423025
0.846747 0.835833 0.424700
0.239101 0.172571 0.359078
0.313740 0.176344 0.363221
0.385878 0.179991 0.367238
0.456486 0.183561 0.371177
0.525992 0.187075 0.375061
0.594639 0.190546 0.378901
0.662583 0.193981 0.382706
0.729933 0.197386 0.386481
0.750969 0.198451 0.387711
0.246984 0.254974 0.372428
0.321769 0.258294 0.376511
0.393952 0.261482 0.380463
0.464567 0.264591 0.384336
0.534061 0.267644 0.388152
0.602685 0.270652 0.391924
0.670598 0.273625 0.395660
0.737911 0.276566 0.399366
0.762994 0.277628 0.400771
0.254054 0.338345 0.386095
0.329119 0.341699 0.390195
0.401447 0.344915 0.394157
0.472161 0.348050 0.398038
0.541731 0.351126 0.401860
0.610415 0.354158 0.405638
0.678378 0.357154 0.409380
0.745736 0.360118 0.413091
0.775726 0.361437 0.414744
0.260676 0.418985 0.399345
0.336039 0.422366 0.403462
0.408517 0.425600 0.407433
0.479331 0.428751 0.411320
0.548976 0.431842 0.415148
0.619122 0.435343 0.418717
0.688653 0.438852 0.422226
0.757547 0.442329 0.425703
0.788230 0.443878 0.427252
0.267003 0.497935 0.412337
0.343140 0.501475 0.416409
0.417375 0.505222 0.420155
0.489837 0.508879 0.423812
0.561068 0.512473 0.427407
0.631359 0.516021 0.430954
0.700890 0.519530 0.434463
0.769784 0.523007 0.437940
0.800467 0.524555 0.439489
0.277764 0.576977 0.424546
0.355185 0.580884 0.428453
0.429420 0.584631 0.432200
0.501882 0.588288 0.435857
0.573113 0.591883 0.439452
0.643446 0.595433 0.443084
0.713358 0.598974 0.447363
0.782627 0.602483 0.451609
0.812546 0.603998 0.453456
0.289659 0.655399 0.436441
0.367080 0.659306 0.440348
0.441506 0.663068 0.444460
0.514359 0.666758 0.448888
0.585971 0.670384 0.453253
0.656635 0.673963 0.457569
0.726534 0.677503 0.461847
0.795793 0.681011 0.466093
0.824486 0.682465 0.467877
0.302240 0.733078 0.449635
0.380028 0.737016 0.454311
0.454632 0.740794 0.458826
0.527459 0.744482 0.463252
0.599053 0.748108 0.467615
0.669702 0.751686 0.471931
0.739589 0.755226 0.476207
0.808837 0.758733 0.480452
0.836303 0.760125 0.482174
0.315386 0.810129 0.463903
0.393090 0.814063 0.468574
0.467654 0.817839 0.473087
0.540456 0.821526 0.477511
0.612030 0.825150 0.481873
0.682665 0.828728 0.486187
0.752539 0.832267 0.490462
0.821777 0.835774 0.494705
0.848017 0.837104 0.496365
0.239780 0.173787 0.429267
0.314445 0.177562 0.433404
0.386597 0.181209 0.437414
0.457214 0.184779 0.441346
0.526727 0.188294 0.445223
0.595379 0.191764 0.449056
0.663328 0.195200 0.452854
0.730682 0.198605 0.456622
0.752213 0.199695 0.457873
0.247637 0.256032 0.442572
0.322449 0.259353 0.446649
0.394646 0.262542 0.450594
0.465270 0.265652 0.454460
0.534772 0.268704 0.458269
0.603401 0.271713 0.462034
0.671318 0.274685 0.465763
0.738636 0.277627 0.469462
0.764214 0.278714 0.470888
0.254704 0.339409 0.456214
0.329798 0.342765 0.460309
0.402141 0.345982 0.464264
0.472865 0.349116 0.468138
0.542441 0.352193 0.471954
0.611131 0.355225 0.475725
0.679099 0.358221 0.479459
0.746461 0.361186 0.483163
0.776966 0.362674 0.484738
0.261322 0.420053 0.469441
0.336717 0.423435 0.473552
0.409210 0.426670 0.477516
0.480034 0.429821 0.481396
0.550072 0.433037 0.485161
0.620363 0.436584 0.488709
0.689894 0.440093 0.492218
0.758788 0.443570 0.495695
0.789471 0.445119 0.497243
0.267646 0.499005 0.482408
0.344381 0.502716 0.486400
0.418616 0.506463 0.490147
0.491078 0.510119 0.493804
0.562309 0.513714 0.497399
0.632600 0.517262 0.500946
0.702131 0.520771 0.504455
0.771025 0.524248 0.507932
0.801708 0.525796 0.509480
0.279005 0.578218 0.494538
0.356426 0.582125 0.498445
0.430661 0.585872 0.502191
0.503123 0.589529 0.505848
0.574354 0.593123 0.509443
0.644818 0.596685 0.513330
0.714728 0.600226 0.517595
0.783995 0.603734 0.521827
0.813791 0.605243 0.523660
0.290900 0.656640 0.506433
0.368321 0.660547 0.510340
0.442883 0.664320 0.514702
0.515733 0.668009 0.519115
0.587343 0.671635 0.523465
0.658006 0.675214 0.527767
0.727904 0.678754 0.532031
0.797161 0.682262 0.536262
0.825730 0.683709 0.538033
0.303629 0.734330 0.519857
0.381409 0.738268 0.524519
0.456009 0.742045 0.529019
0.528833 0.745733 0.533431
0.600424 0.749358 0.537779
0.671072 0.752936 0.542080
0.740957 0.756475 0.546343
0.810204 0.759983 0.550573
0.837546 0.761368 0.552282
0.316774 0.811380 0.534077
0.394470 0.815314 0.538734
0.469030 0.819089 0.543232
0.541829 0.822775 0.547641
0.613401 0.826400 0.551989
0.684034 0.829977 0.556289
0.753907 0.833516 0.560550
0.823143 0.837022 0.564779
0.849260 0.838346 0.566426
0.240439 0.174982 0.498251
0.315129 0.178758 0.502383
0.387294 0.182406 0.506388
0.457921 0.185976 0.510316
0.527441 0.189491 0.514187
0.596099 0.192962 0.518015
0.664052 0.196398 0.521808
0.731410 0.199803 0.525570
0.753436 0.200918 0.526845
0.248268 0.257069 0.511516
0.323108 0.260392 0.515589
0.395318 0.263581 0.519530
0.465953 0.266691 0.523391
0.535461 0.269744 0.527195
0.604096 0.272752 0.530954
0.672018 0.275725 0.534678
0.739339 0.278667 0.538372
0.765413 0.279778 0.539820
0.255333 0.340453 0.525141
0.330456 0.343810 0.529231
0.402813 0.347027 0.533182
0.473547 0.350162 0.537051
0.543131 0.353239 0.540862
0.611826 0.356272 0.544628
0.679799 0.359267 0.548357
0.747503 0.362346 0.552006
0.778186 0.363895 0.553555
0.261948 0.421100 0.538349
0.337374 0.424483 0.542457
0.409882 0.427719 0.546416
0.480716 0.430870 0.550292
0.551292 0.434257 0.553978
0.621583 0.437804 0.557525
0.691114 0.441314 0.561034
0.760008 0.444790 0.564511
0.790691 0.446339 0.566060
0.268267 0.500054 0.551299
0.345601 0.503936 0.555217
0.419836 0.507683 0.558963
0.492298 0.511340 0.562620
0.563529 0.514934 0.566215
0.633820 0.518482 0.569762
0.703351 0.521991 0.573271
0.772245 0.525468 0.576748
0.802928 0.527016 0.578297
0.280225 0.579438 0.563354
0.357646 0.583345 0.567261
0.431881 0.587092 0.571008
0.504343 0.590749 0.574665
0.575574 0.594344 0.578260
0.646168 0.597916 0.582395
0.716077 0.601456 0.586649
0.785343 0.604964 0.590870
0.815015 0.606467 0.592692
0.292120 0.657860 0.575249
0.369605 0.661772 0.579271
0.444240 0.665551 0.583763
0.517087 0.669240 0.588165
0.588695 0.672866 0.592504
0.659356 0.676444 0.596796
0.729252 0.679984 0.601048
0.798508 0.683491 0.605269
0.826953 0.684932 0.607029
0.304998 0.735562 0.588904
0.382769 0.739499 0.593554
0.457364 0.743276 0.598044
0.530186 0.746963 0.602445
0.601775 0.750588 0.606783
0.672421 0.754166 0.611073
0.742305 0.757705 0.615325
0.811550 0.761212 0.619544
0.838769 0.762591 0.621243
0.318142 0.812611 0.603088
0.395829 0.816544 0.607733
0.470385 0.820319 0.612221
0.543181 0.824005 0.616620
0.614751 0.827629 0.620956
0.685382 0.831206 0.625246
0.755254 0.834744 0.629497
0.824489 0.838251 0.633715
0.850482 0.839568 0.635351
0.241080 0.176161 0.566315
0.315796 0.179938 0.570445
0.387976 0.183587 0.574446
0.458611 0.187157 0.578370
0.528138 0.190672 0.582238
0.596802 0.194144 0.586062
0.664760 0.197579 0.589850
0.732122 0.200985 0.593608
0.754642 0.202124 0.594906
0.248883 0.258090 0.579545
0.323750 0.261414 0.583615
0.395975 0.264604 0.587552
0.466619 0.267714 0.591409
0.536134 0.270767 0.595209
0.604775 0.273776 0.598965
0.672701 0.276748 0.602684
0.740027 0.279690 0.606374
0.766595 0.280827 0.607845
0.255945 0.341480 0.593156
0.331097 0.344838 0.597244
0.403470 0.348056 0.601191
0.474213 0.351192 0.605056
0.543804 0.354269 0.608863
0.612505 0.357302 0.612624
0.680483 0.360297 0.616350
0.748707 0.363550 0.619922
0.779390 0.365099 0.621470
0.262557 0.422130 0.606350
0.338014 0.425515 0.610455
0.410538 0.428752 0.614411
0.481382 0.431903 0.618283
0.552496 0.435461 0.621893
0.622787 0.439009 0.625441
0.692318 0.442518 0.628950
0.761212 0.445995 0.632427
0.791895 0.447543 0.633975
0.269384 0.501233 0.619225
0.346806 0.505140 0.623132
0.421040 0.508887 0.626879
0.493502 0.512544 0.630536
0.564734 0.516139 0.634131
0.635024 0.519686 0.637678
0.704555 0.523195 0.641187
0.773450 0.526672 0.644664
0.804135 0.528223 0.646365
0.281429 0.580642 0.631270
0.358850 0.584549 0.635177
0.433085 0.588296 0.638924
0.505547 0.591953 0.642580
0.576828 0.595552 0.646270
0.647503 0.599131 0.650554
0.717410 0.602671 0.654799
0.786675 0.606179 0.659012
0.816223 0.607675 0.660824
0.293324 0.659064 0.643165
0.370949 0.662988 0.647436
0.445580 0.666766 0.651919
0.518425 0.670454 0.656313
0.590030 0.674080 0.660643
0.660690 0.677658 0.664926
0.730585 0.681198 0.669170
0.799839 0.684705 0.673382
0.828161 0.686140 0.675132
0.306351 0.736777 0.657049
0.384113 0.740713 0.661691
0.458704 0.744490 0.666172
0.531523 0.748177 0.670564
0.603110 0.751802 0.674893
0.673754 0.755379 0.679175
0.743637 0.758918 0.683418
0.812881 0.762425 0.687629
0.839976 0.763798 0.689318
0.319494 0.813826 0.671204
0.397172 0.817758 0.675841
0.471724 0.821533 0.680320
0.544518 0.825219 0.684710
0.616086 0.828842 0.689039
0.686715 0.832419 0.693319
0.756585 0.835957 0.697562
0.825819 0.839463 0.701772
0.851688 0.840774 0.703398
0.241708 0.177327 0.633639
0.316451 0.181105 0.637766
0.388644 0.184754 0.641765
0.459289 0.188325 0.645686
0.528823 0.191840 0.649550
0.597492 0.195312 0.653371
0.665455 0.198748 0.657156
0.732821 0.202154 0.660911
0.755836 0.203318 0.662231
0.249485 0.259098 0.646834
0.324379 0.262422 0.650902
0.396618 0.265613 0.654836
0.467271 0.268724 0.658690
0.536794 0.271777 0.662487
0.605440 0.274786 0.666240
0.673372 0.277759 0.669956
0.740701 0.280701 0.673642
0.767765 0.281862 0.675137
0.256544 0.342494 0.660435
0.331726 0.345854 0.664520
0.404113 0.349072 0.668465
0.474866 0.352208 0.672326
0.544464 0.355286 0.676130
0.613172 0.358319 0.679889
0.681154 0.361315 0.683611
0.749899 0.364741 0.687109
0.780581 0.366290 0.688657
0.263152 0.423148 0.673617
0.338642 0.426534 0.677720
0.411181 0.429771 0.681673
0.482456 0.433058 0.685485
0.553688 0.436652 0.689080
0.623978 0.440200 0.692628
0.693509 0.443709 0.696137
0.762404 0.447186 0.699614
0.793087 0.448734 0.701162
0.270575 0.502424 0.686412
0.347997 0.506332 0.690319
0.422232 0.510078 0.694066
0.494694 0.513735 0.697723
0.565925 0.517330 0.701317
0.636215 0.520877 0.704865
0.705746 0.524386 0.708374
0.774680 0.527866 0.711927
0.805331 0.529419 0.713792
0.282620 0.581833 0.698457
0.360042 0.585741 0.702364
0.434276 0.589487 0.706110
0.506738 0.593144 0.709767
0.578151 0.596754 0.713704
0.648824 0.600332 0.717981
0.718730 0.603872 0.722219
0.787994 0.607380 0.726424
0.817418 0.608870 0.728227
0.294515 0.660255 0.710352
0.372281 0.664190 0.714867
0.446908 0.667968 0.719344
0.519749 0.671656 0.723730
0.591353 0.675282 0.728053
0.662011 0.678860 0.732329
0.731904 0.682399 0.736566
0.801158 0.685906 0.740771
0.829355 0.687334 0.742512
0.307690 0.737979 0.724465
0.385444 0.741915 0.729098
0.460031 0.745692 0.733573
0.532847 0.749378 0.737957
0.604432 0.753003 0.742280
0.675075 0.756580 0.746554
0.744956 0.760119 0.750791
0.814199 0.763625 0.754995
0.841170 0.764992 0.756674
0.320833 0.815028 0.738596
0.398503 0.818960 0.743226
0.473051 0.822734 0.747697
0.545842 0.826419 0.752080
0.617408 0.830043 0.756402
0.688035 0.833620 0.760676
0.757904 0.837158 0.764911
0.827137 0.840664 0.769114
0.852882 0.841968 0.770731
0.242325 0.178481 0.700343
0.317094 0.182260 0.704468
0.389301 0.185911 0.708465
0.459955 0.189482 0.712383
0.529496 0.192998 0.716245
0.598171 0.196470 0.720063
0.666139 0.199906 0.723845
0.733509 0.203312 0.727597
0.757019 0.204501 0.728941
0.250075 0.260094 0.713506
0.324997 0.263420 0.717572
0.397250 0.266612 0.721504
0.467913 0.269723 0.725355
0.537443 0.272776 0.729149
0.606095 0.275785 0.732899
0.674031 0.278758 0.736613
0.741365 0.281700 0.740296
0.768923 0.282887 0.741815
0.257132 0.343497 0.727097
0.332343 0.346858 0.731181
0.404745 0.350078 0.735123
0.475508 0.353214 0.738982
0.545114 0.356292 0.742783
0.613827 0.359325 0.746539
0.682184 0.362445 0.750207
0.751079 0.365922 0.753684
0.781762 0.367470 0.755233
0.263736 0.424154 0.740270
0.339258 0.427542 0.744371
0.411812 0.430780 0.748322
0.483637 0.434238 0.752061
0.554868 0.437833 0.755656
0.625159 0.441380 0.759203
0.694690 0.444889 0.762713
0.763584 0.448366 0.766189
0.794267 0.449915 0.767738
0.271756 0.503605 0.752988
0.349177 0.507512 0.756895
0.423412 0.511258 0.760641
0.495874 0.514915 0.764298
0.567105 0.518510 0.767893
0.637396 0.522058 0.771441
0.706927 0.525567 0.774950
0.775989 0.529057 0.778748
0.806515 0.530603 0.780604
0.283801 0.583014 0.765032
0.361222 0.586921 0.768940
0.435457 0.590667 0.772686
0.507919 0.594324 0.776343
0.579464 0.597945 0.780523
0.650135 0.601523 0.784793
0.720039 0.605063 0.789025
0.789302 0.608570 0.793225
0.818602 0.610054 0.795019
0.295771 0.661441 0.777052
0.373601 0.665381 0.781684
0.448224 0.669159 0.786154
0.521063 0.672847 0.790534
0.592665 0.676472 0.794852
0.663321 0.680050 0.799122
0.733213 0.683589 0.803353
0.802465 0.687096 0.807551
0.830539 0.688518 0.809283
0.309019 0.739171 0.791268
0.386764 0.743106 0.795895
0.461347 0.746882 0.800363
0.534161 0.750569 0.804742
0.605744 0.754193 0.809058
0.676385 0.757770 0.813327
0.746264 0.761309 0.817557
0.815506 0.764815 0.821755
0.842354 0.766175 0.823425
0.322162 0.816219 0.805379
0.399823 0.820150 0.810002
0.474367 0.823924 0.814468
0.547155 0.827610 0.818845
0.618719 0.831233 0.823160
0.689345 0.834809 0.827428
0.759212 0.838347 0.831657
0.828444 0.841853 0.835855
0.854065 0.843151 0.837463
