assets/luts/noir.cube
TITLE "noir"
LUT_3D_SIZE 33
0.015000 0.000000 0.000000
0.015000 0.000000 0.000000
0.015000 0.000000 0.000000
0.015000 0.000000 0.000000
0.015000 0.000000 0.000000
0.015000 0.000000 0.000000
0.015000 0.000000 0.000000
0.015217 0.000217 0.000000
0.025963 0.010963 0.000963
0.036708 0.021708 0.011708
0.047453 0.032453 0.022453
0.058198 0.043198 0.033198
0.068944 0.053944 0.043944
0.079689 0.064689 0.054689
0.090434 0.075434 0.065434
0.101180 0.086180 0.076180
0.111925 0.096925 0.086925
0.122670 0.107670 0.097670
0.133416 0.118416 0.108416
0.144161 0.129161 0.119161
0.154906 0.139906 0.129906
0.165652 0.150652 0.140652
0.176397 0.161397 0.151397
0.187142 0.172142 0.162142
0.197888 0.182888 0.172888
0.208633 0.193633 0.183633
0.219378 0.204378 0.194378
0.230123 0.215123 0.205123
0.240869 0.225869 0.215869
0.251614 0.236614 0.226614
0.262359 0.247359 0.237359
0.273105 0.258105 0.248105
0.283850 0.268850 0.258850
0.015000 0.000000 0.000000
0.015000 0.000000 0.000000
0.015000 0.000000 0.000000
0.015000 0.000000 0.000000
0.015000 0.000000 0.000000
0.015000 0.000000 0.000000
0.025567 0.010567 0.000567
0.036313 0.021313 0.011313
0.047058 0.032058 0.022058
0.057803 0.042803 0.032803
0.068548 0.053548 0.043548
0.079294 0.064294 0.054294
0.090039 0.075039 0.065039
0.100784 0.085784 0.075784
0.111530 0.096530 0.086530
0.122275 0.107275 0.097275
0.133020 0.118020 0.108020
0.143766 0.128766 0.118766
0.154511 0.139511 0.129511
0.165256 0.150256 0.140256
0.176002 0.161002 0.151002
0.186747 0.171747 0.161747
0.197492 0.182492 0.172492
0.208237 0.193237 0.183237
0.218983 0.203983 0.193983
0.229728 0.214728 0.204728
0.240473 0.225473 0.215473
0.251219 0.236219 0.226219
0.261964 0.246964 0.236964
0.272709 0.257709 0.247709
0.283455 0.268455 0.258455
0.294200 0.279200 0.269200
0.304945 0.289945 0.279945
0.015000 0.000000 0.000000
0.015000 0.000000 0.000000
0.015000 0.000000 0.000000
0.015000 0.000000 0.000000
0.025172 0.010172 0.000172
0.035917 0.020917 0.010917
0.046663 0.031663 0.021663
0.057408 0.042408 0.032408
0.068153 0.053153 0.043153
0.078898 0.063898 0.053898
0.089644 0.074644 0.064644
0.100389 0.085389 0.075389
0.111134 0.096134 0.086134
0.121880 0.106880 0.096880
0.132625 0.117625 0.107625
0.143370 0.128370 0.118370
0.154116 0.139116 0.129116
0.164861 0.149861 0.139861
0.175606 0.160606 0.150606
0.186352 0.171352 0.161352
0.197097 0.182097 0.172097
0.207842 0.192842 0.182842
0.218587 0.203587 0.193587
0.229333 0.214333 0.204333
0.240078 0.225078 0.215078
0.250823 0.235823 0.225823
0.261569 0.246569 0.236569
0.272314 0.257314 0.247314
0.283059 0.268059 0.258059
0.293805 0.278805 0.268805
0.304550 0.289550 0.279550
0.315295 0.300295 0.290295
0.326041 0.311041 0.301041
0.015000 0.000000 0.000000
0.015000 0.000000 0.000000
0.024777 0.009777 0.000000
0.035522 0.020522 0.010522
0.046267 0.031267 0.021267
0.057013 0.042013 0.032013
0.067758 0.052758 0.042758
0.078503 0.063503 0.053503
0.089248 0.074248 0.064248
0.099994 0.084994 0.074994
0.110739 0.095739 0.085739
0.121484 0.106484 0.096484
0.132230 0.117230 0.107230
0.142975 0.127975 0.117975
0.153720 0.138720 0.128720
0.164466 0.149466 0.139466
0.175211 0.160211 0.150211
0.185956 0.170956 0.160956
0.196702 0.181702 0.171702
0.207447 0.192447 0.182447
0.218192 0.203192 0.193192
0.228938 0.213938 0.203937
0.239683 0.224683 0.214683
0.250428 0.235428 0.225428
0.261173 0.246173 0.236173
0.271919 0.256919 0.246919
0.282664 0.267664 0.257664
0.293409 0.278409 0.268409
0.304155 0.289155 0.279155
0.314900 0.299900 0.289900
0.325645 0.310645 0.300645
0.336391 0.321391 0.311391
0.347136 0.332136 0.322136
0.024381 0.009381 0.000000
0.035127 0.020127 0.010127
0.045872 0.030872 0.020872
0.056617 0.041617 0.031617
0.067363 0.052363 0.042363
0.078108 0.063108 0.053108
0.088853 0.073853 0.063853
0.099598 0.084598 0.074598
0.110344 0.095344 0.085344
0.121089 0.106089 0.096089
0.131834 0.116834 0.106834
0.142580 0.127580 0.117580
0.153325 0.138325 0.128325
0.164070 0.149070 0.139070
0.174816 0.159816 0.149816
0.185561 0.170561 0.160561
0.196306 0.181306 0.171306
0.207052 0.192052 0.182052
0.217797 0.202797 0.192797
0.228542 0.213542 0.203542
0.239287 0.224287 0.214287
0.250033 0.235033 0.225033
0.260778 0.245778 0.235778
0.271523 0.256523 0.246523
0.282269 0.267269 0.257269
0.293014 0.278014 0.268014
0.303759 0.288759 0.278759
0.314505 0.299505 0.289505
0.325250 0.310250 0.300250
0.335995 0.320995 0.310995
0.346741 0.331741 0.321741
0.357486 0.342486 0.332486
0.368231 0.353231 0.343231
0.045477 0.030477 0.020477
0.056222 0.041222 0.031222
0.066967 0.051967 0.041967
0.077713 0.062713 0.052713
0.088458 0.073458 0.063458
0.099203 0.084203 0.074203
0.109948 0.094948 0.084948
0.120694 0.105694 0.095694
0.131439 0.116439 0.106439
0.142184 0.127184 0.117184
0.152930 0.137930 0.127930
0.163675 0.148675 0.138675
0.174420 0.159420 0.149420
0.185166 0.170166 0.160166
0.195911 0.180911 0.170911
0.206656 0.191656 0.181656
0.217402 0.202402 0.192402
0.228147 0.213147 0.203147
0.238892 0.223892 0.213892
0.249638 0.234637 0.224637
0.260383 0.245383 0.235383
0.271128 0.256128 0.246128
0.281873 0.266873 0.256873
0.292619 0.277619 0.267619
0.303364 0.288364 0.278364
0.314109 0.299109 0.289109
0.324855 0.309855 0.299855
0.335600 0.320600 0.310600
0.346345 0.331345 0.321345
0.357091 0.342091 0.332091
0.367836 0.352836 0.342836
0.378581 0.363581 0.353581
0.389327 0.374327 0.364327
0.066572 0.051572 0.041572
0.077317 0.062317 0.052317
0.088063 0.073063 0.063063
0.098808 0.083808 0.073808
0.109553 0.094553 0.084553
0.120298 0.105298 0.095298
0.131044 0.116044 0.106044
0.141789 0.126789 0.116789
0.152534 0.137534 0.127534
0.163280 0.148280 0.138280
0.174025 0.159025 0.149025
0.184770 0.169770 0.159770
0.195516 0.180516 0.170516
0.206261 0.191261 0.181261
0.217006 0.202006 0.192006
0.227752 0.212752 0.202752
0.238497 0.223497 0.213497
0.249242 0.234242 0.224242
0.259988 0.244988 0.234988
0.270733 0.255733 0.245733
0.281478 0.266478 0.256478
0.292223 0.277223 0.267223
0.302969 0.287969 0.277969
0.313714 0.298714 0.288714
0.324459 0.309459 0.299459
0.335205 0.320205 0.310205
0.345950 0.330950 0.320950
0.356695 0.341695 0.331695
0.367441 0.352441 0.342441
0.378186 0.363186 0.353186
0.388931 0.373931 0.363931
0.399677 0.384677 0.374677
0.410422 0.395422 0.385422
0.087667 0.072667 0.062667
0.098413 0.083413 0.073413
0.109158 0.094158 0.084158
0.119903 0.104903 0.094903
0.130648 0.115648 0.105648
0.141394 0.126394 0.116394
0.152139 0.137139 0.127139
0.162884 0.147884 0.137884
0.173630 0.158630 0.148630
0.184375 0.169375 0.159375
0.195120 0.180120 0.170120
0.205866 0.190866 0.180866
0.216611 0.201611 0.191611
0.227356 0.212356 0.202356
0.238102 0.223102 0.213102
0.248847 0.233847 0.223847
0.259592 0.244592 0.234592
0.270338 0.255337 0.245337
0.281083 0.266083 0.256083
0.291828 0.276828 0.266828
0.302573 0.287573 0.277573
0.313319 0.298319 0.288319
0.324064 0.309064 0.299064
0.334809 0.319809 0.309809
0.345555 0.330555 0.320555
0.356300 0.341300 0.331300
0.367045 0.352045 0.342045
0.377791 0.362791 0.352791
0.388536 0.373536 0.363536
0.399281 0.384281 0.374281
0.410027 0.395027 0.385027
0.395772 0.405772 0.420772
0.406517 0.416517 0.431517
0.108763 0.093763 0.083763
0.119508 0.104508 0.094508
0.130253 0.115253 0.105253
0.140998 0.125998 0.115998
0.151744 0.136744 0.126744
0.162489 0.147489 0.137489
0.173234 0.158234 0.148234
0.183980 0.168980 0.158980
0.194725 0.179725 0.169725
0.205470 0.190470 0.180470
0.216216 0.201216 0.191216
0.226961 0.211961 0.201961
0.237706 0.222706 0.212706
0.248452 0.233452 0.223452
0.259197 0.244197 0.234197
0.269942 0.254942 0.244942
0.280688 0.265688 0.255688
0.291433 0.276433 0.266433
0.302178 0.287178 0.277178
0.312923 0.297923 0.287923
0.323669 0.308669 0.298669
0.334414 0.319414 0.309414
0.345159 0.330159 0.320159
0.355905 0.340905 0.330905
0.366650 0.351650 0.341650
0.377395 0.362395 0.352395
0.388141 0.373141 0.363141
0.398886 0.383886 0.373886
0.409631 0.394631 0.384631
0.395377 0.405377 0.420377
0.406122 0.416122 0.431122
0.416867 0.426867 0.441867
0.427612 0.437612 0.452612
0.129858 0.114858 0.104858
0.140603 0.125603 0.115603
0.151348 0.136348 0.126348
0.162094 0.147094 0.137094
0.172839 0.157839 0.147839
0.183584 0.168584 0.158584
0.194330 0.179330 0.169330
0.205075 0.190075 0.180075
0.215820 0.200820 0.190820
0.226566 0.211566 0.201566
0.237311 0.222311 0.212311
0.248056 0.233056 0.223056
0.258802 0.243802 0.233802
0.269547 0.254547 0.244547
0.280292 0.265292 0.255292
0.291038 0.276037 0.266037
0.301783 0.286783 0.276783
0.312528 0.297528 0.287528
0.323273 0.308273 0.298273
0.334019 0.319019 0.309019
0.344764 0.329764 0.319764
0.355509 0.340509 0.330509
0.366255 0.351255 0.341255
0.377000 0.362000 0.352000
0.387745 0.372745 0.362745
0.398491 0.383491 0.373491
0.409236 0.394236 0.384236
0.394981 0.404981 0.419981
0.405727 0.415727 0.430727
0.416472 0.426472 0.441472
0.427217 0.437217 0.452217
0.437962 0.447962 0.462962
0.448708 0.458708 0.473708
0.150953 0.135953 0.125953
0.161698 0.146698 0.136698
0.172444 0.157444 0.147444
0.183189 0.168189 0.158189
0.193934 0.178934 0.168934
0.204680 0.189680 0.179680
0.215425 0.200425 0.190425
0.226170 0.211170 0.201170
0.236916 0.221916 0.211916
0.247661 0.232661 0.222661
0.258406 0.243406 0.233406
0.269152 0.254152 0.244152
0.279897 0.264897 0.254897
0.290642 0.275642 0.265642
0.301388 0.286388 0.276388
0.312133 0.297133 0.287133
0.322878 0.307878 0.297878
0.333623 0.318623 0.308623
0.344369 0.329369 0.319369
0.355114 0.340114 0.330114
0.365859 0.350859 0.340859
0.376605 0.361605 0.351605
0.387350 0.372350 0.362350
0.398095 0.383095 0.373095
0.408841 0.393841 0.383841
0.394586 0.404586 0.419586
0.405331 0.415331 0.430331
0.416077 0.426077 0.441077
0.426822 0.436822 0.451822
0.437567 0.447567 0.462567
0.448312 0.458312 0.473312
0.459058 0.469058 0.484058
0.469803 0.479803 0.494803
0.172048 0.157048 0.147048
0.182794 0.167794 0.157794
0.193539 0.178539 0.168539
0.204284 0.189284 0.179284
0.215030 0.200030 0.190030
0.225775 0.210775 0.200775
0.236520 0.221520 0.211520
0.247266 0.232266 0.222266
0.258011 0.243011 0.233011
0.268756 0.253756 0.243756
0.279502 0.264502 0.254502
0.290247 0.275247 0.265247
0.300992 0.285992 0.275992
0.311738 0.296737 0.286737
0.322483 0.307483 0.297483
0.333228 0.318228 0.308228
0.343973 0.328973 0.318973
0.354719 0.339719 0.329719
0.365464 0.350464 0.340464
0.376209 0.361209 0.351209
0.386955 0.371955 0.361955
0.397700 0.382700 0.372700
0.408445 0.393445 0.383445
0.394191 0.404191 0.419191
0.404936 0.414936 0.429936
0.415681 0.425681 0.440681
0.426427 0.436427 0.451427
0.437172 0.447172 0.462172
0.447917 0.457917 0.472917
0.458662 0.468662 0.483662
0.469408 0.479408 0.494408
0.480153 0.490153 0.505153
0.490898 0.500898 0.515898
0.193144 0.178144 0.168144
0.203889 0.188889 0.178889
0.214634 0.199634 0.189634
0.225380 0.210380 0.200380
0.236125 0.221125 0.211125
0.246870 0.231870 0.221870
0.257616 0.242616 0.232616
0.268361 0.253361 0.243361
0.279106 0.264106 0.254106
0.289852 0.274852 0.264852
0.300597 0.285597 0.275597
0.311342 0.296342 0.286342
0.322088 0.307088 0.297088
0.332833 0.317833 0.307833
0.343578 0.328578 0.318578
0.354323 0.339323 0.329323
0.365069 0.350069 0.340069
0.375814 0.360814 0.350814
0.386559 0.371559 0.361559
0.397305 0.382305 0.372305
0.408050 0.393050 0.383050
0.393795 0.403795 0.418795
0.404541 0.414541 0.429541
0.415286 0.425286 0.440286
0.426031 0.436031 0.451031
0.436777 0.446777 0.461777
0.447522 0.457522 0.472522
0.458267 0.468267 0.483267
0.469012 0.479013 0.494013
0.479758 0.489758 0.504758
0.490503 0.500503 0.515503
0.501248 0.511248 0.526248
0.511994 0.521994 0.536994
0.214239 0.199239 0.189239
0.224984 0.209984 0.199984
0.235730 0.220730 0.210730
0.246475 0.231475 0.221475
0.257220 0.242220 0.232220
0.267966 0.252966 0.242966
0.278711 0.263711 0.253711
0.289456 0.274456 0.264456
0.300202 0.285202 0.275202
0.310947 0.295947 0.285947
0.321692 0.306692 0.296692
0.332437 0.317437 0.307437
0.343183 0.328183 0.318183
0.353928 0.338928 0.328928
0.364673 0.349673 0.339673
0.375419 0.360419 0.350419
0.386164 0.371164 0.361164
0.396909 0.381909 0.371909
0.407655 0.392655 0.382655
0.393400 0.403400 0.418400
0.404145 0.414145 0.429145
0.414891 0.424891 0.439891
0.425636 0.435636 0.450636
0.436381 0.446381 0.461381
0.447127 0.457127 0.472127
0.457872 0.467872 0.482872
0.468617 0.478617 0.493617
0.479363 0.489363 0.504363
0.490108 0.500108 0.515108
0.500853 0.510853 0.525853
0.511598 0.521598 0.536598
0.522344 0.532344 0.547344
0.533089 0.543089 0.558089
0.235334 0.220334 0.210334
0.246080 0.231080 0.221080
0.256825 0.241825 0.231825
0.267570 0.252570 0.242570
0.278316 0.263316 0.253316
0.289061 0.274061 0.264061
0.299806 0.284806 0.274806
0.310552 0.295552 0.285552
0.321297 0.306297 0.296297
0.332042 0.317042 0.307042
0.342788 0.327788 0.317788
0.353533 0.338533 0.328533
0.364278 0.349278 0.339278
0.375023 0.360023 0.350023
0.385769 0.370769 0.360769
0.396514 0.381514 0.371514
0.407259 0.392259 0.382259
0.393005 0.403005 0.418005
0.403750 0.413750 0.428750
0.414495 0.424495 0.439495
0.425241 0.435241 0.450241
0.435986 0.445986 0.460986
0.446731 0.456731 0.471731
0.457477 0.467477 0.482477
0.468222 0.478222 0.493222
0.478967 0.488967 0.503967
0.489712 0.499713 0.514713
0.500458 0.510458 0.525458
0.511203 0.521203 0.536203
0.521948 0.531948 0.546948
0.532694 0.542694 0.557694
0.543439 0.553439 0.568439
0.554184 0.564184 0.579184
0.256430 0.241430 0.231430
0.267175 0.252175 0.242175
0.277920 0.262920 0.252920
0.288666 0.273666 0.263666
0.299411 0.284411 0.274411
0.310156 0.295156 0.285156
0.320902 0.305902 0.295902
0.331647 0.316647 0.306647
0.342392 0.327392 0.317392
0.353137 0.338137 0.328137
0.363883 0.348883 0.338883
0.374628 0.359628 0.349628
0.385373 0.370373 0.360373
0.396119 0.381119 0.371119
0.406864 0.391864 0.381864
0.392609 0.402609 0.417609
0.403355 0.413355 0.428355
0.414100 0.424100 0.439100
0.424845 0.434845 0.449845
0.435591 0.445591 0.460591
0.446336 0.456336 0.471336
0.457081 0.467081 0.482081
0.467827 0.477827 0.492827
0.478572 0.488572 0.503572
0.489317 0.499317 0.514317
0.500063 0.510063 0.525063
0.510808 0.520808 0.535808
0.521553 0.531553 0.546553
0.532298 0.542298 0.557298
0.543044 0.553044 0.568044
0.553789 0.563789 0.578789
0.564534 0.574534 0.589534
0.575280 0.585280 0.600280
0.277525 0.262525 0.252525
0.288270 0.273270 0.263270
0.299016 0.284016 0.274016
0.309761 0.294761 0.284761
0.320506 0.305506 0.295506
0.331252 0.316252 0.306252
0.341997 0.326997 0.316997
0.352742 0.337742 0.327742
0.363487 0.348487 0.338487
0.374233 0.359233 0.349233
0.384978 0.369978 0.359978
0.395723 0.380723 0.370723
0.406469 0.391469 0.381469
0.392214 0.402214 0.417214
0.402959 0.412959 0.427959
0.413705 0.423705 0.438705
0.424450 0.434450 0.449450
0.435195 0.445195 0.460195
0.445941 0.455941 0.470941
0.456686 0.466686 0.481686
0.467431 0.477431 0.492431
0.478177 0.488177 0.503177
0.488922 0.498922 0.513922
0.499667 0.509667 0.524667
0.510412 0.520412 0.535412
0.521158 0.531158 0.546158
0.531903 0.541903 0.556903
0.542648 0.552648 0.567648
0.553394 0.563394 0.578394
0.564139 0.574139 0.589139
0.574884 0.584884 0.599884
0.585630 0.595630 0.610630
0.596375 0.606375 0.621375
0.298620 0.283620 0.273620
0.309366 0.294366 0.284366
0.320111 0.305111 0.295111
0.330856 0.315856 0.305856
0.341602 0.326602 0.316602
0.352347 0.337347 0.327347
0.363092 0.348092 0.338092
0.373837 0.358837 0.348837
0.384583 0.369583 0.359583
0.395328 0.380328 0.370328
0.406073 0.391073 0.381073
0.391819 0.401819 0.416819
0.402564 0.412564 0.427564
0.413309 0.423309 0.438309
0.424055 0.434055 0.449055
0.434800 0.444800 0.459800
0.445545 0.455545 0.470545
0.456291 0.466291 0.481291
0.467036 0.477036 0.492036
0.477781 0.487781 0.502781
0.488527 0.498527 0.513527
0.499272 0.509272 0.524272
0.510017 0.520017 0.535017
0.520762 0.530762 0.545762
0.531508 0.541508 0.556508
0.542253 0.552253 0.567253
0.552998 0.562998 0.577998
0.563744 0.573744 0.588744
0.574489 0.584489 0.599489
0.585234 0.595234 0.610234
0.595980 0.605980 0.620980
0.606725 0.616725 0.631725
0.617470 0.627470 0.642470
0.319716 0.304716 0.294716
0.330461 0.315461 0.305461
0.341206 0.326206 0.316206
0.351952 0.336952 0.326952
0.362697 0.347697 0.337697
0.373442 0.358442 0.348442
0.384188 0.369188 0.359187
0.394933 0.379933 0.369933
0.405678 0.390678 0.380678
0.391423 0.401423 0.416423
0.402169 0.412169 0.427169
0.412914 0.422914 0.437914
0.423659 0.433659 0.448659
0.434405 0.444405 0.459405
0.445150 0.455150 0.470150
0.455895 0.465895 0.480895
0.466641 0.476641 0.491641
0.477386 0.487386 0.502386
0.488131 0.498131 0.513131
0.498877 0.508877 0.523877
0.509622 0.519622 0.534622
0.520367 0.530367 0.545367
0.531112 0.541112 0.556112
0.541858 0.551858 0.566858
0.552603 0.562603 0.577603
0.563348 0.573348 0.588348
0.574094 0.584094 0.599094
0.584839 0.594839 0.609839
0.595584 0.605584 0.620584
0.606330 0.616330 0.631330
0.617075 0.627075 0.642075
0.627820 0.637820 0.652820
0.638566 0.648566 0.663566
0.340811 0.325811 0.315811
0.351556 0.336556 0.326556
0.362302 0.347302 0.337302
0.373047 0.358047 0.348047
0.383792 0.368792 0.358792
0.394537 0.379537 0.369537
0.405283 0.390283 0.380283
0.391028 0.401028 0.416028
0.401773 0.411773 0.426773
0.412519 0.422519 0.437519
0.423264 0.433264 0.448264
0.434009 0.444009 0.459009
0.444755 0.454755 0.469755
0.455500 0.465500 0.480500
0.466245 0.476245 0.491245
0.476991 0.486991 0.501991
0.487736 0.497736 0.512736
0.498481 0.508481 0.523481
0.509227 0.519227 0.534227
0.519972 0.529972 0.544972
0.530717 0.540717 0.555717
0.541462 0.551462 0.566462
0.552208 0.562208 0.577208
0.562953 0.572953 0.587953
0.573698 0.583698 0.598698
0.584444 0.594444 0.609444
0.595189 0.605189 0.620189
0.605934 0.615934 0.630934
0.616680 0.626680 0.641680
0.627425 0.637425 0.652425
0.638170 0.648170 0.663170
0.648916 0.658916 0.673916
0.659661 0.669661 0.684661
0.361906 0.346906 0.336906
0.372652 0.357652 0.347652
0.383397 0.368397 0.358397
0.394142 0.379142 0.369142
0.404887 0.389887 0.379887
0.390633 0.400633 0.415633
0.401378 0.411378 0.426378
0.412123 0.422123 0.437123
0.422869 0.432869 0.447869
0.433614 0.443614 0.458614
0.444359 0.454359 0.469359
0.455105 0.465105 0.480105
0.465850 0.475850 0.490850
0.476595 0.486595 0.501595
0.487341 0.497341 0.512341
0.498086 0.508086 0.523086
0.508831 0.518831 0.533831
0.519577 0.529577 0.544577
0.530322 0.540322 0.555322
0.541067 0.551067 0.566067
0.551812 0.561812 0.576812
0.562558 0.572558 0.587558
0.573303 0.583303 0.598303
0.584048 0.594048 0.609048
0.594794 0.604794 0.619794
0.605539 0.615539 0.630539
0.616284 0.626284 0.641284
0.627030 0.637030 0.652030
0.637775 0.647775 0.662775
0.648520 0.658520 0.673520
0.659266 0.669266 0.684266
0.670011 0.680011 0.695011
0.680756 0.690756 0.705756
0.383002 0.368002 0.358002
0.393747 0.378747 0.368747
0.404492 0.389492 0.379492
0.390238 0.400238 0.415238
0.400983 0.410983 0.425983
0.411728 0.421728 0.436728
0.422473 0.432473 0.447473
0.433219 0.443219 0.458219
0.443964 0.453964 0.468964
0.454709 0.464709 0.479709
0.465455 0.475455 0.490455
0.476200 0.486200 0.501200
0.486945 0.496945 0.511945
0.497691 0.507691 0.522691
0.508436 0.518436 0.533436
0.519181 0.529181 0.544181
0.529927 0.539927 0.554927
0.540672 0.550672 0.565672
0.551417 0.561417 0.576417
0.562162 0.572162 0.587162
0.572908 0.582908 0.597908
0.583653 0.593653 0.608653
0.594398 0.604398 0.619398
0.605144 0.615144 0.630144
0.615889 0.625889 0.640889
0.626634 0.636634 0.651634
0.637380 0.647380 0.662380
0.648125 0.658125 0.673125
0.658870 0.668870 0.683870
0.669616 0.679616 0.694616
0.680361 0.690361 0.705361
0.691106 0.701106 0.716106
0.701852 0.711852 0.726852
0.404097 0.389097 0.379097
0.414842 0.399842 0.389842
0.400587 0.410587 0.425588
0.411333 0.421333 0.436333
0.422078 0.432078 0.447078
0.432823 0.442823 0.457823
0.443569 0.453569 0.468569
0.454314 0.464314 0.479314
0.465059 0.475059 0.490059
0.475805 0.485805 0.500805
0.486550 0.496550 0.511550
0.497295 0.507295 0.522295
0.508041 0.518041 0.533041
0.518786 0.528786 0.543786
0.529531 0.539531 0.554531
0.540277 0.550277 0.565277
0.551022 0.561022 0.576022
0.561767 0.571767 0.586767
0.572512 0.582512 0.597513
0.583258 0.593258 0.608258
0.594003 0.604003 0.619003
0.604748 0.614748 0.629748
0.615494 0.625494 0.640494
0.626239 0.636239 0.651239
0.636984 0.646984 0.661984
0.647730 0.657730 0.672730
0.658475 0.668475 0.683475
0.669220 0.679220 0.694220
0.679966 0.689966 0.704966
0.690711 0.700711 0.715711
0.701456 0.711456 0.726456
0.712202 0.722202 0.737202
0.722947 0.732947 0.747947
0.400192 0.410192 0.425192
0.410937 0.420937 0.435937
0.421683 0.431683 0.446683
0.432428 0.442428 0.457428
0.443173 0.453173 0.468173
0.453919 0.463919 0.478919
0.464664 0.474664 0.489664
0.475409 0.485409 0.500409
0.486155 0.496155 0.511155
0.496900 0.506900 0.521900
0.507645 0.517645 0.532645
0.518391 0.528391 0.543391
0.529136 0.539136 0.554136
0.539881 0.549881 0.564881
0.550627 0.560627 0.575627
0.561372 0.571372 0.586372
0.572117 0.582117 0.597117
0.582862 0.592862 0.607862
0.593608 0.603608 0.618608
0.604353 0.614353 0.629353
0.615098 0.625098 0.640098
0.625844 0.635844 0.650844
0.636589 0.646589 0.661589
0.647334 0.657334 0.672334
0.658080 0.668080 0.683080
0.668825 0.678825 0.693825
0.679570 0.689570 0.704570
0.690316 0.700316 0.715316
0.701061 0.711061 0.726061
0.711806 0.721806 0.736806
0.722552 0.732552 0.747552
0.733297 0.743297 0.758297
0.744042 0.754042 0.769042
0.421287 0.431287 0.446288
0.432033 0.442033 0.457033
0.442778 0.452778 0.467778
0.453523 0.463523 0.478523
0.464269 0.474269 0.489269
0.475014 0.485014 0.500014
0.485759 0.495759 0.510759
0.496505 0.506505 0.521505
0.507250 0.517250 0.532250
0.517995 0.527995 0.542995
0.528741 0.538741 0.553741
0.539486 0.549486 0.564486
0.550231 0.560231 0.575231
0.560977 0.570977 0.585977
0.571722 0.581722 0.596722
0.582467 0.592467 0.607467
0.593212 0.603212 0.618212
0.603958 0.613958 0.628958
0.614703 0.624703 0.639703
0.625448 0.635448 0.650448
0.636194 0.646194 0.661194
0.646939 0.656939 0.671939
0.657684 0.667684 0.682684
0.668430 0.678430 0.693430
0.679175 0.689175 0.704175
0.689920 0.699920 0.714920
0.700666 0.710666 0.725666
0.711411 0.721411 0.736411
0.722156 0.732156 0.747156
0.732902 0.742902 0.757902
0.743647 0.753647 0.768647
0.754392 0.764392 0.779392
0.765137 0.775137 0.790137
0.442383 0.452383 0.467383
0.453128 0.463128 0.478128
0.463873 0.473873 0.488873
0.474619 0.484619 0.499619
0.485364 0.495364 0.510364
0.496109 0.506109 0.521109
0.506855 0.516855 0.531855
0.517600 0.527600 0.542600
0.528345 0.538345 0.553345
0.539091 0.549091 0.564091
0.549836 0.559836 0.574836
0.560581 0.570581 0.585581
0.571327 0.581327 0.596327
0.582072 0.592072 0.607072
0.592817 0.602817 0.617817
0.603562 0.613562 0.628562
0.614308 0.624308 0.639308
0.625053 0.635053 0.650053
0.635798 0.645798 0.660798
0.646544 0.656544 0.671544
0.657289 0.667289 0.682289
0.668034 0.678034 0.693034
0.678780 0.688780 0.703780
0.689525 0.699525 0.714525
0.700270 0.710270 0.725270
0.711016 0.721016 0.736016
0.721761 0.731761 0.746761
0.732506 0.742506 0.757506
0.743252 0.753252 0.768252
0.753997 0.763997 0.778997
0.764742 0.774742 0.789742
0.775487 0.785487 0.800487
0.786233 0.796233 0.811233
0.463478 0.473478 0.488478
0.474223 0.484223 0.499223
0.484969 0.494969 0.509969
0.495714 0.505714 0.520714
0.506459 0.516459 0.531459
0.517205 0.527205 0.542205
0.527950 0.537950 0.552950
0.538695 0.548695 0.563695
0.549441 0.559441 0.574441
0.560186 0.570186 0.585186
0.570931 0.580931 0.595931
0.581677 0.591677 0.606677
0.592422 0.602422 0.617422
0.603167 0.613167 0.628167
0.613912 0.623912 0.638912
0.624658 0.634658 0.649658
0.635403 0.645403 0.660403
0.646148 0.656148 0.671148
0.656894 0.666894 0.681894
0.667639 0.677639 0.692639
0.678384 0.688384 0.703384
0.689130 0.699130 0.714130
0.699875 0.709875 0.724875
0.710620 0.720620 0.735620
0.721366 0.731366 0.746366
0.732111 0.742111 0.757111
0.742856 0.752856 0.767856
0.753602 0.763602 0.778602
0.764347 0.774347 0.789347
