assets/luts/noir.cube
TITLE "noir"
LUT_3D_SIZE 9
0.015000 0.000000 0.000000
0.015000 0.000000 0.000000
0.025963 0.010963 0.000963
0.068944 0.053944 0.043944
0.111925 0.096925 0.086925
0.154906 0.139906 0.129906
0.197888 0.182888 0.172888
0.240869 0.225869 0.215869
0.283850 0.268850 0.258850
0.024381 0.009381 0.000000
0.067363 0.052363 0.042363
0.110344 0.095344 0.085344
0.153325 0.138325 0.128325
0.196306 0.181306 0.171306
0.239287 0.224287 0.214287
0.282269 0.267269 0.257269
0.325250 0.310250 0.300250
0.368231 0.353231 0.343231
0.108763 0.093763 0.083763
0.151744 0.136744 0.126744
0.194725 0.179725 0.169725
0.237706 0.222706 0.212706
0.280688 0.265688 0.255688
0.323669 0.308669 0.298669
0.366650 0.351650 0.341650
0.409631 0.394631 0.384631
0.427612 0.437612 0.452612
0.193144 0.178144 0.168144
0.236125 0.221125 0.211125
0.279106 0.264106 0.254106
0.322088 0.307088 0.297088
0.365069 0.350069 0.340069
0.408050 0.393050 0.383050
0.426031 0.436031 0.451031
0.469012 0.479013 0.494013
0.511994 0.521994 0.536994
0.277525 0.262525 0.252525
0.320506 0.305506 0.295506
0.363487 0.348487 0.338487
0.406469 0.391469 0.381469
0.424450 0.434450 0.449450
0.467431 0.477431 0.492431
0.510412 0.520412 0.535412
0.553394 0.563394 0.578394
0.596375 0.606375 0.621375
0.361906 0.346906 0.336906
0.404887 0.389887 0.379887
0.422869 0.432869 0.447869
0.465850 0.475850 0.490850
0.508831 0.518831 0.533831
0.551812 0.561812 0.576812
0.594794 0.604794 0.619794
0.637775 0.647775 0.662775
0.680756 0.690756 0.705756
0.421287 0.431287 0.446288
0.464269 0.474269 0.489269
0.507250 0.517250 0.532250
0.550231 0.560231 0.575231
0.593212 0.603212 0.618212
0.636194 0.646194 0.661194
0.679175 0.689175 0.704175
0.722156 0.732156 0.747156
0.765137 0.775137 0.790137
0.505669 0.515669 0.530669
0.548650 0.558650 0.573650
0.591631 0.601631 0.616631
0.634613 0.644613 0.659613
0.677594 0.687594 0.702594
0.720575 0.730575 0.745575
0.763556 0.773556 0.788556
0.806537 0.816537 0.831537
0.849519 0.859519 0.874519
0.590050 0.600050 0.615050
0.633031 0.643031 0.658031
0.676012 0.686012 0.701012
0.718994 0.728994 0.743994
0.761975 0.771975 0.786975
0.804956 0.814956 0.829956
0.847938 0.857938 0.872938
0.890919 0.900919 0.915919
0.933900 0.943900 0.958900
0.015000 0.000000 0.000000
0.015000 0.000000 0.000000
0.042350 0.027350 0.017350
0.085331 0.070331 0.060331
0.128313 0.113313 0.103313
0.171294 0.156294 0.146294
0.214275 0.199275 0.189275
0.257256 0.242256 0.232256
0.300237 0.285237 0.275237
0.040769 0.025769 0.015769
0.083750 0.068750 0.058750
0.126731 0.111731 0.101731
0.169713 0.154713 0.144713
0.212694 0.197694 0.187694
0.255675 0.240675 0.230675
0.298656 0.283656 0.273656
0.341637 0.326637 0.316637
0.384619 0.369619 0.359619
0.125150 0.110150 0.100150
0.168131 0.153131 0.143131
0.211113 0.196113 0.186113
0.254094 0.239094 0.229094
0.297075 0.282075 0.272075
0.340056 0.325056 0.315056
0.383038 0.368038 0.358038
0.401019 0.411019 0.426019
0.444000 0.454000 0.469000
0.209531 0.194531 0.184531
0.252513 0.237513 0.227513
0.295494 0.280494 0.270494
0.338475 0.323475 0.313475
0.381456 0.366456 0.356456
0.399437 0.409437 0.424437
0.442419 0.452419 0.467419
0.485400 0.495400 0.510400
0.528381 0.538381 0.553381
0.293913 0.278913 0.268912
0.336894 0.321894 0.311894
0.379875 0.364875 0.354875
0.397856 0.407856 0.422856
0.440837 0.450837 0.465837
0.483819 0.493819 0.508819
0.526800 0.536800 0.551800
0.569781 0.579781 0.594781
0.612762 0.622762 0.637763
0.378294 0.363294 0.353294
0.396275 0.406275 0.421275
0.439256 0.449256 0.464256
0.482237 0.492237 0.507237
0.525219 0.535219 0.550219
0.568200 0.578200 0.593200
0.611181 0.621181 0.636181
0.654162 0.664162 0.679162
0.697144 0.707144 0.722144
0.437675 0.447675 0.462675
0.480656 0.490656 0.505656
0.523637 0.533637 0.548638
0.566619 0.576619 0.591619
0.609600 0.619600 0.634600
0.652581 0.662581 0.677581
0.695562 0.705562 0.720562
0.738544 0.748544 0.763544
0.781525 0.791525 0.806525
0.522056 0.532056 0.547056
0.565038 0.575038 0.590038
0.608019 0.618019 0.633019
0.651000 0.661000 0.676000
0.693981 0.703981 0.718981
0.736962 0.746962 0.761962
0.779944 0.789944 0.804944
0.822925 0.832925 0.847925
0.865906 0.875906 0.890906
0.606437 0.616437 0.631437
0.649419 0.659419 0.674419
0.692400 0.702400 0.717400
0.735381 0.745381 0.760381
0.778362 0.788362 0.803362
0.821344 0.831344 0.846344
0.864325 0.874325 0.889325
0.907306 0.917306 0.932306
0.950287 0.960287 0.975287
0.015000 0.000000 0.000000
0.015756 0.000756 0.000000
0.058738 0.043738 0.033738
0.101719 0.086719 0.076719
0.144700 0.129700 0.119700
0.187681 0.172681 0.162681
0.230663 0.215663 0.205663
0.273644 0.258644 0.248644
0.316625 0.301625 0.291625
0.057156 0.042156 0.032156
0.100138 0.085138 0.075138
0.143119 0.128119 0.118119
0.186100 0.171100 0.161100
0.229081 0.214081 0.204081
0.272063 0.257063 0.247063
0.315044 0.300044 0.290044
0.358025 0.343025 0.333025
0.401006 0.386006 0.376006
0.141538 0.126538 0.116538
0.184519 0.169519 0.159519
0.227500 0.212500 0.202500
0.270481 0.255481 0.245481
0.313463 0.298463 0.288463
0.356444 0.341444 0.331444
0.399425 0.384425 0.374425
0.417406 0.427406 0.442406
0.460388 0.470388 0.485388
0.225919 0.210919 0.200919
0.268900 0.253900 0.243900
0.311881 0.296881 0.286881
0.354863 0.339863 0.329863
0.397844 0.382844 0.372844
0.415825 0.425825 0.440825
0.458806 0.468806 0.483806
0.501787 0.511787 0.526787
0.544769 0.554769 0.569769
0.310300 0.295300 0.285300
0.353281 0.338281 0.328281
0.396263 0.381263 0.371262
0.414244 0.424244 0.439244
0.457225 0.467225 0.482225
0.500206 0.510206 0.525206
0.543187 0.553187 0.568187
0.586169 0.596169 0.611169
0.629150 0.639150 0.654150
0.394681 0.379681 0.369681
0.412662 0.422662 0.437662
0.455644 0.465644 0.480644
0.498625 0.508625 0.523625
0.541606 0.551606 0.566606
0.584587 0.594587 0.609587
0.627569 0.637569 0.652569
0.670550 0.680550 0.695550
0.713531 0.723531 0.738531
0.454062 0.464062 0.479063
0.497044 0.507044 0.522044
0.540025 0.550025 0.565025
0.583006 0.593006 0.608006
0.625987 0.635987 0.650987
0.668969 0.678969 0.693969
0.711950 0.721950 0.736950
0.754931 0.764931 0.779931
0.797912 0.807912 0.822912
0.538444 0.548444 0.563444
0.581425 0.591425 0.606425
0.624406 0.634406 0.649406
0.667388 0.677388 0.692388
0.710369 0.720369 0.735369
0.753350 0.763350 0.778350
0.796331 0.806331 0.821331
0.839312 0.849312 0.864312
0.882294 0.892294 0.907294
0.622825 0.632825 0.647825
0.665806 0.675806 0.690806
0.708787 0.718787 0.733787
0.751769 0.761769 0.776769
0.794750 0.804750 0.819750
0.837731 0.847731 0.862731
0.880713 0.890713 0.905713
0.923694 0.933694 0.948694
0.966675 0.976675 0.991675
0.015000 0.000000 0.000000
0.032144 0.017144 0.007144
0.075125 0.060125 0.050125
0.118106 0.103106 0.093106
0.161088 0.146088 0.136088
0.204069 0.189069 0.179069
0.247050 0.232050 0.222050
0.290031 0.275031 0.265031
0.333013 0.318013 0.308013
0.073544 0.058544 0.048544
0.116525 0.101525 0.091525
0.159506 0.144506 0.134506
0.202488 0.187488 0.177488
0.245469 0.230469 0.220469
0.288450 0.273450 0.263450
0.331431 0.316431 0.306431
0.374412 0.359412 0.349412
0.392394 0.402394 0.417394
0.157925 0.142925 0.132925
0.200906 0.185906 0.175906
0.243888 0.228888 0.218888
0.286869 0.271869 0.261869
0.329850 0.314850 0.304850
0.372831 0.357831 0.347831
0.390813 0.400813 0.415813
0.433794 0.443794 0.458794
0.476775 0.486775 0.501775
0.242306 0.227306 0.217306
0.285288 0.270288 0.260288
0.328269 0.313269 0.303269
0.371250 0.356250 0.346250
0.414231 0.399231 0.389231
0.432212 0.442213 0.457213
0.475194 0.485194 0.500194
0.518175 0.528175 0.543175
0.561156 0.571156 0.586156
0.326688 0.311688 0.301687
0.369669 0.354669 0.344669
0.412650 0.397650 0.387650
0.430631 0.440631 0.455631
0.473612 0.483612 0.498612
0.516594 0.526594 0.541594
0.559575 0.569575 0.584575
0.602556 0.612556 0.627556
0.645537 0.655537 0.670538
0.411069 0.396069 0.386069
0.429050 0.439050 0.454050
0.472031 0.482031 0.497031
0.515012 0.525012 0.540012
0.557994 0.567994 0.582994
0.600975 0.610975 0.625975
0.643956 0.653956 0.668956
0.686937 0.696937 0.711937
0.729919 0.739919 0.754919
0.470450 0.480450 0.495450
0.513431 0.523431 0.538431
0.556412 0.566412 0.581412
0.599394 0.609394 0.624394
0.642375 0.652375 0.667375
0.685356 0.695356 0.710356
0.728337 0.738337 0.753337
0.771319 0.781319 0.796319
0.814300 0.824300 0.839300
0.554831 0.564831 0.579831
0.597812 0.607812 0.622812
0.640794 0.650794 0.665794
0.683775 0.693775 0.708775
0.726756 0.736756 0.751756
0.769737 0.779737 0.794737
0.812719 0.822719 0.837719
0.855700 0.865700 0.880700
0.898681 0.908681 0.923681
0.639212 0.649212 0.664212
0.682194 0.692194 0.707194
0.725175 0.735175 0.750175
0.768156 0.778156 0.793156
0.811137 0.821137 0.836137
0.854119 0.864119 0.879119
0.897100 0.907100 0.922100
0.940081 0.950081 0.965081
0.983062 0.993062 1.000000
0.015000 0.000000 0.000000
0.048531 0.033531 0.023531
0.091513 0.076513 0.066513
0.134494 0.119494 0.109494
0.177475 0.162475 0.152475
0.220456 0.205456 0.195456
0.263438 0.248438 0.238438
0.306419 0.291419 0.281419
0.349400 0.334400 0.324400
0.089931 0.074931 0.064931
0.132912 0.117912 0.107912
0.175894 0.160894 0.150894
0.218875 0.203875 0.193875
0.261856 0.246856 0.236856
0.304837 0.289837 0.279837
0.347819 0.332819 0.322819
0.390800 0.375800 0.365800
0.408781 0.418781 0.433781
0.174313 0.159313 0.149313
0.217294 0.202294 0.192294
0.260275 0.245275 0.235275
0.303256 0.288256 0.278256
0.346238 0.331238 0.321238
0.389219 0.374219 0.364219
0.407200 0.417200 0.432200
0.450181 0.460181 0.475181
0.493163 0.503163 0.518163
0.258694 0.243694 0.233694
0.301675 0.286675 0.276675
0.344656 0.329656 0.319656
0.387637 0.372637 0.362637
0.405619 0.415619 0.430619
0.448600 0.458600 0.473600
0.491581 0.501581 0.516581
0.534563 0.544563 0.559563
0.577544 0.587544 0.602544
0.343075 0.328075 0.318075
0.386056 0.371056 0.361056
0.404037 0.414037 0.429037
0.447019 0.457019 0.472019
0.490000 0.500000 0.515000
0.532981 0.542981 0.557981
0.575962 0.585962 0.600962
0.618944 0.628944 0.643944
0.661925 0.671925 0.686925
0.402456 0.412456 0.427456
0.445437 0.455437 0.470437
0.488419 0.498419 0.513419
0.531400 0.541400 0.556400
0.574381 0.584381 0.599381
0.617363 0.627363 0.642363
0.660344 0.670344 0.685344
0.703325 0.713325 0.728325
0.746306 0.756306 0.771306
0.486837 0.496837 0.511837
0.529819 0.539819 0.554819
0.572800 0.582800 0.597800
0.615781 0.625781 0.640781
0.658763 0.668763 0.683763
0.701744 0.711744 0.726744
0.744725 0.754725 0.769725
0.787706 0.797706 0.812706
0.830688 0.840688 0.855688
0.571219 0.581219 0.596219
0.614200 0.624200 0.639200
0.657181 0.667181 0.682181
0.700163 0.710163 0.725163
0.743144 0.753144 0.768144
0.786125 0.796125 0.811125
0.829106 0.839106 0.854106
0.872088 0.882088 0.897088
0.915069 0.925069 0.940069
0.655600 0.665600 0.680600
0.698581 0.708581 0.723581
0.741562 0.751562 0.766562
0.784544 0.794544 0.809544
0.827525 0.837525 0.852525
0.870506 0.880506 0.895506
0.913488 0.923488 0.938488
0.956469 0.966469 0.981469
0.990000 1.000000 1.000000
0.021938 0.006938 0.000000
0.064919 0.049919 0.039919
0.107900 0.092900 0.082900
0.150881 0.135881 0.125881
0.193863 0.178863 0.168863
0.236844 0.221844 0.211844
0.279825 0.264825 0.254825
0.322806 0.307806 0.297806
0.365787 0.350787 0.340787
0.106319 0.091319 0.081319
0.149300 0.134300 0.124300
0.192281 0.177281 0.167281
0.235263 0.220263 0.210263
0.278244 0.263244 0.253244
0.321225 0.306225 0.296225
0.364206 0.349206 0.339206
0.407188 0.392188 0.382188
0.425169 0.435169 0.450169
0.190700 0.175700 0.165700
0.233681 0.218681 0.208681
0.276662 0.261662 0.251662
0.319644 0.304644 0.294644
0.362625 0.347625 0.337625
0.405606 0.390606 0.380606
0.423588 0.433588 0.448588
0.466569 0.476569 0.491569
0.509550 0.519550 0.534550
0.275081 0.260081 0.250081
0.318063 0.303063 0.293063
0.361044 0.346044 0.336044
0.404025 0.389025 0.379025
0.422006 0.432006 0.447006
0.464987 0.474987 0.489987
0.507969 0.517969 0.532969
0.550950 0.560950 0.575950
0.593931 0.603931 0.618931
0.359463 0.344463 0.334462
0.402444 0.387444 0.377444
0.420425 0.430425 0.445425
0.463406 0.473406 0.488406
0.506387 0.516387 0.531388
0.549369 0.559369 0.574369
0.592350 0.602350 0.617350
0.635331 0.645331 0.660331
0.678313 0.688313 0.703313
0.418844 0.428844 0.443844
0.461825 0.471825 0.486825
0.504806 0.514806 0.529806
0.547787 0.557787 0.572788
0.590769 0.600769 0.615769
0.633750 0.643750 0.658750
0.676731 0.686731 0.701731
0.719712 0.729712 0.744712
0.762694 0.772694 0.787694
0.503225 0.513225 0.528225
0.546206 0.556206 0.571206
0.589188 0.599188 0.614188
0.632169 0.642169 0.657169
0.675150 0.685150 0.700150
0.718131 0.728131 0.743131
0.761112 0.771112 0.786112
0.804094 0.814094 0.829094
0.847075 0.857075 0.872075
0.587606 0.597606 0.612606
0.630588 0.640588 0.655588
0.673569 0.683569 0.698569
0.716550 0.726550 0.741550
0.759531 0.769531 0.784531
0.802512 0.812512 0.827512
0.845494 0.855494 0.870494
0.888475 0.898475 0.913475
0.931456 0.941456 0.956456
0.671987 0.681987 0.696987
0.714969 0.724969 0.739969
0.757950 0.767950 0.782950
0.800931 0.810931 0.825931
0.843912 0.853912 0.868912
0.886894 0.896894 0.911894
0.929875 0.939875 0.954875
0.972856 0.982856 0.997856
0.990000 1.000000 1.000000
0.038325 0.023325 0.013325
0.081306 0.066306 0.056306
0.124288 0.109288 0.099288
0.167269 0.152269 0.142269
0.210250 0.195250 0.185250
0.253231 0.238231 0.228231
0.296213 0.281213 0.271213
0.339194 0.324194 0.314194
0.382175 0.367175 0.357175
0.122706 0.107706 0.097706
0.165688 0.150688 0.140688
0.208669 0.193669 0.183669
0.251650 0.236650 0.226650
0.294631 0.279631 0.269631
0.337613 0.322613 0.312613
0.380594 0.365594 0.355594
0.398575 0.408575 0.423575
0.441556 0.451556 0.466556
0.207088 0.192088 0.182088
0.250069 0.235069 0.225069
0.293050 0.278050 0.268050
0.336031 0.321031 0.311031
0.379013 0.364013 0.354013
0.396994 0.406994 0.421994
0.439975 0.449975 0.464975
0.482956 0.492956 0.507956
0.525937 0.535937 0.550937
0.291469 0.276469 0.266469
0.334450 0.319450 0.309450
0.377431 0.362431 0.352431
0.395413 0.405413 0.420413
0.438394 0.448394 0.463394
0.481375 0.491375 0.506375
0.524356 0.534356 0.549356
0.567338 0.577338 0.592338
0.610319 0.620319 0.635319
0.375850 0.360850 0.350850
0.393831 0.403831 0.418831
0.436812 0.446813 0.461813
0.479794 0.489794 0.504794
0.522775 0.532775 0.547775
0.565756 0.575756 0.590756
0.608737 0.618737 0.633737
0.651719 0.661719 0.676719
0.694700 0.704700 0.719700
0.435231 0.445231 0.460231
0.478212 0.488212 0.503212
0.521194 0.531194 0.546194
0.564175 0.574175 0.589175
0.607156 0.617156 0.632156
0.650137 0.660137 0.675137
0.693119 0.703119 0.718119
0.736100 0.746100 0.761100
0.779081 0.789081 0.804081
0.519612 0.529612 0.544612
0.562594 0.572594 0.587594
0.605575 0.615575 0.630575
0.648556 0.658556 0.673556
0.691538 0.701538 0.716538
0.734519 0.744519 0.759519
0.777500 0.787500 0.802500
0.820481 0.830481 0.845481
0.863463 0.873463 0.888463
0.603994 0.613994 0.628994
0.646975 0.656975 0.671975
0.689956 0.699956 0.714956
0.732938 0.742938 0.757938
0.775919 0.785919 0.800919
0.818900 0.828900 0.843900
0.861881 0.871881 0.886881
0.904862 0.914862 0.929862
0.947844 0.957844 0.972844
0.688375 0.698375 0.713375
0.731356 0.741356 0.756356
0.774337 0.784337 0.799337
0.817319 0.827319 0.842319
0.860300 0.870300 0.885300
0.903281 0.913281 0.928281
0.946263 0.956263 0.971263
0.989244 0.999244 1.000000
0.990000 1.000000 1.000000
0.054713 0.039713 0.029713
0.097694 0.082694 0.072694
0.140675 0.125675 0.115675
0.183656 0.168656 0.158656
0.226637 0.211637 0.201637
0.269619 0.254619 0.244619
0.312600 0.297600 0.287600
0.355581 0.340581 0.330581
0.398563 0.383563 0.373563
0.139094 0.124094 0.114094
0.182075 0.167075 0.157075
0.225056 0.210056 0.200056
0.268038 0.253038 0.243038
0.311019 0.296019 0.286019
0.354000 0.339000 0.329000
0.396981 0.381981 0.371981
0.414962 0.424962 0.439962
0.457944 0.467944 0.482944
0.223475 0.208475 0.198475
0.266456 0.251456 0.241456
0.309438 0.294438 0.284438
0.352419 0.337419 0.327419
0.395400 0.380400 0.370400
0.413381 0.423381 0.438381
0.456363 0.466363 0.481363
0.499344 0.509344 0.524344
0.542325 0.552325 0.567325
0.307856 0.292856 0.282856
0.350838 0.335838 0.325838
0.393819 0.378819 0.368819
0.411800 0.421800 0.436800
0.454781 0.464781 0.479781
0.497762 0.507763 0.522763
0.540744 0.550744 0.565744
0.583725 0.593725 0.608725
0.626706 0.636706 0.651706
0.392238 0.377238 0.367237
0.410219 0.420219 0.435219
0.453200 0.463200 0.478200
0.496181 0.506181 0.521181
0.539162 0.549162 0.564163
0.582144 0.592144 0.607144
0.625125 0.635125 0.650125
0.668106 0.678106 0.693106
0.711087 0.721087 0.736088
0.451619 0.461619 0.476619
0.494600 0.504600 0.519600
0.537581 0.547581 0.562581
0.580562 0.590562 0.605563
0.623544 0.633544 0.648544
0.666525 0.676525 0.691525
0.709506 0.719506 0.734506
0.752487 0.762487 0.777487
0.795469 0.805469 0.820469
0.536000 0.546000 0.561000
0.578981 0.588981 0.603981
0.621962 0.631962 0.646962
0.664944 0.674944 0.689944
0.707925 0.717925 0.732925
0.750906 0.760906 0.775906
0.793887 0.803887 0.818887
0.836869 0.846869 0.861869
0.879850 0.889850 0.904850
0.620381 0.630381 0.645381
0.663363 0.673363 0.688363
0.706344 0.716344 0.731344
0.749325 0.759325 0.774325
0.792306 0.802306 0.817306
0.835287 0.845287 0.860287
0.878269 0.888269 0.903269
0.921250 0.931250 0.946250
0.964231 0.974231 0.989231
0.704762 0.714762 0.729762
0.747744 0.757744 0.772744
0.790725 0.800725 0.815725
0.833706 0.843706 0.858706
0.876687 0.886687 0.901687
0.919669 0.929669 0.944669
0.962650 0.972650 0.987650
0.990000 1.000000 1.000000
0.990000 1.000000 1.000000
0.071100 0.056100 0.046100
0.114081 0.099081 0.089081
0.157062 0.142062 0.132062
0.200044 0.185044 0.175044
0.243025 0.228025 0.218025
0.286006 0.271006 0.261006
0.328987 0.313987 0.303987
0.371969 0.356969 0.346969
0.414950 0.399950 0.389950
0.155481 0.140481 0.130481
0.198463 0.183463 0.173463
0.241444 0.226444 0.216444
0.284425 0.269425 0.259425
0.327406 0.312406 0.302406
0.370387 0.355387 0.345387
0.413369 0.398369 0.388369
0.431350 0.441350 0.456350
0.474331 0.484331 0.499331
0.239863 0.224863 0.214863
0.282844 0.267844 0.257844
0.325825 0.310825 0.300825
0.368806 0.353806 0.343806
0.411788 0.396788 0.386788
0.429769 0.439769 0.454769
0.472750 0.482750 0.497750
0.515731 0.525731 0.540731
0.558712 0.568712 0.583712
0.324244 0.309244 0.299244
0.367225 0.352225 0.342225
0.410206 0.395206 0.385206
0.428187 0.438187 0.453187
0.471169 0.481169 0.496169
0.514150 0.524150 0.539150
0.557131 0.567131 0.582131
0.600112 0.610112 0.625112
0.643094 0.653094 0.668094
0.408625 0.393625 0.383625
0.426606 0.436606 0.451606
0.469587 0.479587 0.494587
0.512569 0.522569 0.537569
0.555550 0.565550 0.580550
0.598531 0.608531 0.623531
0.641512 0.651512 0.666512
0.684494 0.694494 0.709494
0.727475 0.737475 0.752475
0.468006 0.478006 0.493006
0.510987 0.520987 0.535987
0.553969 0.563969 0.578969
0.596950 0.606950 0.621950
0.639931 0.649931 0.664931
0.682912 0.692912 0.707912
0.725894 0.735894 0.750894
0.768875 0.778875 0.793875
0.811856 0.821856 0.836856
0.552388 0.562388 0.577388
0.595369 0.605369 0.620369
0.638350 0.648350 0.663350
0.681331 0.691331 0.706331
0.724312 0.734312 0.749312
0.767294 0.777294 0.792294
0.810275 0.820275 0.835275
0.853256 0.863256 0.878256
0.896237 0.906237 0.921237
0.636769 0.646769 0.661769
0.679750 0.689750 0.704750
0.722731 0.732731 0.747731
0.765713 0.775713 0.790713
0.808694 0.818694 0.833694
0.851675 0.861675 0.876675
0.894656 0.904656 0.919656
0.937637 0.947637 0.962637
0.980619 0.990619 1.000000
0.721150 0.731150 0.746150
0.764131 0.774131 0.789131
0.807112 0.817112 0.832112
0.850094 0.860094 0.875094
0.893075 0.903075 0.918075
0.936056 0.946056 0.961056
0.979038 0.989038 1.000000
0.990000 1.000000 1.000000
0.990000 1.000000 1.000000
