assets/luts/noir.cube
TITLE "noir"
LUT_3D_SIZE 5
0.015000 0.000000 0.000000
0.025963 0.010963 0.000963
0.111925 0.096925 0.086925
0.197888 0.182888 0.172888
0.283850 0.268850 0.258850
0.108763 0.093763 0.083763
0.194725 0.179725 0.169725
0.280688 0.265688 0.255688
0.366650 0.351650 0.341650
0.427612 0.437612 0.452612
0.277525 0.262525 0.252525
0.363487 0.348487 0.338487
0.424450 0.434450 0.449450
0.510412 0.520412 0.535412
0.596375 0.606375 0.621375
0.421287 0.431287 0.446288
0.507250 0.517250 0.532250
0.593212 0.603212 0.618212
0.679175 0.689175 0.704175
0.765137 0.775137 0.790137
0.590050 0.600050 0.615050
0.676012 0.686012 0.701012
0.761975 0.771975 0.786975
0.847938 0.857938 0.872938
0.933900 0.943900 0.958900
0.015000 0.000000 0.000000
0.058738 0.043738 0.033738
0.144700 0.129700 0.119700
0.230663 0.215663 0.205663
0.316625 0.301625 0.291625
0.141538 0.126538 0.116538
0.227500 0.212500 0.202500
0.313463 0.298463 0.288463
0.399425 0.384425 0.374425
0.460388 0.470388 0.485388
0.310300 0.295300 0.285300
0.396263 0.381263 0.371262
0.457225 0.467225 0.482225
0.543187 0.553187 0.568187
0.629150 0.639150 0.654150
0.454062 0.464062 0.479063
0.540025 0.550025 0.565025
0.625987 0.635987 0.650987
0.711950 0.721950 0.736950
0.797912 0.807912 0.822912
0.622825 0.632825 0.647825
0.708787 0.718787 0.733787
0.794750 0.804750 0.819750
0.880713 0.890713 0.905713
0.966675 0.976675 0.991675
0.015000 0.000000 0.000000
0.091513 0.076513 0.066513
0.177475 0.162475 0.152475
0.263438 0.248438 0.238438
0.349400 0.334400 0.324400
0.174313 0.159313 0.149313
0.260275 0.245275 0.235275
0.346238 0.331238 0.321238
0.407200 0.417200 0.432200
0.493163 0.503163 0.518163
0.343075 0.328075 0.318075
0.404037 0.414037 0.429037
0.490000 0.500000 0.515000
0.575962 0.585962 0.600962
0.661925 0.671925 0.686925
0.486837 0.496837 0.511837
0.572800 0.582800 0.597800
0.658763 0.668763 0.683763
0.744725 0.754725 0.769725
0.830688 0.840688 0.855688
0.655600 0.665600 0.680600
0.741562 0.751562 0.766562
0.827525 0.837525 0.852525
0.913488 0.923488 0.938488
0.990000 1.000000 1.000000
0.038325 0.023325 0.013325
0.124288 0.109288 0.099288
0.210250 0.195250 0.185250
0.296213 0.281213 0.271213
0.382175 0.367175 0.357175
0.207088 0.192088 0.182088
0.293050 0.278050 0.268050
0.379013 0.364013 0.354013
0.439975 0.449975 0.464975
0.525937 0.535937 0.550937
0.375850 0.360850 0.350850
0.436812 0.446813 0.461813
0.522775 0.532775 0.547775
0.608737 0.618737 0.633737
0.694700 0.704700 0.719700
0.519612 0.529612 0.544612
0.605575 0.615575 0.630575
0.691538 0.701538 0.716538
0.777500 0.787500 0.802500
0.863463 0.873463 0.888463
0.688375 0.698375 0.713375
0.774337 0.784337 0.799337
0.860300 0.870300 0.885300
0.946263 0.956263 0.971263
0.990000 1.000000 1.000000
0.071100 0.056100 0.046100
0.157062 0.142062 0.132062
0.243025 0.228025 0.218025
0.328987 0.313987 0.303987
0.414950 0.399950 0.389950
0.239863 0.224863 0.214863
0.325825 0.310825 0.300825
0.411788 0.396788 0.386788
0.472750 0.482750 0.497750
0.558712 0.568712 0.583712
0.408625 0.393625 0.383625
0.469587 0.479587 0.494587
0.555550 0.565550 0.580550
0.641512 0.651512 0.666512
0.727475 0.737475 0.752475
0.552388 0.562388 0.577388
0.638350 0.648350 0.663350
0.724312 0.734312 0.749312
0.810275 0.820275 0.835275
0.896237 0.906237 0.921237
0.721150 0.731150 0.746150
0.807112 0.817112 0.832112
0.893075 0.903075 0.918075
0.979038 0.989038 1.000000
0.990000 1.000000 1.000000
