assets/luts/ocean.cube
TITLE "ocean"
LUT_3D_SIZE 33
0.000000 0.000000 0.017656
0.000000 0.000000 0.017656
0.006159 0.000000 0.017656
0.020242 0.000000 0.018318
0.036392 0.000000 0.019188
0.053895 0.000000 0.019781
0.072614 0.000000 0.020235
0.092459 0.000000 0.020605
0.113362 0.000000 0.020918
0.135262 0.000000 0.021190
0.158104 0.000000 0.021431
0.181830 0.000000 0.021647
0.206386 0.000000 0.021843
0.231716 0.000000 0.022024
0.257764 0.000000 0.022190
0.284472 0.000000 0.022345
0.311781 0.000000 0.022489
0.339631 0.000000 0.022625
0.367962 0.000000 0.022753
0.396711 0.000000 0.022874
0.425814 0.000000 0.022990
0.455209 0.000000 0.023099
0.484827 0.000000 0.023204
0.514604 0.000000 0.023304
0.544470 0.000000 0.023400
0.574357 0.000000 0.023492
0.604196 0.000000 0.023580
0.633914 0.000000 0.023666
0.663441 0.000000 0.023748
0.692703 0.000000 0.023828
0.721627 0.000000 0.023905
0.750137 0.000000 0.023980
0.778159 0.000000 0.024052
0.000000 0.011537 0.017656
0.000000 0.011537 0.017656
0.006276 0.011975 0.018440
0.021184 0.012256 0.018939
0.037726 0.012410 0.019262
0.055617 0.012452 0.019412
0.074736 0.012425 0.019459
0.095000 0.012353 0.019436
0.116339 0.012247 0.019363
0.138694 0.012116 0.019252
0.162005 0.011965 0.019110
0.186215 0.011798 0.018943
0.211267 0.011616 0.018756
0.237103 0.011423 0.018552
0.263663 0.011220 0.018333
0.290888 0.011008 0.018100
0.318716 0.010789 0.017857
0.347084 0.010562 0.017603
0.375930 0.010330 0.017340
0.405187 0.010092 0.017069
0.434789 0.009849 0.016790
0.464669 0.009601 0.016505
0.494757 0.009349 0.016214
0.524985 0.009094 0.015917
0.555280 0.008834 0.015615
0.585570 0.008572 0.015308
0.615784 0.008306 0.014997
0.645845 0.008038 0.014682
0.675678 0.007767 0.014362
0.705209 0.007493 0.014040
0.734358 0.007217 0.013713
0.763048 0.006939 0.013384
0.791201 0.006659 0.013052
0.000000 0.028447 0.018630
0.000000 0.028447 0.018630
0.006354 0.029400 0.018939
0.021458 0.029812 0.019130
0.037882 0.030242 0.019302
0.055803 0.030678 0.019428
0.074945 0.030971 0.019459
0.095229 0.031168 0.019425
0.116586 0.031295 0.019344
0.138956 0.031367 0.019226
0.162282 0.031397 0.019079
0.186506 0.031392 0.018908
0.211570 0.031358 0.018717
0.237417 0.031300 0.018510
0.263988 0.031220 0.018288
0.291222 0.031123 0.018053
0.319059 0.031009 0.017807
0.347435 0.030881 0.017552
0.376288 0.030740 0.017287
0.405550 0.030588 0.017015
0.435157 0.030426 0.016735
0.465041 0.030254 0.016448
0.495133 0.030074 0.016156
0.525362 0.029885 0.015858
0.555659 0.029690 0.015555
0.585950 0.029488 0.015247
0.616162 0.029279 0.014935
0.646221 0.029065 0.014619
0.676052 0.028846 0.014299
0.705579 0.028621 0.013976
0.734723 0.028392 0.013649
0.763408 0.028158 0.013319
0.791553 0.027920 0.012986
0.000000 0.047433 0.019389
0.000000 0.047433 0.019389
0.006344 0.048776 0.019262
0.021831 0.049290 0.019353
0.038105 0.049290 0.019353
0.055803 0.049875 0.019428
0.074945 0.050533 0.019459
0.095229 0.051036 0.019425
0.116586 0.051426 0.019344
0.138956 0.051729 0.019226
0.162282 0.051965 0.019079
0.186506 0.052145 0.018908
0.211570 0.052279 0.018717
0.237417 0.052374 0.018510
0.263988 0.052436 0.018288
0.291222 0.052469 0.018053
0.319059 0.052477 0.017807
0.347435 0.052462 0.017552
0.376288 0.052428 0.017287
0.405550 0.052375 0.017015
0.435157 0.052306 0.016735
0.465041 0.052223 0.016448
0.495133 0.052126 0.016156
0.525362 0.052017 0.015858
0.555659 0.051896 0.015555
0.585950 0.051765 0.015247
0.616162 0.051625 0.014935
0.646221 0.051475 0.014619
0.676052 0.051317 0.014299
0.705579 0.051151 0.013976
0.734723 0.050977 0.013649
0.763408 0.050797 0.013319
0.791553 0.050610 0.012986
0.000000 0.067997 0.019931
0.000000 0.067997 0.019931
0.006272 0.069751 0.019412
0.022063 0.070342 0.019446
0.038692 0.070342 0.019446
0.056072 0.070342 0.019446
0.074945 0.071046 0.019459
0.095229 0.071881 0.019425
0.116586 0.072558 0.019344
0.138956 0.073114 0.019226
0.162282 0.073574 0.019079
0.186506 0.073957 0.018908
0.211570 0.074275 0.018717
0.237417 0.074540 0.018510
0.263988 0.074758 0.018288
0.291222 0.074935 0.018053
0.319059 0.075078 0.017807
0.347435 0.075189 0.017552
0.376288 0.075272 0.017287
0.405550 0.075331 0.017015
0.435157 0.075367 0.016735
0.465041 0.075382 0.016448
0.495133 0.075379 0.016156
0.525362 0.075359 0.015858
0.555659 0.075323 0.015555
0.585950 0.075272 0.015247
0.616162 0.075208 0.014935
0.646221 0.075132 0.014619
0.676052 0.075044 0.014299
0.705579 0.074945 0.013976
0.734723 0.074836 0.013649
0.763408 0.074717 0.013319
0.791553 0.074589 0.012986
0.000000 0.089997 0.020355
0.000000 0.089997 0.020355
0.006163 0.092189 0.019459
0.022205 0.092844 0.019454
0.039125 0.092844 0.019454
0.056820 0.092844 0.019454
0.075252 0.092844 0.019454
0.095229 0.093647 0.019425
0.116586 0.094632 0.019344
0.138956 0.095460 0.019226
0.162282 0.096162 0.019079
0.186506 0.096764 0.018908
0.211570 0.097282 0.018717
0.237417 0.097730 0.018510
0.263988 0.098117 0.018288
0.291222 0.098451 0.018053
0.319059 0.098740 0.017807
0.347435 0.098989 0.017552
0.376288 0.099201 0.017287
0.405550 0.099381 0.017015
0.435157 0.099531 0.016735
0.465041 0.099655 0.016448
0.495133 0.099755 0.016156
0.525362 0.099833 0.015858
0.555659 0.099890 0.015555
0.585950 0.099929 0.015247
0.616162 0.099950 0.014935
0.646221 0.099955 0.014619
0.676052 0.099945 0.014299
0.705579 0.099920 0.013976
0.734723 0.099883 0.013649
0.763408 0.099833 0.013319
0.791553 0.099771 0.012986
0.000000 0.113335 0.020706
0.000000 0.113335 0.020706
0.006028 0.115990 0.019436
0.022284 0.116702 0.019405
0.039450 0.116702 0.019405
0.057413 0.116702 0.019405
0.076132 0.116702 0.019405
0.095568 0.116702 0.019405
0.116586 0.117590 0.019344
0.138956 0.118706 0.019226
0.162282 0.119667 0.019079
0.186506 0.120503 0.018908
0.211570 0.121234 0.018717
0.237417 0.121877 0.018510
0.263988 0.122445 0.018288
0.291222 0.122948 0.018053
0.319059 0.123394 0.017807
0.347435 0.123789 0.017552
0.376288 0.124140 0.017287
0.405550 0.124450 0.017015
0.435157 0.124724 0.016735
0.465041 0.124966 0.016448
0.495133 0.125177 0.016156
0.525362 0.125361 0.015858
0.555659 0.125519 0.015555
0.585950 0.125654 0.015247
0.616162 0.125768 0.014935
0.646221 0.125861 0.014619
0.676052 0.125936 0.014299
0.705579 0.125994 0.013976
0.734723 0.126034 0.013649
0.763408 0.126060 0.013319
0.791553 0.126071 0.012986
0.000000 0.137924 0.021005
0.000000 0.137924 0.021005
0.005874 0.141066 0.019363
0.022315 0.141829 0.019311
0.039696 0.141829 0.019311
0.057891 0.141829 0.019311
0.076859 0.141829 0.019311
0.096561 0.141829 0.019311
0.116954 0.141829 0.019311
0.138956 0.142793 0.019226
0.162282 0.144026 0.019079
0.186506 0.145108 0.018908
0.211570 0.146064 0.018717
0.237417 0.146914 0.018510
0.263988 0.147674 0.018288
0.291222 0.148354 0.018053
0.319059 0.148967 0.017807
0.347435 0.149518 0.017552
0.376288 0.150016 0.017287
0.405550 0.150465 0.017015
0.435157 0.150871 0.016735
0.465041 0.151237 0.016448
0.495133 0.151567 0.016156
0.525362 0.151864 0.015858
0.555659 0.152131 0.015555
0.585950 0.152369 0.015247
0.616162 0.152582 0.014935
0.646221 0.152770 0.014619
0.676052 0.152936 0.014299
0.705579 0.153081 0.013976
0.734723 0.153207 0.013649
0.763408 0.153314 0.013319
0.791553 0.153403 0.012986
0.000000 0.163684 0.021267
0.000000 0.163684 0.021267
0.005705 0.167336 0.019252
0.022311 0.168144 0.019184
0.039879 0.168144 0.019184
0.058280 0.168144 0.019184
0.077469 0.168144 0.019184
0.097406 0.168144 0.019184
0.118047 0.168144 0.019184
0.139350 0.168144 0.019184
0.162282 0.169177 0.019079
0.186506 0.170516 0.018908
0.211570 0.171708 0.018717
0.237417 0.172774 0.018510
0.263988 0.173734 0.018288
0.291222 0.174602 0.018053
0.319059 0.175389 0.017807
0.347435 0.176104 0.017552
0.376288 0.176756 0.017287
0.405550 0.177352 0.017015
0.435157 0.177896 0.016735
0.465041 0.178393 0.016448
0.495133 0.178848 0.016156
0.525362 0.179265 0.015858
0.555659 0.179645 0.015555
0.585950 0.179993 0.015247
0.616162 0.180311 0.014935
0.646221 0.180600 0.014619
0.676052 0.180862 0.014299
0.705579 0.181100 0.013976
0.734723 0.181315 0.013649
0.763408 0.181509 0.013319
0.791553 0.181682 0.012986
0.000000 0.190538 0.021499
0.000000 0.190538 0.021499
0.005525 0.194718 0.019110
0.022277 0.195568 0.019029
0.040014 0.195568 0.019029
0.058598 0.195568 0.019029
0.077986 0.195568 0.019029
0.098133 0.195568 0.019029
0.118997 0.195568 0.019029
0.140533 0.195568 0.019029
0.162699 0.195568 0.019029
0.186506 0.196663 0.018908
0.211570 0.198098 0.018717
0.237417 0.199390 0.018510
0.263988 0.200558 0.018288
0.291222 0.201619 0.018053
0.319059 0.202588 0.017807
0.347435 0.203474 0.017552
0.376288 0.204287 0.017287
0.405550 0.205034 0.017015
0.435157 0.205723 0.016735
0.465041 0.206357 0.016448
0.495133 0.206943 0.016156
0.525362 0.207484 0.015858
0.555659 0.207984 0.015555
0.585950 0.208446 0.015247
0.616162 0.208873 0.014935
0.646221 0.209268 0.014619
0.676052 0.209632 0.014299
0.705579 0.209967 0.013976
0.734723 0.210276 0.013649
0.763408 0.210561 0.013319
0.791553 0.210821 0.012986
0.000000 0.218407 0.021709
0.000000 0.218407 0.021709
0.005335 0.223130 0.018943
0.022220 0.224019 0.018852
0.040108 0.224019 0.018852
0.058859 0.224019 0.018852
0.078425 0.224019 0.018852
0.098764 0.224019 0.018852
0.119830 0.224019 0.018852
0.141579 0.224019 0.018852
0.163965 0.224019 0.018852
0.186945 0.224019 0.018852
0.211570 0.225171 0.018717
0.237417 0.226694 0.018510
0.263988 0.228077 0.018288
0.291222 0.229338 0.018053
0.319059 0.230494 0.017807
0.347435 0.231556 0.017552
0.376288 0.232535 0.017287
0.405550 0.233439 0.017015
0.435157 0.234277 0.016735
0.465041 0.235053 0.016448
0.495133 0.235774 0.016156
0.525362 0.236444 0.015858
0.555659 0.237068 0.015555
0.585950 0.237648 0.015247
0.616162 0.238189 0.014935
0.646221 0.238692 0.014619
0.676052 0.239162 0.014299
0.705579 0.239599 0.013976
0.734723 0.240006 0.013649
0.763408 0.240385 0.013319
0.791553 0.240737 0.012986
0.000000 0.247213 0.021900
0.000000 0.247213 0.021900
0.005138 0.252492 0.018756
0.022142 0.253415 0.018656
0.040169 0.253415 0.018656
0.059071 0.253415 0.018656
0.078801 0.253415 0.018656
0.099315 0.253415 0.018656
0.120566 0.253415 0.018656
0.142509 0.253415 0.018656
0.165097 0.253415 0.018656
0.188286 0.253415 0.018656
0.212029 0.253415 0.018656
0.237417 0.254619 0.018510
0.263988 0.256222 0.018288
0.291222 0.257688 0.018053
0.319059 0.259035 0.017807
0.347435 0.260278 0.017552
0.376288 0.261427 0.017287
0.405550 0.262492 0.017015
0.435157 0.263482 0.016735
0.465041 0.264404 0.016448
0.495133 0.265264 0.016156
0.525362 0.266066 0.015858
0.555659 0.266817 0.015555
0.585950 0.267519 0.015247
0.616162 0.268176 0.014935
0.646221 0.268793 0.014619
0.676052 0.269370 0.014299
0.705579 0.269912 0.013976
0.734723 0.270419 0.013649
0.763408 0.270896 0.013319
0.791553 0.271342 0.012986
0.000000 0.276876 0.022076
0.000000 0.276876 0.022076
0.004933 0.282720 0.018552
0.022048 0.283674 0.018444
0.040202 0.283674 0.018444
0.059242 0.283674 0.018444
0.079123 0.283674 0.018444
0.099798 0.283674 0.018444
0.121219 0.283674 0.018444
0.143341 0.283674 0.018444
0.166116 0.283674 0.018444
0.189498 0.283674 0.018444
0.213440 0.283674 0.018444
0.237895 0.283674 0.018444
0.263988 0.284924 0.018288
0.291222 0.286599 0.018053
0.319059 0.288141 0.017807
0.347435 0.289567 0.017552
0.376288 0.290889 0.017287
0.405550 0.292118 0.017015
0.435157 0.293264 0.016735
0.465041 0.294334 0.016448
0.495133 0.295335 0.016156
0.525362 0.296273 0.015858
0.555659 0.297152 0.015555
0.585950 0.297978 0.015247
0.616162 0.298755 0.014935
0.646221 0.299486 0.014619
0.676052 0.300174 0.014299
0.705579 0.300822 0.013976
0.734723 0.301433 0.013649
0.763408 0.302009 0.013319
0.791553 0.302552 0.012986
0.000000 0.307314 0.022238
0.000000 0.307314 0.022238
0.004723 0.313727 0.018333
0.021939 0.314709 0.018217
0.040209 0.314709 0.018217
0.059379 0.314709 0.018217
0.079399 0.314709 0.018217
0.100223 0.314709 0.018217
0.121802 0.314709 0.018217
0.144090 0.314709 0.018217
0.167038 0.314709 0.018217
0.190599 0.314709 0.018217
0.214725 0.314709 0.018217
0.239369 0.314709 0.018217
0.264482 0.314709 0.018217
0.291222 0.316001 0.018053
0.319059 0.317740 0.017807
0.347435 0.319352 0.017552
0.376288 0.320849 0.017287
0.405550 0.322243 0.017015
0.435157 0.323546 0.016735
0.465041 0.324766 0.016448
0.495133 0.325910 0.016156
0.525362 0.326984 0.015858
0.555659 0.327995 0.015555
0.585950 0.328947 0.015247
0.616162 0.329844 0.014935
0.646221 0.330691 0.014619
0.676052 0.331492 0.014299
0.705579 0.332248 0.013976
0.734723 0.332963 0.013649
0.763408 0.333640 0.013319
0.791553 0.334281 0.012986
0.000000 0.338444 0.022390
0.000000 0.338444 0.022390
0.004507 0.345426 0.018100
0.021817 0.346433 0.017979
0.040196 0.346433 0.017979
0.059484 0.346433 0.017979
0.079634 0.346433 0.017979
0.100597 0.346433 0.017979
0.122323 0.346433 0.017979
0.144766 0.346433 0.017979
0.167875 0.346433 0.017979
0.191604 0.346433 0.017979
0.215902 0.346433 0.017979
0.240722 0.346433 0.017979
0.266014 0.346433 0.017979
0.291732 0.346433 0.017979
0.319059 0.347762 0.017807
0.347435 0.349559 0.017552
0.376288 0.351232 0.017287
0.405550 0.352793 0.017015
0.435157 0.354254 0.016735
0.465041 0.355624 0.016448
0.495133 0.356912 0.016156
0.525362 0.358123 0.015858
0.555659 0.359265 0.015555
0.585950 0.360344 0.015247
0.616162 0.361363 0.014935
0.646221 0.362327 0.014619
0.676052 0.363240 0.014299
0.705579 0.364105 0.013976
0.734723 0.364925 0.013649
0.763408 0.365704 0.013319
0.791553 0.366443 0.012986
0.000000 0.370179 0.022532
0.000000 0.370179 0.022532
0.004287 0.377728 0.017857
0.021684 0.378756 0.017730
0.040164 0.378756 0.017730
0.059563 0.378756 0.017730
0.079834 0.378756 0.017730
0.100926 0.378756 0.017730
0.122791 0.378756 0.017730
0.145378 0.378756 0.017730
0.168639 0.378756 0.017730
0.192524 0.378756 0.017730
0.216984 0.378756 0.017730
0.241969 0.378756 0.017730
0.267430 0.378756 0.017730
0.293317 0.378756 0.017730
0.319582 0.378756 0.017730
0.347435 0.380118 0.017552
0.376288 0.381966 0.017287
0.405550 0.383693 0.017015
0.435157 0.385312 0.016735
0.465041 0.386832 0.016448
0.495133 0.388262 0.016156
0.525362 0.389611 0.015858
0.555659 0.390885 0.015555
0.585950 0.392089 0.015247
0.616162 0.393229 0.014935
0.646221 0.394310 0.014619
0.676052 0.395336 0.014299
0.705579 0.396310 0.013976
0.734723 0.397235 0.013649
0.763408 0.398116 0.013319
0.791553 0.398954 0.012986
0.000000 0.402432 0.022665
0.000000 0.402432 0.022665
0.004062 0.410541 0.017603
0.021541 0.411587 0.017472
0.040114 0.411587 0.017472
0.059618 0.411587 0.017472
0.080002 0.411587 0.017472
0.101216 0.411587 0.017472
0.123210 0.411587 0.017472
0.145934 0.411587 0.017472
0.169337 0.411587 0.017472
0.193370 0.411587 0.017472
0.217981 0.411587 0.017472
0.243122 0.411587 0.017472
0.268741 0.411587 0.017472
0.294789 0.411587 0.017472
0.321216 0.411587 0.017472
0.347971 0.411587 0.017472
0.376288 0.412977 0.017287
0.405550 0.414868 0.017015
0.435157 0.416643 0.016735
0.465041 0.418312 0.016448
0.495133 0.419885 0.016156
0.525362 0.421370 0.015858
0.555659 0.422774 0.015555
0.585950 0.424103 0.015247
0.616162 0.425363 0.014935
0.646221 0.426560 0.014619
0.676052 0.427697 0.014299
0.705579 0.428779 0.013976
0.734723 0.429809 0.013649
0.763408 0.430791 0.013319
0.791553 0.431726 0.012986
0.000000 0.435115 0.022791
0.000000 0.435115 0.022791
0.003834 0.443771 0.017340
0.021389 0.444833 0.017205
0.040051 0.444833 0.017205
0.059652 0.444833 0.017205
0.080143 0.444833 0.017205
0.101472 0.444833 0.017205
0.123587 0.444833 0.017205
0.146439 0.444833 0.017205
0.169977 0.444833 0.017205
0.194148 0.444833 0.017205
0.218904 0.444833 0.017205
0.244191 0.444833 0.017205
0.269960 0.444833 0.017205
0.296160 0.444833 0.017205
0.322740 0.444833 0.017205
0.349648 0.444833 0.017205
0.376834 0.444833 0.017205
0.405550 0.446245 0.017015
0.435157 0.448174 0.016735
0.465041 0.449990 0.016448
0.495133 0.451702 0.016156
0.525362 0.453321 0.015858
0.555659 0.454853 0.015555
0.585950 0.456305 0.015247
0.616162 0.457684 0.014935
0.646221 0.458995 0.014619
0.676052 0.460242 0.014299
0.705579 0.461430 0.013976
0.734723 0.462563 0.013649
0.763408 0.463644 0.013319
0.791553 0.464676 0.012986
0.000000 0.468135 0.022910
0.000000 0.468135 0.022910
0.003602 0.477325 0.017069
0.021229 0.478398 0.016930
0.039973 0.478398 0.016930
0.059667 0.478398 0.016930
0.080258 0.478398 0.016930
0.101695 0.478398 0.016930
0.123926 0.478398 0.016930
0.146900 0.478398 0.016930
0.170564 0.478398 0.016930
0.194868 0.478398 0.016930
0.219759 0.478398 0.016930
0.245186 0.478398 0.016930
0.271097 0.478398 0.016930
0.297440 0.478398 0.016930
0.324165 0.478398 0.016930
0.351218 0.478398 0.016930
0.378549 0.478398 0.016930
0.406106 0.478398 0.016930
0.435157 0.479828 0.016735
0.465041 0.481787 0.016448
0.495133 0.483636 0.016156
0.525362 0.485385 0.015858
0.555659 0.487043 0.015555
0.585950 0.488616 0.015247
0.616162 0.490110 0.014935
0.646221 0.491532 0.014619
0.676052 0.492887 0.014299
0.705579 0.494179 0.013976
0.734723 0.495413 0.013649
0.763408 0.496591 0.013319
0.791553 0.497717 0.012986
0.000000 0.501401 0.023024
0.000000 0.501401 0.023024
0.003368 0.511103 0.016790
0.021061 0.512184 0.016648
0.039884 0.512184 0.016648
0.059664 0.512184 0.016648
0.080350 0.512184 0.016648
0.101890 0.512184 0.016648
0.124230 0.512184 0.016648
0.147319 0.512184 0.016648
0.171104 0.512184 0.016648
0.195533 0.512184 0.016648
0.220553 0.512184 0.016648
0.246112 0.512184 0.016648
0.272158 0.512184 0.016648
0.298638 0.512184 0.016648
0.325501 0.512184 0.016648
0.352692 0.512184 0.016648
0.380161 0.512184 0.016648
0.407855 0.512184 0.016648
0.435721 0.512184 0.016648
0.465041 0.513628 0.016448
0.495133 0.515610 0.016156
0.525362 0.517486 0.015858
0.555659 0.519265 0.015555
0.585950 0.520954 0.015247
0.616162 0.522561 0.014935
0.646221 0.524091 0.014619
0.676052 0.525551 0.014299
0.705579 0.526943 0.013976
0.734723 0.528274 0.013649
0.763408 0.529547 0.013319
0.791553 0.530765 0.012986
0.000000 0.534817 0.023132
0.000000 0.534817 0.023132
0.003130 0.545007 0.016505
0.020887 0.546093 0.016360
0.039783 0.546093 0.016360
0.059646 0.546093 0.016360
0.080422 0.546093 0.016360
0.102059 0.546093 0.016360
0.124503 0.546093 0.016360
0.147701 0.546093 0.016360
0.171601 0.546093 0.016360
0.196149 0.546093 0.016360
0.221292 0.546093 0.016360
0.246977 0.546093 0.016360
0.273152 0.546093 0.016360
0.299762 0.546093 0.016360
0.326756 0.546093 0.016360
0.354079 0.546093 0.016360
0.381680 0.546093 0.016360
0.409504 0.546093 0.016360
0.437499 0.546093 0.016360
0.465612 0.546093 0.016360
0.495133 0.547546 0.016156
0.525362 0.549544 0.015858
0.555659 0.551439 0.015555
0.585950 0.553241 0.015247
0.616162 0.554956 0.014935
0.646221 0.556590 0.014619
0.676052 0.558149 0.014299
0.705579 0.559639 0.013976
0.734723 0.561063 0.013649
0.763408 0.562426 0.013319
0.791553 0.563732 0.012986
0.000000 0.568287 0.023235
0.000000 0.568287 0.023235
0.002890 0.578937 0.016214
0.020706 0.580024 0.016066
0.039672 0.580024 0.016066
0.059613 0.580024 0.016066
0.080475 0.580024 0.016066
0.102204 0.580024 0.016066
0.124747 0.580024 0.016066
0.148050 0.580024 0.016066
0.172059 0.580024 0.016066
0.196720 0.580024 0.016066
0.221981 0.580024 0.016066
0.247786 0.580024 0.016066
0.274083 0.580024 0.016066
0.300818 0.580024 0.016066
0.327937 0.580024 0.016066
0.355386 0.580024 0.016066
0.383112 0.580024 0.016066
0.411061 0.580024 0.016066
0.439179 0.580024 0.016066
0.467413 0.580024 0.016066
0.495708 0.580024 0.016066
0.525362 0.581480 0.015858
0.555659 0.583487 0.015555
0.585950 0.585396 0.015247
0.616162 0.587213 0.014935
0.646221 0.588946 0.014619
0.676052 0.590601 0.014299
0.705579 0.592182 0.013976
0.734723 0.593696 0.013649
0.763408 0.595145 0.013319
0.791553 0.596534 0.012986
0.000000 0.601714 0.023334
0.000000 0.601714 0.023334
0.002648 0.612790 0.015917
0.020520 0.613875 0.015766
0.039552 0.613875 0.015766
0.059567 0.613875 0.015766
0.080510 0.613875 0.015766
0.102328 0.613875 0.015766
0.124965 0.613875 0.015766
0.148367 0.613875 0.015766
0.172480 0.613875 0.015766
0.197251 0.613875 0.015766
0.222623 0.613875 0.015766
0.248544 0.613875 0.015766
0.274958 0.613875 0.015766
0.301812 0.613875 0.015766
0.329051 0.613875 0.015766
0.356621 0.613875 0.015766
0.384467 0.613875 0.015766
0.412535 0.613875 0.015766
0.440771 0.613875 0.015766
0.469120 0.613875 0.015766
0.497528 0.613875 0.015766
0.525941 0.613875 0.015766
0.555659 0.615330 0.015555
0.585950 0.617339 0.015247
0.616162 0.619252 0.014935
0.646221 0.621078 0.014619
0.676052 0.622823 0.014299
0.705579 0.624491 0.013976
0.734723 0.626088 0.013649
0.763408 0.627618 0.013319
0.791553 0.629086 0.012986
0.000000 0.634999 0.023428
0.000000 0.634999 0.023428
0.002404 0.646461 0.015615
0.020329 0.647540 0.015462
0.039424 0.647540 0.015462
0.059509 0.647540 0.015462
0.080530 0.647540 0.015462
0.102431 0.647540 0.015462
0.125158 0.647540 0.015462
0.148656 0.647540 0.015462
0.172869 0.647540 0.015462
0.197743 0.647540 0.015462
0.223223 0.647540 0.015462
0.249254 0.647540 0.015462
0.275781 0.647540 0.015462
0.302749 0.647540 0.015462
0.330103 0.647540 0.015462
0.357788 0.647540 0.015462
0.385750 0.647540 0.015462
0.413932 0.647540 0.015462
0.442281 0.647540 0.015462
0.470741 0.647540 0.015462
0.499258 0.647540 0.015462
0.527775 0.647540 0.015462
0.556240 0.647540 0.015462
0.585950 0.648989 0.015247
0.616162 0.650993 0.014935
0.646221 0.652905 0.014619
0.676052 0.654732 0.014299
0.705579 0.656481 0.013976
0.734723 0.658155 0.013649
0.763408 0.659761 0.013319
0.791553 0.661302 0.012986
0.000000 0.668039 0.023519
0.000000 0.668039 0.023519
0.002157 0.679845 0.015308
0.020133 0.680915 0.015152
0.039287 0.680915 0.015152
0.059440 0.680915 0.015152
0.080534 0.680915 0.015152
0.102516 0.680915 0.015152
0.125329 0.680915 0.015152
0.148918 0.680915 0.015152
0.173227 0.680915 0.015152
0.198201 0.680915 0.015152
0.223784 0.680915 0.015152
0.249921 0.680915 0.015152
0.276556 0.680915 0.015152
0.303634 0.680915 0.015152
0.331098 0.680915 0.015152
0.358894 0.680915 0.015152
0.386966 0.680915 0.015152
0.415259 0.680915 0.015152
0.443716 0.680915 0.015152
0.472282 0.680915 0.015152
0.500903 0.680915 0.015152
0.529521 0.680915 0.015152
0.558083 0.680915 0.015152
0.586531 0.680915 0.015152
0.616162 0.682353 0.014935
0.646221 0.684344 0.014619
0.676052 0.686247 0.014299
0.705579 0.688069 0.013976
0.734723 0.689814 0.013649
0.763408 0.691488 0.013319
0.791553 0.693096 0.012986
0.000000 0.700733 0.023607
0.000000 0.700733 0.023607
0.001908 0.712835 0.014997
0.019933 0.713892 0.014839
0.039144 0.713892 0.014839
0.059360 0.713892 0.014839
0.080525 0.713892 0.014839
0.102584 0.713892 0.014839
0.125480 0.713892 0.014839
0.149156 0.713892 0.014839
0.173557 0.713892 0.014839
0.198627 0.713892 0.014839
0.224309 0.713892 0.014839
0.250547 0.713892 0.014839
0.277286 0.713892 0.014839
0.304469 0.713892 0.014839
0.332040 0.713892 0.014839
0.359943 0.713892 0.014839
0.388121 0.713892 0.014839
0.416519 0.713892 0.014839
0.445081 0.713892 0.014839
0.473750 0.713892 0.014839
0.502471 0.713892 0.014839
0.531186 0.713892 0.014839
0.559841 0.713892 0.014839
0.588378 0.713892 0.014839
0.616743 0.713892 0.014839
0.646221 0.715314 0.014619
0.676052 0.717285 0.014299
0.705579 0.719172 0.013976
0.734723 0.720981 0.013649
0.763408 0.722716 0.013319
0.791553 0.724382 0.012986
0.000000 0.732977 0.023691
0.000000 0.732977 0.023691
0.001658 0.745323 0.014682
0.019728 0.746363 0.014522
0.038993 0.746363 0.014522
0.059270 0.746363 0.014522
0.080504 0.746363 0.014522
0.102636 0.746363 0.014522
0.125611 0.746363 0.014522
0.149371 0.746363 0.014522
0.173861 0.746363 0.014522
0.199022 0.746363 0.014522
0.224800 0.746363 0.014522
0.251136 0.746363 0.014522
0.277975 0.746363 0.014522
0.305259 0.746363 0.014522
0.332933 0.746363 0.014522
0.360938 0.746363 0.014522
0.389219 0.746363 0.014522
0.417719 0.746363 0.014522
0.446382 0.746363 0.014522
0.475150 0.746363 0.014522
0.503966 0.746363 0.014522
0.532775 0.746363 0.014522
0.561520 0.746363 0.014522
0.590143 0.746363 0.014522
0.618589 0.746363 0.014522
0.646799 0.746363 0.014522
0.676052 0.747763 0.014299
