assets/luts/ocean.cube
TITLE "ocean"
LUT_3D_SIZE 9
0.000000 0.000000 0.017656
0.036392 0.000000 0.019188
0.113362 0.000000 0.020918
0.206386 0.000000 0.021843
0.311781 0.000000 0.022489
0.425814 0.000000 0.022990
0.544470 0.000000 0.023400
0.663441 0.000000 0.023748
0.778159 0.000000 0.024052
0.000000 0.067997 0.019931
0.038692 0.070342 0.019446
0.116586 0.072558 0.019344
0.211570 0.074275 0.018717
0.319059 0.075078 0.017807
0.435157 0.075367 0.016735
0.555659 0.075323 0.015555
0.676052 0.075044 0.014299
0.791553 0.074589 0.012986
0.000000 0.163684 0.021267
0.039879 0.168144 0.019184
0.118047 0.168144 0.019184
0.211570 0.171708 0.018717
0.319059 0.175389 0.017807
0.435157 0.177896 0.016735
0.555659 0.179645 0.015555
0.676052 0.180862 0.014299
0.791553 0.181682 0.012986
0.000000 0.276876 0.022076
0.040202 0.283674 0.018444
0.121219 0.283674 0.018444
0.213440 0.283674 0.018444
0.319059 0.288141 0.017807
0.435157 0.293264 0.016735
0.555659 0.297152 0.015555
0.676052 0.300174 0.014299
0.791553 0.302552 0.012986
0.000000 0.402432 0.022665
0.040114 0.411587 0.017472
0.123210 0.411587 0.017472
0.217981 0.411587 0.017472
0.321216 0.411587 0.017472
0.435157 0.416643 0.016735
0.555659 0.422774 0.015555
0.676052 0.427697 0.014299
0.791553 0.431726 0.012986
0.000000 0.534817 0.023132
0.039783 0.546093 0.016360
0.124503 0.546093 0.016360
0.221292 0.546093 0.016360
0.326756 0.546093 0.016360
0.437499 0.546093 0.016360
0.555659 0.551439 0.015555
0.676052 0.558149 0.014299
0.791553 0.563732 0.012986
0.000000 0.668039 0.023519
0.039287 0.680915 0.015152
0.125329 0.680915 0.015152
0.223784 0.680915 0.015152
0.331098 0.680915 0.015152
0.443716 0.680915 0.015152
0.558083 0.680915 0.015152
0.676052 0.686247 0.014299
0.791553 0.693096 0.012986
0.000000 0.795691 0.023852
0.038673 0.809341 0.013876
0.125820 0.809341 0.013876
0.225689 0.809341 0.013876
0.334583 0.809341 0.013876
0.448806 0.809341 0.013876
0.564662 0.809341 0.013876
0.678455 0.809341 0.013876
0.791553 0.814344 0.012986
0.000000 0.910997 0.024143
0.028976 0.936540 0.000000
0.118413 0.936540 0.000000
0.222045 0.936540 0.000000
0.335660 0.936540 0.000000
0.455049 0.936540 0.000000
0.576001 0.936540 0.000000
0.694306 0.936540 0.000000
0.805754 0.936540 0.000000
0.000000 0.000000 0.117033
0.038804 0.000000 0.117033
0.113362 0.000000 0.120093
0.206386 0.000000 0.125911
0.311781 0.000000 0.129992
0.425814 0.000000 0.133163
0.544470 0.000000 0.135770
0.663441 0.000000 0.137990
0.778159 0.000000 0.139929
0.000000 0.069793 0.117033
0.039628 0.072558 0.122805
0.119425 0.073887 0.125522
0.215323 0.074903 0.127891
0.323460 0.075321 0.129236
0.439982 0.075364 0.129940
0.560686 0.075148 0.130203
0.681056 0.074741 0.130140
0.837385 0.036108 0.083492
0.000000 0.163684 0.122280
0.040066 0.170265 0.125522
0.121219 0.173078 0.127155
0.216662 0.175389 0.128378
0.325101 0.177896 0.129502
0.441828 0.179645 0.130059
0.562642 0.180862 0.130214
0.683027 0.181682 0.130070
0.836859 0.148697 0.081824
0.000000 0.276876 0.127377
0.040205 0.286280 0.127891
0.123210 0.289981 0.128822
0.217981 0.289981 0.128822
0.325101 0.293264 0.129502
0.441828 0.297152 0.130059
0.562642 0.300174 0.130214
0.683027 0.302552 0.130070
0.836859 0.282194 0.081824
0.000000 0.402432 0.131105
0.040014 0.414506 0.129236
0.124503 0.418803 0.129736
0.221292 0.418803 0.129736
0.326756 0.418803 0.129736
0.441828 0.422774 0.130059
0.562642 0.427697 0.130214
0.683027 0.431726 0.130070
0.836859 0.427428 0.081824
0.000000 0.534817 0.134065
0.039614 0.549159 0.129940
0.125329 0.553774 0.130147
0.223784 0.553774 0.130147
0.331098 0.553774 0.130147
0.443716 0.553774 0.130147
0.562642 0.558149 0.130214
0.683027 0.563732 0.130070
0.836859 0.576504 0.081824
0.000000 0.668039 0.136531
0.039069 0.683959 0.130203
0.125820 0.688610 0.130196
0.225689 0.688610 0.130196
0.334583 0.688610 0.130196
0.448806 0.688610 0.130196
0.564662 0.688610 0.130196
0.683027 0.693096 0.130070
0.836859 0.721528 0.081824
0.000000 0.795691 0.138650
0.038418 0.812189 0.130140
0.114656 0.832501 0.111986
0.219522 0.832501 0.111986
0.334787 0.832501 0.111986
0.456040 0.832501 0.111986
0.578871 0.832501 0.111986
0.698867 0.832501 0.111986
0.836859 0.854607 0.081824
0.000000 0.910997 0.140512
0.008340 0.962825 0.089635
0.097760 0.962825 0.086162
0.206972 0.962825 0.086162
0.328445 0.962825 0.086162
0.456918 0.962825 0.086162
0.587128 0.962825 0.086162
0.713816 0.962825 0.086162
0.831719 0.962825 0.086162
0.000000 0.000000 0.244943
0.040971 0.000000 0.244943
0.117049 0.000000 0.244943
0.206386 0.000000 0.248829
0.311781 0.000000 0.257184
0.425814 0.000000 0.263678
0.544470 0.000000 0.269015
0.663441 0.000000 0.273561
0.778159 0.000000 0.277529
0.000000 0.073819 0.244943
0.040154 0.074275 0.254316
0.121219 0.074611 0.256484
0.215323 0.074903 0.258652
0.323460 0.075321 0.263203
0.439982 0.075364 0.266478
0.560686 0.075148 0.268877
0.681056 0.074741 0.270631
0.837385 0.036108 0.235397
0.000000 0.166046 0.244943
0.040154 0.171708 0.254316
0.122653 0.175389 0.260183
0.219337 0.177239 0.263203
0.328500 0.179186 0.266478
0.445736 0.180545 0.268877
0.566846 0.181472 0.270631
0.718710 0.150121 0.235397
0.835623 0.145429 0.229404
0.000000 0.276876 0.251831
0.040205 0.286280 0.258652
0.123760 0.291883 0.263203
0.221292 0.294647 0.265371
0.329788 0.297152 0.267275
0.447249 0.300174 0.269461
0.568496 0.302552 0.271055
0.717982 0.282194 0.233580
0.835095 0.277501 0.227653
0.000000 0.402432 0.259464
0.040014 0.414506 0.263203
0.124858 0.421084 0.266478
0.223784 0.424495 0.268064
0.331098 0.424495 0.268064
0.447249 0.427697 0.269461
0.568496 0.431726 0.271055
0.717982 0.427428 0.233580
0.835095 0.423033 0.227653
0.000000 0.534817 0.265525
0.039614 0.549159 0.266478
0.125547 0.556274 0.268877
0.225689 0.560081 0.270039
0.334583 0.560081 0.270039
0.448806 0.560081 0.270039
0.568496 0.563732 0.271055
0.717982 0.576504 0.233580
0.835095 0.572672 0.227653
0.000000 0.668039 0.270574
0.039069 0.683959 0.268877
0.125935 0.691164 0.270631
0.219522 0.706482 0.257972
0.334787 0.706482 0.257972
0.456040 0.706482 0.257972
0.578871 0.706482 0.257972
0.717982 0.721528 0.233580
0.835095 0.718434 0.227653
0.000000 0.795691 0.274912
0.038418 0.812189 0.270631
0.096186 0.855288 0.235397
0.203866 0.853864 0.231621
0.326782 0.853864 0.231621
0.456960 0.853864 0.231621
0.588922 0.853864 0.231621
0.717189 0.853864 0.231621
0.835095 0.852335 0.227653
0.000000 0.910997 0.278723
0.008340 0.962825 0.240344
0.096246 0.962825 0.234606
0.202936 0.962825 0.230743
0.324891 0.962825 0.230743
0.454089 0.962825 0.230743
0.585163 0.962825 0.230743
0.712748 0.962825 0.230743
0.831481 0.962825 0.230743
0.000000 0.000000 0.392414
0.042389 0.000000 0.392414
0.121360 0.000000 0.392414
0.210917 0.000000 0.392414
0.311781 0.000000 0.396810
0.425814 0.000000 0.406800
0.544470 0.000000 0.414997
0.663441 0.000000 0.421966
0.778159 0.000000 0.428041
0.000000 0.076458 0.392414
0.040175 0.075078 0.405155
0.123210 0.075217 0.407802
0.217981 0.075217 0.407802
0.323460 0.075321 0.410547
0.439982 0.075364 0.416661
0.560686 0.075148 0.421441
0.681056 0.074741 0.425247
0.837385 0.036108 0.408359
0.000000 0.172297 0.392414
0.040175 0.175389 0.405155
0.124141 0.177896 0.412545
0.221292 0.178537 0.414553
0.328500 0.179186 0.416661
0.445736 0.180545 0.421441
0.566846 0.181472 0.425247
0.718710 0.150121 0.408359
0.835623 0.145429 0.402533
0.000000 0.279632 0.392414
0.040175 0.288141 0.405155
0.124141 0.293264 0.412545
0.223044 0.297152 0.418211
0.332490 0.299346 0.421441
0.450483 0.301898 0.425247
0.590842 0.283629 0.408359
0.716282 0.278889 0.402533
0.833853 0.274298 0.396877
0.000000 0.402432 0.400319
0.040014 0.414506 0.410547
0.124858 0.421084 0.416661
0.224557 0.426329 0.421441
0.334583 0.429099 0.423920
0.451745 0.431726 0.426233
0.589921 0.427428 0.406597
0.715559 0.423033 0.400824
0.833322 0.418748 0.395215
0.000000 0.534817 0.409638
0.039614 0.549159 0.416661
0.125547 0.556274 0.421441
0.226282 0.562163 0.425247
0.334787 0.570829 0.420623
0.456040 0.570829 0.420623
0.589921 0.576504 0.406597
0.715559 0.572672 0.400824
0.833322 0.568914 0.395215
0.000000 0.668039 0.417387
0.039069 0.683959 0.421441
0.125935 0.691164 0.425247
0.206452 0.722462 0.408359
0.326782 0.720514 0.404693
0.456960 0.720514 0.404693
0.588922 0.720514 0.404693
0.715559 0.718434 0.400824
0.833322 0.715377 0.395215
0.000000 0.795691 0.424035
0.038418 0.812189 0.425247
0.096186 0.855288 0.408359
0.202347 0.853014 0.402533
0.322893 0.851594 0.398977
0.453421 0.851594 0.398977
0.585893 0.851594 0.398977
0.714772 0.851594 0.398977
0.833322 0.850068 0.395215
0.000000 0.910997 0.429867
0.008340 0.962825 0.411089
0.096246 0.962825 0.405961
0.201290 0.962825 0.400282
0.320789 0.962825 0.396231
0.450818 0.962825 0.396231
0.582888 0.962825 0.396231
0.711513 0.962825 0.396231
0.831205 0.962825 0.396231
0.000000 0.000000 0.550199
0.043455 0.000000 0.550199
0.124610 0.000000 0.550199
0.216747 0.000000 0.550199
0.316917 0.000000 0.550199
0.425814 0.000000 0.554797
0.544470 0.000000 0.565575
0.663441 0.000000 0.574711
0.778159 0.000000 0.582652
0.000000 0.078446 0.550199
0.039912 0.075367 0.565690
0.124503 0.075383 0.568570
0.221292 0.075383 0.568570
0.326756 0.075383 0.568570
0.439982 0.075364 0.571616
0.560686 0.075148 0.578635
0.681056 0.074741 0.584377
0.837385 0.036108 0.588423
0.000000 0.177011 0.550199
0.039912 0.177896 0.565690
0.125101 0.179645 0.573874
0.223784 0.180093 0.576177
0.331098 0.180093 0.576177
0.445736 0.180545 0.578635
0.566846 0.181472 0.584377
0.718710 0.150121 0.588423
0.835623 0.145429 0.583279
0.000000 0.287430 0.550199
0.039912 0.293264 0.565690
0.125101 0.297152 0.573874
0.225122 0.300174 0.580470
0.334583 0.301013 0.582355
0.450483 0.301898 0.584377
0.590842 0.283629 0.588423
0.716282 0.278889 0.583279
0.833853 0.274298 0.578253
0.000000 0.405440 0.550199
0.039912 0.416643 0.565690
0.125101 0.422774 0.573874
0.225122 0.427697 0.580470
0.336557 0.431726 0.585895
0.459217 0.428767 0.588423
0.587782 0.424335 0.583279
0.713871 0.420019 0.578253
0.832074 0.415804 0.573329
0.000000 0.534817 0.558533
0.039614 0.549159 0.571616
0.125547 0.556274 0.578635
0.226282 0.562163 0.584377
0.329274 0.577666 0.588423
0.456960 0.575244 0.585190
0.586877 0.572672 0.581764
0.713153 0.568914 0.576770
0.831540 0.565219 0.571874
0.000000 0.668039 0.568712
0.039069 0.683959 0.578635
0.125935 0.691164 0.584377
0.206452 0.722462 0.588423
0.325313 0.719356 0.583279
0.453421 0.717433 0.580122
0.585893 0.717433 0.580122
0.713153 0.715377 0.576770
0.831540 0.712351 0.571874
0.000000 0.795691 0.577419
0.038418 0.812189 0.584377
0.096186 0.855288 0.588423
0.202347 0.853014 0.583279
0.321464 0.850746 0.578253
0.449955 0.849329 0.575162
0.582910 0.849329 0.575162
0.712371 0.849329 0.575162
0.831540 0.847805 0.571874
0.000000 0.910997 0.585036
0.008340 0.962825 0.588522
0.096246 0.962825 0.584481
0.201290 0.962825 0.579995
0.319016 0.962825 0.574644
0.446669 0.962825 0.570492
0.580001 0.962825 0.570492
0.709944 0.962825 0.570492
0.830855 0.962825 0.570492
0.000000 0.000000 0.708136
0.044315 0.000000 0.708136
0.127234 0.000000 0.708136
0.221456 0.000000 0.708136
0.323863 0.000000 0.708136
0.431341 0.000000 0.708136
0.544470 0.000000 0.712611
0.663441 0.000000 0.723302
0.778159 0.000000 0.732552
0.000000 0.080050 0.708136
0.039464 0.075323 0.725269
0.125329 0.075254 0.728131
0.223784 0.075254 0.728131
0.331098 0.075254 0.728131
0.443716 0.075254 0.728131
0.560686 0.075148 0.731195
0.681056 0.074741 0.738408
0.837385 0.036108 0.761636
0.000000 0.180818 0.708136
0.039464 0.179645 0.725269
0.125691 0.180862 0.733492
0.225689 0.181168 0.735858
0.334583 0.181168 0.735858
0.448806 0.181168 0.735858
0.566846 0.181472 0.738408
0.718710 0.150121 0.761636
0.835623 0.145429 0.757524
0.000000 0.293726 0.708136
0.039464 0.297152 0.725269
0.125691 0.300174 0.733492
0.226715 0.302552 0.740331
0.334787 0.296141 0.750645
0.456040 0.296141 0.750645
0.590842 0.283629 0.761636
0.716282 0.278889 0.757524
0.833853 0.274298 0.753478
0.000000 0.414267 0.708136
0.039464 0.422774 0.725269
0.125691 0.427697 0.733492
0.226715 0.431726 0.740331
0.328077 0.427428 0.760398
0.456960 0.425980 0.759055
0.587782 0.424335 0.757524
0.713871 0.420019 0.753478
0.832074 0.415804 0.749488
0.000000 0.537935 0.708136
0.039464 0.551439 0.725269
0.125691 0.558149 0.733492
0.226715 0.563732 0.740331
0.328077 0.576504 0.760398
0.454567 0.572672 0.756307
0.584771 0.570031 0.753478
0.711475 0.566318 0.749488
0.830286 0.562663 0.745545
0.000000 0.668039 0.716287
0.039069 0.683959 0.731195
0.125935 0.691164 0.738408
0.206452 0.722462 0.761636
0.325313 0.719356 0.757524
0.452115 0.716288 0.753478
0.582910 0.714386 0.750976
0.710761 0.712351 0.748303
0.829750 0.709352 0.744373
0.000000 0.795691 0.726460
0.038418 0.812189 0.738408
0.096186 0.855288 0.761636
0.202347 0.853014 0.757524
0.321464 0.850746 0.753478
0.448675 0.848482 0.749488
0.579964 0.847066 0.747016
0.709983 0.847066 0.747016
0.829750 0.845543 0.744373
0.000000 0.910997 0.735321
0.008340 0.962825 0.759296
0.096246 0.962825 0.756568
0.201290 0.962825 0.753537
0.319016 0.962825 0.749914
0.445296 0.962373 0.745545
0.577051 0.961426 0.743099
0.707605 0.961426 0.743099
0.829164 0.961426 0.743099
0.000000 0.000000 0.855235
0.045037 0.000000 0.855235
0.129444 0.000000 0.855235
0.225420 0.000000 0.855235
0.329707 0.000000 0.855235
0.439043 0.000000 0.855235
0.550167 0.000000 0.855235
0.663441 0.000000 0.859244
0.778159 0.000000 0.868927
0.000000 0.081399 0.855235
0.038885 0.075044 0.872364
0.125820 0.074913 0.874946
0.225689 0.074913 0.874946
0.334583 0.074913 0.874946
0.448806 0.074913 0.874946
0.564662 0.074913 0.874946
0.681056 0.074741 0.877731
0.837385 0.036108 0.914043
0.000000 0.184024 0.855235
0.038885 0.180862 0.872364
0.126004 0.181682 0.879834
0.219522 0.169868 0.895378
0.334787 0.169868 0.895378
0.456040 0.169868 0.895378
0.578871 0.169868 0.895378
0.718710 0.150121 0.914043
0.835623 0.145429 0.911152
0.000000 0.299025 0.855235
0.038885 0.300174 0.872364
0.126004 0.302552 0.879834
0.205208 0.282194 0.913176
0.326782 0.280645 0.912232
0.456960 0.280645 0.912232
0.588922 0.280645 0.912232
0.716282 0.278889 0.911152
0.833853 0.274298 0.908281
0.000000 0.421685 0.855235
0.038885 0.427697 0.872364
0.126004 0.431726 0.879834
0.205208 0.427428 0.913176
0.324150 0.423033 0.910291
0.453421 0.421623 0.909354
0.585893 0.421623 0.909354
0.713871 0.420019 0.908281
0.832074 0.415804 0.905426
0.000000 0.547287 0.855235
0.038885 0.558149 0.872364
0.126004 0.563732 0.879834
0.205208 0.576504 0.913176
0.324150 0.572672 0.910291
0.451079 0.568914 0.907425
0.582910 0.567701 0.906493
0.711475 0.566318 0.905426
0.830286 0.562663 0.902582
0.000000 0.671115 0.855235
0.038885 0.686247 0.872364
0.126004 0.693096 0.879834
0.205208 0.721528 0.913176
0.324150 0.718434 0.910291
0.451079 0.715377 0.907425
0.580921 0.712351 0.904574
0.709091 0.710247 0.902582
0.828490 0.707264 0.899747
0.000000 0.795691 0.862558
0.038418 0.812189 0.877731
0.096186 0.855288 0.914043
0.202347 0.853014 0.911152
0.321464 0.850746 0.908281
0.448675 0.848482 0.905426
0.578870 0.846219 0.902582
0.707605 0.844805 0.900807
0.827951 0.843282 0.898900
0.000000 0.910997 0.871812
0.008340 0.962825 0.910064
0.096246 0.962825 0.908627
0.201290 0.962825 0.907029
0.319016 0.962825 0.905118
0.445296 0.962373 0.902582
0.575969 0.960856 0.899747
0.705236 0.959900 0.897976
0.827362 0.959900 0.897976
0.000000 0.000000 0.979786
0.045662 0.000000 0.979786
0.131356 0.000000 0.979786
0.228853 0.000000 0.979786
0.334763 0.000000 0.979786
0.445698 0.000000 0.979786
0.558267 0.000000 0.979786
0.669081 0.000000 0.979786
0.778159 0.000000 0.982967
0.000000 0.082566 0.979786
0.038207 0.074589 0.994694
0.114656 0.059485 1.000000
0.219522 0.059485 1.000000
0.334787 0.059485 1.000000
0.456040 0.059485 1.000000
0.578871 0.059485 1.000000
0.698867 0.059485 1.000000
0.837385 0.036108 1.000000
0.000000 0.186800 0.979786
0.038207 0.181682 0.994694
0.094984 0.148697 1.000000
0.203866 0.147164 1.000000
0.326782 0.147164 1.000000
0.456960 0.147164 1.000000
0.588922 0.147164 1.000000
0.717189 0.147164 1.000000
0.835623 0.145429 1.000000
0.000000 0.303611 0.979786
0.038207 0.302552 0.994694
0.094984 0.282194 1.000000
0.201146 0.277501 1.000000
0.322893 0.276001 1.000000
0.453421 0.276001 1.000000
0.585893 0.276001 1.000000
0.714772 0.276001 1.000000
0.833853 0.274298 1.000000
0.000000 0.428096 0.979786
0.038207 0.431726 0.994694
0.094984 0.427428 1.000000
0.201146 0.423033 1.000000
0.320331 0.418748 1.000000
0.449955 0.417371 1.000000
0.582910 0.417371 1.000000
0.712371 0.417371 1.000000
0.832074 0.415804 1.000000
0.000000 0.555352 0.979786
0.038207 0.563732 0.994694
0.094984 0.576504 1.000000
0.201146 0.572672 1.000000
0.320331 0.568914 1.000000
0.447658 0.565219 1.000000
0.579964 0.564025 1.000000
0.709983 0.564025 1.000000
0.830286 0.562663 1.000000
0.000000 0.680476 0.979786
0.038207 0.693096 0.994694
0.094984 0.721528 1.000000
0.201146 0.718434 1.000000
0.320331 0.715377 1.000000
0.447658 0.712351 1.000000
0.577999 0.709352 1.000000
0.707605 0.708378 1.000000
0.828490 0.707264 1.000000
0.000000 0.798566 0.979786
0.038207 0.814344 0.994694
0.094984 0.854607 1.000000
0.201146 0.852335 1.000000
0.320331 0.850068 1.000000
0.447658 0.847805 1.000000
0.577999 0.845543 1.000000
0.706008 0.843282 1.000000
0.826685 0.841697 1.000000
0.000000 0.910997 0.985602
0.008340 0.962825 1.000000
0.096246 0.962825 1.000000
0.201290 0.962825 1.000000
0.319016 0.962825 1.000000
0.445296 0.962373 1.000000
0.575969 0.960856 1.000000
0.704351 0.959325 1.000000
0.825552 0.958359 1.000000
0.000000 0.000000 1.000000
0.046084 0.000000 1.000000
0.132649 0.000000 1.000000
0.231175 0.000000 1.000000
0.338182 0.000000 1.000000
0.450192 0.000000 1.000000
0.563727 0.000000 1.000000
0.675310 0.000000 1.000000
0.781462 0.000000 1.000000
0.000000 0.083356 1.000000
0.012610 0.045960 1.000000
0.103204 0.045044 1.000000
0.211231 0.045044 1.000000
0.330921 0.045044 1.000000
0.457277 0.045044 1.000000
0.585298 0.045044 1.000000
0.709987 0.045044 1.000000
0.826343 0.045044 1.000000
0.000000 0.188678 1.000000
0.012610 0.158517 1.000000
0.101559 0.155658 1.000000
0.208903 0.154763 1.000000
0.328873 0.154763 1.000000
0.455643 0.154763 1.000000
0.584155 0.154763 1.000000
0.709354 0.154763 1.000000
0.826184 0.154763 1.000000
0.000000 0.306712 1.000000
0.012610 0.288964 1.000000
0.101559 0.286297 1.000000
0.207410 0.283783 1.000000
0.326939 0.282992 1.000000
0.454098 0.282992 1.000000
0.583073 0.282992 1.000000
0.708755 0.282992 1.000000
0.826033 0.282992 1.000000
0.000000 0.432426 1.000000
0.012610 0.430095 1.000000
0.101559 0.427844 1.000000
0.207410 0.425720 1.000000
0.325693 0.423706 1.000000
0.452632 0.423071 1.000000
0.582046 0.423071 1.000000
0.708187 0.423071 1.000000
0.825891 0.423071 1.000000
0.000000 0.560789 1.000000
0.012610 0.574708 1.000000
0.101559 0.573013 1.000000
0.207410 0.571412 1.000000
0.325693 0.569894 1.000000
0.451684 0.568449 1.000000
0.581068 0.567992 1.000000
0.707645 0.567992 1.000000
0.825755 0.567992 1.000000
0.000000 0.686770 1.000000
0.012610 0.715600 1.000000
0.101559 0.714517 1.000000
0.207410 0.713495 1.000000
0.325693 0.712525 1.000000
0.451684 0.711601 1.000000
0.580433 0.710719 1.000000
0.707127 0.710439 1.000000
0.825625 0.710439 1.000000
0.000000 0.805338 1.000000
0.012610 0.845565 1.000000
0.101559 0.845069 1.000000
0.207410 0.844600 1.000000
0.325693 0.844155 1.000000
0.451684 0.843732 1.000000
0.580433 0.843327 1.000000
0.706791 0.842940 1.000000
0.825500 0.842816 1.000000
0.000000 0.911460 1.000000
0.012610 0.957402 1.000000
0.101559 0.957381 1.000000
0.207410 0.957362 1.000000
0.325693 0.957343 1.000000
0.451684 0.957325 1.000000
0.580433 0.957308 1.000000
0.706791 0.957291 1.000000
0.825419 0.957276 1.000000
