assets/luts/ocean.cube
TITLE "ocean"
LUT_3D_SIZE 5
0.000000 0.000000 0.017656
0.113362 0.000000 0.020918
0.311781 0.000000 0.022489
0.544470 0.000000 0.023400
0.778159 0.000000 0.024052
0.000000 0.163684 0.021267
0.118047 0.168144 0.019184
0.319059 0.175389 0.017807
0.555659 0.179645 0.015555
0.791553 0.181682 0.012986
0.000000 0.402432 0.022665
0.123210 0.411587 0.017472
0.321216 0.411587 0.017472
0.555659 0.422774 0.015555
0.791553 0.431726 0.012986
0.000000 0.668039 0.023519
0.125329 0.680915 0.015152
0.331098 0.680915 0.015152
0.558083 0.680915 0.015152
0.791553 0.693096 0.012986
0.000000 0.910997 0.024143
0.118413 0.936540 0.000000
0.335660 0.936540 0.000000
0.576001 0.936540 0.000000
0.805754 0.936540 0.000000
0.000000 0.000000 0.244943
0.117049 0.000000 0.244943
0.311781 0.000000 0.257184
0.544470 0.000000 0.269015
0.778159 0.000000 0.277529
0.000000 0.166046 0.244943
0.122653 0.175389 0.260183
0.328500 0.179186 0.266478
0.566846 0.181472 0.270631
0.835623 0.145429 0.229404
0.000000 0.402432 0.259464
0.124858 0.421084 0.266478
0.331098 0.424495 0.268064
0.568496 0.431726 0.271055
0.835095 0.423033 0.227653
0.000000 0.668039 0.270574
0.125935 0.691164 0.270631
0.334787 0.706482 0.257972
0.578871 0.706482 0.257972
0.835095 0.718434 0.227653
0.000000 0.910997 0.278723
0.096246 0.962825 0.234606
0.324891 0.962825 0.230743
0.585163 0.962825 0.230743
0.831481 0.962825 0.230743
0.000000 0.000000 0.550199
0.124610 0.000000 0.550199
0.316917 0.000000 0.550199
0.544470 0.000000 0.565575
0.778159 0.000000 0.582652
0.000000 0.177011 0.550199
0.125101 0.179645 0.573874
0.331098 0.180093 0.576177
0.566846 0.181472 0.584377
0.835623 0.145429 0.583279
0.000000 0.405440 0.550199
0.125101 0.422774 0.573874
0.336557 0.431726 0.585895
0.587782 0.424335 0.583279
0.832074 0.415804 0.573329
0.000000 0.668039 0.568712
0.125935 0.691164 0.584377
0.325313 0.719356 0.583279
0.585893 0.717433 0.580122
0.831540 0.712351 0.571874
0.000000 0.910997 0.585036
0.096246 0.962825 0.584481
0.319016 0.962825 0.574644
0.580001 0.962825 0.570492
0.830855 0.962825 0.570492
0.000000 0.000000 0.855235
0.129444 0.000000 0.855235
0.329707 0.000000 0.855235
0.550167 0.000000 0.855235
0.778159 0.000000 0.868927
0.000000 0.184024 0.855235
0.126004 0.181682 0.879834
0.334787 0.169868 0.895378
0.578871 0.169868 0.895378
0.835623 0.145429 0.911152
0.000000 0.421685 0.855235
0.126004 0.431726 0.879834
0.324150 0.423033 0.910291
0.585893 0.421623 0.909354
0.832074 0.415804 0.905426
0.000000 0.671115 0.855235
0.126004 0.693096 0.879834
0.324150 0.718434 0.910291
0.580921 0.712351 0.904574
0.828490 0.707264 0.899747
0.000000 0.910997 0.871812
0.096246 0.962825 0.908627
0.319016 0.962825 0.905118
0.575969 0.960856 0.899747
0.827362 0.959900 0.897976
0.000000 0.000000 1.000000
0.132649 0.000000 1.000000
0.338182 0.000000 1.000000
0.563727 0.000000 1.000000
0.781462 0.000000 1.000000
0.000000 0.188678 1.000000
0.101559 0.155658 1.000000
0.328873 0.154763 1.000000
0.584155 0.154763 1.000000
0.826184 0.154763 1.000000
0.000000 0.432426 1.000000
0.101559 0.427844 1.000000
0.325693 0.423706 1.000000
0.582046 0.423071 1.000000
0.825891 0.423071 1.000000
0.000000 0.686770 1.000000
0.101559 0.714517 1.000000
0.325693 0.712525 1.000000
0.580433 0.710719 1.000000
0.825625 0.710439 1.000000
0.000000 0.911460 1.000000
0.101559 0.957381 1.000000
0.325693 0.957343 1.000000
0.580433 0.957308 1.000000
0.825419 0.957276 1.000000
