assets/luts/pale.cube
TITLE "pale"
LUT_3D_SIZE 5
0.088566 0.118566 0.148565
0.252768 0.132768 0.162768
0.416970 0.146971 0.176971
0.581173 0.161173 0.191173
0.749600 0.179600 0.209600
0.116448 0.296448 0.176448
0.280651 0.310650 0.190650
0.448500 0.328500 0.208500
0.628400 0.358400 0.238400
0.808300 0.388300 0.268300
0.147400 0.477400 0.207400
0.327300 0.507300 0.237300
0.507200 0.537200 0.267200
0.687100 0.567100 0.297100
0.867000 0.597000 0.327000
0.206100 0.686100 0.266100
0.386000 0.716000 0.296000
0.565900 0.745900 0.325900
0.744104 0.774036 0.354991
0.915291 0.796641 0.381363
0.264800 0.894800 0.324800
0.443836 0.922902 0.354010
0.617783 0.944181 0.380402
0.788503 0.964924 0.406258
0.955996 0.985131 0.431577
0.093980 0.123981 0.303980
0.258183 0.138183 0.318183
0.422385 0.152385 0.332386
0.586588 0.166588 0.346588
0.761000 0.191000 0.371000
0.121863 0.301863 0.331863
0.286066 0.316065 0.346065
0.459900 0.339900 0.369900
0.639800 0.369800 0.399800
0.819700 0.399700 0.429700
0.158800 0.488800 0.368800
0.338700 0.518700 0.398700
0.518600 0.548600 0.428600
0.698500 0.578500 0.458500
0.878400 0.608400 0.488400
0.217500 0.697500 0.427500
0.397400 0.727400 0.457400
0.577300 0.757300 0.487300
0.752889 0.782718 0.514255
0.923358 0.805118 0.539077
0.276200 0.906200 0.486200
0.453653 0.931079 0.513332
0.626884 0.952153 0.538174
0.796886 0.972692 0.562479
0.963662 0.992693 0.586248
0.099396 0.129395 0.459395
0.263598 0.143598 0.473598
0.427800 0.157801 0.487800
0.592500 0.172500 0.502500
0.772400 0.202400 0.532400
0.127278 0.307278 0.487278
0.291480 0.321480 0.501480
0.471300 0.351300 0.531300
0.651200 0.381200 0.561200
0.831100 0.411100 0.591100
0.170200 0.500200 0.530200
0.350100 0.530100 0.560100
0.530000 0.560000 0.590000
0.709900 0.589900 0.619900
0.889378 0.619506 0.649492
0.228900 0.708900 0.588900
0.408800 0.738800 0.618800
0.588615 0.768589 0.648607
0.761595 0.791322 0.672415
0.931347 0.813517 0.695687
0.287600 0.917600 0.647600
0.463393 0.939177 0.671549
0.635906 0.960047 0.694841
0.805191 0.980381 0.717596
0.971249 1.000000 0.739816
0.104811 0.134810 0.614811
0.269013 0.149013 0.629013
0.433215 0.163216 0.643216
0.603900 0.183900 0.663900
0.783800 0.213800 0.693800
0.132693 0.312693 0.642693
0.302800 0.332800 0.662800
0.482700 0.362700 0.692700
0.662600 0.392600 0.722600
0.842500 0.422500 0.752500
0.181600 0.511600 0.691600
0.361500 0.541500 0.721500
0.541400 0.571400 0.751400
0.721300 0.601300 0.781300
0.897691 0.628742 0.808041
0.240300 0.720300 0.750300
0.420200 0.750200 0.780200
0.597961 0.777320 0.807213
0.770223 0.799847 0.829471
0.939258 0.821839 0.851194
0.298033 0.925996 0.806384
0.473056 0.947198 0.828662
0.644851 0.967863 0.850404
0.813418 0.987992 0.871610
0.978758 1.000000 0.892279
0.110225 0.140226 0.770226
0.274428 0.154428 0.784428
0.438630 0.168630 0.798631
0.615300 0.195300 0.825300
0.795200 0.225200 0.855200
0.138108 0.318108 0.798108
0.314200 0.344200 0.824200
0.494100 0.374100 0.854100
0.674000 0.404000 0.884000
0.853900 0.433900 0.913900
0.193000 0.523000 0.853000
0.372900 0.552900 0.882900
0.552800 0.582800 0.912800
0.732700 0.612700 0.942700
0.905925 0.637900 0.965486
0.251700 0.731700 0.911700
0.431600 0.761600 0.941600
0.607229 0.785972 0.964715
0.778774 0.808295 0.985424
0.947091 0.830082 1.000000
0.308335 0.934143 0.963943
0.482640 0.955140 0.984671
0.653717 0.975601 1.000000
0.821567 0.995526 1.000000
0.988800 1.000000 1.000000
