assets/luts/pale.cube
TITLE "pale"
LUT_3D_SIZE 9
0.088566 0.118566 0.148565
0.170667 0.125667 0.155667
0.252768 0.132768 0.162768
0.334869 0.139869 0.169869
0.416970 0.146971 0.176971
0.499072 0.154072 0.184072
0.581173 0.161173 0.191173
0.663274 0.168274 0.198274
0.749600 0.179600 0.209600
0.102507 0.207507 0.162507
0.184608 0.214608 0.169608
0.266709 0.221709 0.176709
0.348811 0.228810 0.183811
0.430912 0.235912 0.190912
0.513013 0.243013 0.198013
0.599050 0.254050 0.209050
0.689000 0.269000 0.224000
0.778950 0.283950 0.238950
0.116448 0.296448 0.176448
0.198549 0.303549 0.183549
0.280651 0.310650 0.190650
0.362752 0.317752 0.197752
0.448500 0.328500 0.208500
0.538450 0.343450 0.223450
0.628400 0.358400 0.238400
0.718350 0.373350 0.253350
0.808300 0.388300 0.268300
0.130389 0.385389 0.190389
0.212491 0.392491 0.197491
0.297950 0.402950 0.207950
0.387900 0.417900 0.222900
0.477850 0.432850 0.237850
0.567800 0.447800 0.252800
0.657750 0.462750 0.267750
0.747700 0.477700 0.282700
0.837650 0.492650 0.297650
0.147400 0.477400 0.207400
0.237350 0.492350 0.222350
0.327300 0.507300 0.237300
0.417250 0.522250 0.252250
0.507200 0.537200 0.267200
0.597150 0.552150 0.282150
0.687100 0.567100 0.297100
0.777050 0.582050 0.312050
0.867000 0.597000 0.327000
0.176750 0.581750 0.236750
0.266700 0.596700 0.251700
0.356650 0.611650 0.266650
0.446600 0.626600 0.281600
0.536550 0.641550 0.296550
0.626500 0.656500 0.311500
0.716450 0.671450 0.326450
0.806400 0.686400 0.341400
0.894164 0.699639 0.355481
0.206100 0.686100 0.266100
0.296050 0.701050 0.281050
0.386000 0.716000 0.296000
0.475950 0.730950 0.310950
0.565900 0.745900 0.325900
0.655850 0.760850 0.340850
0.744104 0.774036 0.354991
0.830101 0.785405 0.368244
0.915291 0.796641 0.381363
0.235450 0.790450 0.295450
0.325400 0.805400 0.310400
0.415350 0.820350 0.325350
0.505300 0.835300 0.340300
0.593995 0.848457 0.354501
0.680682 0.859495 0.367759
0.766562 0.870399 0.380883
0.851636 0.881169 0.393873
0.935902 0.891804 0.406729
0.264800 0.894800 0.324800
0.354750 0.909750 0.339750
0.443836 0.922902 0.354010
0.531213 0.933609 0.367274
0.617783 0.944181 0.380402
0.703547 0.954620 0.393397
0.788503 0.964924 0.406258
0.872653 0.975094 0.418985
0.955996 0.985131 0.431577
0.091273 0.121273 0.226273
0.173374 0.128374 0.233374
0.255476 0.135476 0.240476
0.337577 0.142577 0.247577
0.419678 0.149678 0.254678
0.501779 0.156779 0.261779
0.583881 0.163880 0.268881
0.665982 0.170982 0.275982
0.755300 0.185300 0.290300
0.105214 0.210214 0.240214
0.187316 0.217315 0.247316
0.269417 0.224417 0.254417
0.351518 0.231518 0.261518
0.433619 0.238619 0.268619
0.515721 0.245721 0.275720
0.604750 0.259750 0.289750
0.694700 0.274700 0.304700
0.784650 0.289650 0.319650
0.119155 0.299156 0.254155
0.201257 0.306257 0.261257
0.283358 0.313358 0.268358
0.365459 0.320459 0.275459
0.454200 0.334200 0.289200
0.544150 0.349150 0.304150
0.634100 0.364100 0.319100
0.724050 0.379050 0.334050
0.814000 0.394000 0.349000
0.133097 0.388097 0.268097
0.215198 0.395198 0.275198
0.303650 0.408650 0.288650
0.393600 0.423600 0.303600
0.483550 0.438550 0.318550
0.573500 0.453500 0.333500
0.663450 0.468450 0.348450
0.753400 0.483400 0.363400
0.843350 0.498350 0.378350
0.153100 0.483100 0.288100
0.243050 0.498050 0.303050
0.333000 0.513000 0.318000
0.422950 0.527950 0.332950
0.512900 0.542900 0.347900
0.602850 0.557850 0.362850
0.692800 0.572800 0.377800
0.782750 0.587750 0.392750
0.872700 0.602700 0.407700
0.182450 0.587450 0.317450
0.272400 0.602400 0.332400
0.362350 0.617350 0.347350
0.452300 0.632300 0.362300
0.542250 0.647250 0.377250
0.632200 0.662200 0.392200
0.722150 0.677150 0.407150
0.812100 0.692100 0.422100
0.898307 0.704116 0.435237
0.211800 0.691800 0.346800
0.301750 0.706750 0.361750
0.391700 0.721700 0.376700
0.481650 0.736650 0.391650
0.571600 0.751600 0.406600
0.661550 0.766550 0.421550
0.748506 0.778387 0.434761
0.834324 0.789705 0.447627
0.919335 0.800889 0.460358
0.241150 0.796150 0.376150
0.331100 0.811100 0.391100
0.421050 0.826050 0.406050
0.511000 0.841000 0.421000
0.598655 0.852681 0.434285
0.685163 0.863668 0.447156
0.770864 0.874521 0.459892
0.855758 0.885240 0.472495
0.939845 0.895824 0.484963
0.270500 0.900500 0.405500
0.360450 0.915450 0.420450
0.448754 0.927000 0.433809
0.535952 0.937656 0.446685
0.622343 0.948177 0.459426
0.707927 0.958564 0.472033
0.792705 0.968818 0.484507
0.876675 0.978937 0.496846
0.959839 0.988922 0.509051
0.093980 0.123981 0.303980
0.176082 0.131082 0.311082
0.258183 0.138183 0.318183
0.340284 0.145284 0.325284
0.422385 0.152385 0.332386
0.504487 0.159487 0.339487
0.586588 0.166588 0.346588
0.671050 0.176050 0.356050
0.761000 0.191000 0.371000
0.107922 0.212922 0.317922
0.190023 0.220023 0.325023
0.272124 0.227124 0.332124
0.354225 0.234226 0.339226
0.436327 0.241327 0.346327
0.520500 0.250500 0.355500
0.610450 0.265450 0.370450
0.700400 0.280400 0.385400
0.790350 0.295350 0.400350
0.121863 0.301863 0.331863
0.203964 0.308964 0.338964
0.286066 0.316065 0.346065
0.369950 0.324950 0.354950
0.459900 0.339900 0.369900
0.549850 0.354850 0.384850
0.639800 0.369800 0.399800
0.729750 0.384750 0.414750
0.819700 0.399700 0.429700
0.135804 0.390804 0.345804
0.219400 0.399400 0.354400
0.309350 0.414350 0.369350
0.399300 0.429300 0.384300
0.489250 0.444250 0.399250
0.579200 0.459200 0.414200
0.669150 0.474150 0.429150
0.759100 0.489100 0.444100
0.849050 0.504050 0.459050
0.158800 0.488800 0.368800
0.248750 0.503750 0.383750
0.338700 0.518700 0.398700
0.428650 0.533650 0.413650
0.518600 0.548600 0.428600
0.608550 0.563550 0.443550
0.698500 0.578500 0.458500
0.788450 0.593450 0.473450
0.878400 0.608400 0.488400
0.188150 0.593150 0.398150
0.278100 0.608100 0.413100
0.368050 0.623050 0.428050
0.458000 0.638000 0.443000
0.547950 0.652950 0.457950
0.637900 0.667900 0.472900
0.727850 0.682850 0.487850
0.816676 0.696841 0.502109
0.902431 0.708574 0.514717
0.217500 0.697500 0.427500
0.307450 0.712450 0.442450
0.397400 0.727400 0.457400
0.487350 0.742350 0.472350
0.577300 0.757300 0.487300
0.666443 0.771316 0.501643
0.752889 0.782718 0.514255
0.838527 0.793985 0.526733
0.923358 0.805118 0.539077
0.246850 0.801850 0.456850
0.336800 0.816800 0.471800
0.426750 0.831750 0.486750
0.516161 0.845816 0.501176
0.603296 0.856886 0.513793
0.689624 0.867822 0.526277
0.775146 0.878623 0.538626
0.859861 0.889291 0.550840
0.943768 0.899824 0.562921
0.276200 0.906200 0.486200
0.365828 0.920340 0.500709
0.453653 0.931079 0.513332
0.540672 0.941683 0.525820
0.626884 0.952153 0.538174
0.712288 0.962490 0.550393
0.796886 0.972692 0.562479
0.880677 0.982759 0.574431
0.963662 0.992693 0.586248
0.096688 0.126688 0.381688
0.178789 0.133789 0.388789
0.260891 0.140891 0.395890
0.342992 0.147992 0.402992
0.425093 0.155093 0.410093
0.507194 0.162194 0.417194
0.589295 0.169296 0.424295
0.676750 0.181750 0.436750
0.766700 0.196700 0.451700
0.110629 0.215629 0.395629
0.192730 0.222731 0.402730
0.274832 0.229832 0.409832
0.356933 0.236933 0.416933
0.439034 0.244034 0.424034
0.526200 0.256200 0.436200
0.616150 0.271150 0.451150
0.706100 0.286100 0.466100
0.796050 0.301050 0.481050
0.124571 0.304571 0.409571
0.206672 0.311672 0.416672
0.288773 0.318773 0.423773
0.375650 0.330650 0.435650
0.465600 0.345600 0.450600
0.555550 0.360550 0.465550
0.645500 0.375500 0.480500
0.735450 0.390450 0.495450
0.825400 0.405400 0.510400
0.138512 0.393512 0.423512
0.225100 0.405100 0.435100
0.315050 0.420050 0.450050
0.405000 0.435000 0.465000
0.494950 0.449950 0.479950
0.584900 0.464900 0.494900
0.674850 0.479850 0.509850
0.764800 0.494800 0.524800
0.854750 0.509750 0.539750
0.164500 0.494500 0.449500
0.254450 0.509450 0.464450
0.344400 0.524400 0.479400
0.434350 0.539350 0.494350
0.524300 0.554300 0.509300
0.614250 0.569250 0.524250
0.704200 0.584200 0.539200
0.794150 0.599150 0.554150
0.884100 0.614100 0.569100
0.193850 0.598850 0.478850
0.283800 0.613800 0.493800
0.373750 0.628750 0.508750
0.463700 0.643700 0.523700
0.553650 0.658650 0.538650
0.643600 0.673600 0.553600
0.733550 0.688550 0.568550
0.820960 0.701330 0.581700
0.906536 0.713012 0.593920
0.223200 0.703200 0.508200
0.313150 0.718150 0.523150
0.403100 0.733100 0.538100
0.493050 0.748050 0.553050
0.583000 0.763000 0.568000
0.670986 0.775679 0.581248
0.757251 0.787029 0.593473
0.842710 0.798245 0.605564
0.927363 0.809327 0.617520
0.252550 0.807550 0.537550
0.342500 0.822500 0.552500
0.432450 0.837450 0.567450
0.520961 0.850052 0.580796
0.607917 0.861071 0.593026
0.694066 0.871956 0.605121
0.779408 0.882706 0.617083
0.863944 0.893323 0.628910
0.947672 0.903805 0.640604
0.281900 0.911900 0.566900
0.370887 0.924450 0.580344
0.458533 0.935138 0.592578
0.545372 0.945691 0.604679
0.631405 0.956110 0.616645
0.716630 0.966395 0.628478
0.801048 0.976546 0.640176
0.884660 0.986563 0.651740
0.967465 0.996446 0.663170
0.099396 0.129395 0.459395
0.181497 0.136497 0.466497
0.263598 0.143598 0.473598
0.345699 0.150699 0.480699
0.427800 0.157801 0.487800
0.509902 0.164902 0.494902
0.592500 0.172500 0.502500
0.682450 0.187450 0.517450
0.772400 0.202400 0.532400
0.113337 0.218337 0.473337
0.195438 0.225438 0.480438
0.277539 0.232539 0.487539
0.359640 0.239640 0.494640
0.441950 0.246950 0.501950
0.531900 0.261900 0.516900
0.621850 0.276850 0.531850
0.711800 0.291800 0.546800
0.801750 0.306750 0.561750
0.127278 0.307278 0.487278
0.209379 0.314379 0.494379
0.291480 0.321480 0.501480
0.381350 0.336350 0.516350
0.471300 0.351300 0.531300
0.561250 0.366250 0.546250
0.651200 0.381200 0.561200
0.741150 0.396150 0.576150
0.831100 0.411100 0.591100
0.141219 0.396219 0.501219
0.230800 0.410800 0.515800
0.320750 0.425750 0.530750
0.410700 0.440700 0.545700
0.500650 0.455650 0.560650
0.590600 0.470600 0.575600
0.680550 0.485550 0.590550
0.770500 0.500500 0.605500
0.860450 0.515450 0.620450
0.170200 0.500200 0.530200
0.260150 0.515150 0.545150
0.350100 0.530100 0.560100
0.440050 0.545050 0.575050
0.530000 0.560000 0.590000
0.619950 0.574950 0.604950
0.709900 0.589900 0.619900
0.799850 0.604850 0.634850
0.889378 0.619506 0.649492
0.199550 0.604550 0.559550
0.289500 0.619500 0.574500
0.379450 0.634450 0.589450
0.469400 0.649400 0.604400
0.559350 0.664350 0.619350
0.649300 0.679300 0.634300
0.739022 0.694035 0.649049
0.825225 0.705800 0.661016
0.910621 0.717431 0.672848
0.228900 0.708900 0.588900
0.318850 0.723850 0.603850
0.408800 0.738800 0.618800
0.498750 0.753750 0.633750
0.588615 0.768589 0.648607
0.675509 0.780022 0.660578
0.761595 0.791322 0.672415
0.846875 0.802487 0.684118
0.931347 0.813517 0.695687
0.258250 0.813250 0.618250
0.348200 0.828200 0.633200
0.438150 0.843150 0.648150
0.525743 0.854269 0.660140
0.612519 0.865237 0.671982
0.698489 0.876071 0.683690
0.783652 0.886770 0.695264
0.868007 0.897335 0.706704
0.951557 0.907767 0.718010
0.287600 0.917600 0.647600
0.375927 0.928541 0.659702
0.463393 0.939177 0.671549
0.550053 0.949679 0.683262
0.635906 0.960047 0.694841
0.720952 0.970281 0.706286
0.805191 0.980381 0.717596
0.888624 0.990347 0.728773
0.971249 1.000000 0.739816
0.102103 0.132103 0.537103
0.184204 0.139204 0.544204
0.266305 0.146306 0.551306
0.348407 0.153407 0.558407
0.430508 0.160508 0.565508
0.512609 0.167609 0.572609
0.598200 0.178200 0.583200
0.688150 0.193150 0.598150
0.778100 0.208100 0.613100
0.116044 0.221044 0.551044
0.198146 0.228146 0.558145
0.280247 0.235247 0.565247
0.362348 0.242348 0.572348
0.447650 0.252650 0.582650
0.537600 0.267600 0.597600
0.627550 0.282550 0.612550
0.717500 0.297500 0.627500
0.807450 0.312450 0.642450
0.129985 0.309986 0.564986
0.212087 0.317087 0.572087
0.297100 0.327100 0.582100
0.387050 0.342050 0.597050
0.477000 0.357000 0.612000
0.566950 0.371950 0.626950
0.656900 0.386900 0.641900
0.746850 0.401850 0.656850
0.836800 0.416800 0.671800
0.146550 0.401550 0.581550
0.236500 0.416500 0.596500
0.326450 0.431450 0.611450
0.416400 0.446400 0.626400
0.506350 0.461350 0.641350
0.596300 0.476300 0.656300
0.686250 0.491250 0.671250
0.776200 0.506200 0.686200
0.866150 0.521150 0.701150
0.175900 0.505900 0.610900
0.265850 0.520850 0.625850
0.355800 0.535800 0.640800
0.445750 0.550750 0.655750
0.535700 0.565700 0.670700
0.625650 0.580650 0.685650
0.715600 0.595600 0.700600
0.805550 0.610550 0.715550
0.893544 0.624134 0.728905
0.205250 0.610250 0.640250
0.295200 0.625200 0.655200
0.385150 0.640150 0.670150
0.475100 0.655100 0.685100
0.565050 0.670050 0.700050
0.655000 0.685000 0.715000
0.743446 0.698537 0.728476
0.829470 0.710250 0.740055
0.914687 0.721830 0.751500
0.234600 0.714600 0.669600
0.324550 0.729550 0.684550
0.414500 0.744500 0.699500
0.504450 0.759450 0.714450
0.593298 0.772964 0.728048
0.680012 0.784346 0.739632
0.765919 0.795594 0.751081
0.851019 0.806708 0.762397
0.935313 0.817688 0.773579
0.263950 0.818950 0.698950
0.353900 0.833900 0.713900
0.443100 0.847416 0.727619
0.530504 0.858467 0.739208
0.617101 0.869383 0.750662
0.702892 0.880166 0.761983
0.787875 0.890814 0.773170
0.872052 0.901328 0.784222
0.955421 0.911708 0.795140
0.292853 0.921893 0.727190
0.380947 0.932612 0.738784
0.468234 0.943197 0.750243
0.554715 0.953648 0.761569
0.640388 0.963965 0.772760
0.725255 0.974148 0.783818
0.809314 0.984196 0.794741
0.892567 0.994111 0.805530
0.975013 1.000000 0.816185
0.104811 0.134810 0.614811
0.186912 0.141912 0.621912
0.269013 0.149013 0.629013
0.351114 0.156114 0.636114
0.433215 0.163216 0.643216
0.515317 0.170317 0.650317
0.603900 0.183900 0.663900
0.693850 0.198850 0.678850
0.783800 0.213800 0.693800
0.118752 0.223752 0.628752
0.200853 0.230853 0.635853
0.282954 0.237954 0.642954
0.365055 0.245056 0.650056
0.453350 0.258350 0.663350
0.543300 0.273300 0.678300
0.633250 0.288250 0.693250
0.723200 0.303200 0.708200
0.813150 0.318150 0.723150
0.132693 0.312693 0.642693
0.214794 0.319794 0.649794
0.302800 0.332800 0.662800
0.392750 0.347750 0.677750
0.482700 0.362700 0.692700
0.572650 0.377650 0.707650
0.662600 0.392600 0.722600
0.752550 0.407550 0.737550
0.842500 0.422500 0.752500
0.152250 0.407250 0.662250
0.242200 0.422200 0.677200
0.332150 0.437150 0.692150
0.422100 0.452100 0.707100
0.512050 0.467050 0.722050
0.602000 0.482000 0.737000
0.691950 0.496950 0.751950
0.781900 0.511900 0.766900
0.871850 0.526850 0.781850
0.181600 0.511600 0.691600
0.271550 0.526550 0.706550
0.361500 0.541500 0.721500
0.451450 0.556450 0.736450
0.541400 0.571400 0.751400
0.631350 0.586350 0.766350
0.721300 0.601300 0.781300
0.811250 0.616250 0.796250
0.897691 0.628742 0.808041
0.210950 0.615950 0.720950
0.300900 0.630900 0.735900
0.390850 0.645850 0.750850
0.480800 0.660800 0.765800
0.570750 0.675750 0.780750
0.660700 0.690700 0.795700
0.747851 0.703019 0.807627
0.833695 0.714681 0.818819
0.918733 0.726209 0.829876
0.240300 0.720300 0.750300
0.330250 0.735250 0.765250
0.420200 0.750200 0.780200
0.510150 0.765150 0.795150
0.597961 0.777320 0.807213
0.684496 0.788651 0.818409
0.770223 0.799847 0.829471
0.855144 0.810910 0.840400
0.939258 0.821839 0.851194
0.269650 0.824650 0.779650
0.359600 0.839600 0.794600
0.448022 0.851645 0.806798
0.535247 0.862645 0.818000
0.621664 0.873510 0.829067
0.707275 0.884242 0.840000
0.792079 0.894839 0.850799
0.876076 0.905302 0.861464
0.959267 0.915631 0.871995
0.298033 0.925996 0.806384
0.385948 0.936664 0.817590
0.473056 0.947198 0.828662
0.559356 0.957597 0.839600
0.644851 0.967863 0.850404
0.729538 0.977995 0.861074
0.813418 0.987992 0.871610
0.896492 0.997856 0.882011
0.978758 1.000000 0.892279
0.107518 0.137518 0.692518
0.189619 0.144619 0.699619
0.271721 0.151721 0.706721
0.353822 0.158822 0.713822
0.435923 0.165923 0.720923
0.519650 0.174650 0.729650
0.609600 0.189600 0.744600
0.699550 0.204550 0.759550
0.789500 0.219500 0.774500
0.121459 0.226459 0.706459
0.203561 0.233561 0.713561
0.285662 0.240662 0.720662
0.369100 0.249100 0.729100
0.459050 0.264050 0.744050
0.549000 0.279000 0.759000
0.638950 0.293950 0.773950
0.728900 0.308900 0.788900
0.818850 0.323850 0.803850
0.135401 0.315400 0.720401
0.218550 0.323550 0.728550
0.308500 0.338500 0.743500
0.398450 0.353450 0.758450
0.488400 0.368400 0.773400
0.578350 0.383350 0.788350
0.668300 0.398300 0.803300
0.758250 0.413250 0.818250
0.848200 0.428200 0.833200
0.157950 0.412950 0.742950
0.247900 0.427900 0.757900
0.337850 0.442850 0.772850
0.427800 0.457800 0.787800
0.517750 0.472750 0.802750
0.607700 0.487700 0.817700
0.697650 0.502650 0.832650
0.787600 0.517600 0.847600
0.877550 0.532550 0.862550
0.187300 0.517300 0.772300
0.277250 0.532250 0.787250
0.367200 0.547200 0.802200
0.457150 0.562150 0.817150
0.547100 0.577100 0.832100
0.637050 0.592050 0.847050
0.727000 0.607000 0.862000
0.816036 0.621254 0.875969
0.901818 0.633331 0.886902
0.216650 0.621650 0.801650
0.306600 0.636600 0.816600
0.396550 0.651550 0.831550
0.486500 0.666500 0.846500
0.576450 0.681450 0.861450
0.665764 0.695736 0.875564
0.752236 0.707481 0.886502
0.837901 0.719092 0.897306
0.922760 0.730569 0.907976
0.246000 0.726000 0.831000
0.335950 0.740950 0.845950
0.425900 0.755900 0.860900
0.515443 0.770242 0.875159
0.602605 0.781656 0.886102
0.688960 0.792935 0.896911
0.774508 0.804081 0.907586
0.859250 0.815093 0.918126
0.943185 0.825970 0.928533
0.275350 0.830350 0.860350
0.365072 0.844773 0.874754
0.452924 0.855855 0.885702
0.539969 0.866803 0.896516
0.626208 0.877618 0.907195
0.711639 0.888298 0.917741
0.796264 0.898844 0.928152
0.880082 0.909256 0.938430
0.963093 0.919534 0.948573
0.303194 0.930079 0.885301
0.390929 0.940696 0.896120
0.477857 0.951179 0.906805
0.563979 0.961527 0.917355
0.649294 0.971742 0.927772
0.733801 0.981822 0.938054
0.817502 0.991769 0.948202
0.900397 1.000000 0.958216
0.983328 1.000000 0.968928
0.110225 0.140226 0.770226
0.192327 0.147327 0.777327
0.274428 0.154428 0.784428
0.356529 0.161529 0.791529
0.438630 0.168630 0.798631
0.525350 0.180350 0.810350
0.615300 0.195300 0.825300
0.705250 0.210250 0.840250
0.795200 0.225200 0.855200
0.124167 0.229167 0.784167
0.206268 0.236268 0.791268
0.288369 0.243369 0.798369
0.374800 0.254800 0.809800
0.464750 0.269750 0.824750
0.554700 0.284700 0.839700
0.644650 0.299650 0.854650
0.734600 0.314600 0.869600
0.824550 0.329550 0.884550
0.138108 0.318108 0.798108
0.224250 0.329250 0.809250
0.314200 0.344200 0.824200
0.404150 0.359150 0.839150
0.494100 0.374100 0.854100
0.584050 0.389050 0.869050
0.674000 0.404000 0.884000
0.763950 0.418950 0.898950
0.853900 0.433900 0.913900
0.163650 0.418650 0.823650
0.253600 0.433600 0.838600
0.343550 0.448550 0.853550
0.433500 0.463500 0.868500
0.523450 0.478450 0.883450
0.613400 0.493400 0.898400
0.703350 0.508350 0.913350
0.793300 0.523300 0.928300
0.883250 0.538250 0.943250
0.193000 0.523000 0.853000
0.282950 0.537950 0.867950
0.372900 0.552900 0.882900
0.462850 0.567850 0.897850
0.552800 0.582800 0.912800
0.642750 0.597750 0.927750
0.732700 0.612700 0.942700
0.820323 0.625874 0.954941
0.905925 0.637900 0.965486
0.222350 0.627350 0.882350
0.312300 0.642300 0.897300
0.402250 0.657250 0.912250
0.492200 0.672200 0.927200
0.582150 0.687150 0.942150
0.670310 0.700230 0.954550
0.756602 0.711924 0.965101
0.842088 0.723484 0.975517
0.926767 0.734910 0.985800
0.251700 0.731700 0.911700
0.341650 0.746650 0.926650
0.431600 0.761600 0.941600
0.520247 0.774609 0.954160
0.607229 0.785972 0.964715
0.693405 0.797201 0.975136
0.778774 0.808295 0.985424
0.863336 0.819256 0.995577
0.947091 0.830082 1.000000
0.281050 0.836050 0.941050
0.370134 0.849014 0.953769
0.457807 0.860045 0.964329
0.544673 0.870942 0.974755
0.630732 0.881705 0.985048
0.715984 0.892334 0.995206
0.800429 0.902829 1.000000
0.884067 0.913190 1.000000
0.966899 0.923417 1.000000
0.308335 0.934143 0.963943
0.395891 0.944708 0.974374
0.482640 0.955140 0.984671
0.568582 0.965438 0.994834
0.653717 0.975601 1.000000
0.738046 0.985630 1.000000
0.821567 0.995526 1.000000
0.904282 1.000000 1.000000
0.988800 1.000000 1.000000
