assets/luts/pale.cube
TITLE "pale"
LUT_3D_SIZE 33
0.088566 0.118566 0.148565
0.109091 0.120341 0.150341
0.129616 0.122116 0.152116
0.150141 0.123891 0.153891
0.170667 0.125667 0.155667
0.191192 0.127442 0.157442
0.211717 0.129217 0.159217
0.232243 0.130993 0.160993
0.252768 0.132768 0.162768
0.273293 0.134543 0.164543
0.293819 0.136319 0.166319
0.314344 0.138094 0.168094
0.334869 0.139869 0.169869
0.355395 0.141645 0.171645
0.375920 0.143420 0.173420
0.396445 0.145195 0.175195
0.416970 0.146971 0.176971
0.437496 0.148746 0.178746
0.458021 0.150521 0.180521
0.478546 0.152296 0.182296
0.499072 0.154072 0.184072
0.519597 0.155847 0.185847
0.540122 0.157622 0.187622
0.560648 0.159398 0.189398
0.581173 0.161173 0.191173
0.601698 0.162948 0.192948
0.622224 0.164724 0.194724
0.642749 0.166499 0.196499
0.663274 0.168274 0.198274
0.683800 0.170050 0.200050
0.704625 0.172125 0.202125
0.727113 0.175863 0.205863
0.749600 0.179600 0.209600
0.092051 0.140801 0.152051
0.112576 0.142576 0.153826
0.133101 0.144351 0.155601
0.153627 0.146127 0.157377
0.174152 0.147902 0.159152
0.194677 0.149677 0.160927
0.215203 0.151453 0.162703
0.235728 0.153228 0.164478
0.256253 0.155003 0.166253
0.276779 0.156779 0.168029
0.297304 0.158554 0.169804
0.317829 0.160329 0.171579
0.338355 0.162105 0.173355
0.358880 0.163880 0.175130
0.379405 0.165655 0.176905
0.399930 0.167431 0.178680
0.420456 0.169206 0.180456
0.440981 0.170981 0.182231
0.461506 0.172756 0.184006
0.482032 0.174532 0.185782
0.502557 0.176307 0.187557
0.523082 0.178082 0.189332
0.543608 0.179858 0.191108
0.564133 0.181633 0.192883
0.584658 0.183408 0.194658
0.605184 0.185184 0.196434
0.625709 0.186959 0.198209
0.646234 0.188734 0.199984
0.666988 0.190738 0.201987
0.689475 0.194475 0.205725
0.711963 0.198213 0.209462
0.734450 0.201950 0.213200
0.756938 0.205688 0.216938
0.095536 0.163036 0.155536
0.116061 0.164811 0.157311
0.136587 0.166587 0.159087
0.157112 0.168362 0.160862
0.177637 0.170137 0.162637
0.198163 0.171913 0.164413
0.218688 0.173688 0.166188
0.239213 0.175463 0.167963
0.259739 0.177239 0.169739
0.280264 0.179014 0.171514
0.300789 0.180789 0.173289
0.321315 0.182565 0.175065
0.341840 0.184340 0.176840
0.362365 0.186115 0.178615
0.382891 0.187890 0.180390
0.403416 0.189666 0.182166
0.423941 0.191441 0.183941
0.444466 0.193216 0.185716
0.464992 0.194992 0.187492
0.485517 0.196767 0.189267
0.506042 0.198542 0.191042
0.526568 0.200318 0.192818
0.547093 0.202093 0.194593
0.567618 0.203868 0.196368
0.588144 0.205644 0.198144
0.608669 0.207419 0.199919
0.629350 0.209350 0.201850
0.651838 0.213088 0.205588
0.674325 0.216825 0.209325
0.696813 0.220562 0.213062
0.719300 0.224300 0.216800
0.741788 0.228038 0.220537
0.764275 0.231775 0.224275
0.099021 0.185271 0.159021
0.119547 0.187047 0.160797
0.140072 0.188822 0.162572
0.160597 0.190597 0.164347
0.181123 0.192373 0.166123
0.201648 0.194148 0.167898
0.222173 0.195923 0.169673
0.242699 0.197699 0.171449
0.263224 0.199474 0.173224
0.283749 0.201249 0.174999
0.304275 0.203025 0.176775
0.324800 0.204800 0.178550
0.345325 0.206575 0.180325
0.365850 0.208351 0.182101
0.386376 0.210126 0.183876
0.406901 0.211901 0.185651
0.427426 0.213676 0.187426
0.447952 0.215452 0.189202
0.468477 0.217227 0.190977
0.489002 0.219002 0.192752
0.509528 0.220778 0.194528
0.530053 0.222553 0.196303
0.550578 0.224328 0.198078
0.571104 0.226104 0.199854
0.591713 0.227963 0.201713
0.614200 0.231700 0.205450
0.636688 0.235438 0.209188
0.659175 0.239175 0.212925
0.681663 0.242913 0.216662
0.704150 0.246650 0.220400
0.726638 0.250387 0.224137
0.749125 0.254125 0.227875
0.771613 0.257862 0.231612
0.102507 0.207507 0.162507
0.123032 0.209282 0.164282
0.143557 0.211057 0.166057
0.164083 0.212833 0.167833
0.184608 0.214608 0.169608
0.205133 0.216383 0.171383
0.225659 0.218159 0.173159
0.246184 0.219934 0.174934
0.266709 0.221709 0.176709
0.287235 0.223485 0.178485
0.307760 0.225260 0.180260
0.328285 0.227035 0.182035
0.348811 0.228810 0.183811
0.369336 0.230586 0.185586
0.389861 0.232361 0.187361
0.410386 0.234136 0.189136
0.430912 0.235912 0.190912
0.451437 0.237687 0.192687
0.471962 0.239462 0.194462
0.492488 0.241238 0.196238
0.513013 0.243013 0.198013
0.533538 0.244788 0.199788
0.554075 0.246575 0.201575
0.576563 0.250312 0.205313
0.599050 0.254050 0.209050
0.621538 0.257788 0.212788
0.644025 0.261525 0.216525
0.666513 0.265263 0.220263
0.689000 0.269000 0.224000
0.711488 0.272738 0.227737
0.733975 0.276475 0.231475
0.756463 0.280213 0.235213
0.778950 0.283950 0.238950
0.105992 0.229742 0.165992
0.126517 0.231517 0.167767
0.147043 0.233293 0.169543
0.167568 0.235068 0.171318
0.188093 0.236843 0.173093
0.208619 0.238619 0.174869
0.229144 0.240394 0.176644
0.249669 0.242169 0.178419
0.270195 0.243945 0.180195
0.290720 0.245720 0.181970
0.311245 0.247495 0.183745
0.331770 0.249270 0.185521
0.352296 0.251046 0.187296
0.372821 0.252821 0.189071
0.393346 0.254596 0.190846
0.413872 0.256372 0.192622
0.434397 0.258147 0.194397
0.454922 0.259922 0.196172
0.475448 0.261698 0.197948
0.495973 0.263473 0.199723
0.516498 0.265248 0.201498
0.538925 0.268925 0.205175
0.561412 0.272662 0.208913
0.583900 0.276400 0.212650
0.606388 0.280138 0.216388
0.628875 0.283875 0.220125
0.651363 0.287612 0.223863
0.673850 0.291350 0.227600
0.696338 0.295088 0.231337
0.718825 0.298825 0.235075
0.741313 0.302562 0.238812
0.763800 0.306300 0.242550
0.786288 0.310038 0.246288
0.109477 0.251977 0.169477
0.130003 0.253753 0.171253
0.150528 0.255528 0.173028
0.171053 0.257303 0.174803
0.191579 0.259079 0.176579
0.212104 0.260854 0.178354
0.232629 0.262629 0.180129
0.253155 0.264405 0.181905
0.273680 0.266180 0.183680
0.294205 0.267955 0.185455
0.314731 0.269730 0.187230
0.335256 0.271506 0.189006
0.355781 0.273281 0.190781
0.376306 0.275056 0.192556
0.396832 0.276832 0.194332
0.417357 0.278607 0.196107
0.437882 0.280382 0.197882
0.458408 0.282158 0.199658
0.478933 0.283933 0.201433
0.501287 0.287538 0.205037
0.523775 0.291275 0.208775
0.546262 0.295013 0.212512
0.568750 0.298750 0.216250
0.591237 0.302487 0.219988
0.613725 0.306225 0.223725
0.636213 0.309962 0.227463
0.658700 0.313700 0.231200
0.681188 0.317437 0.234938
0.703675 0.321175 0.238675
0.726163 0.324912 0.242413
0.748650 0.328650 0.246150
0.771138 0.332388 0.249888
0.793625 0.336125 0.253625
0.112963 0.274213 0.172963
0.133488 0.275988 0.174738
0.154013 0.277763 0.176513
0.174539 0.279539 0.178289
0.195064 0.281314 0.180064
0.215589 0.283089 0.181839
0.236115 0.284865 0.183615
0.256640 0.286640 0.185390
0.277165 0.288415 0.187165
0.297691 0.290191 0.188940
0.318216 0.291966 0.190716
0.338741 0.293741 0.192491
0.359266 0.295516 0.194266
0.379792 0.297292 0.196042
0.400317 0.299067 0.197817
0.420842 0.300842 0.199592
0.441368 0.302618 0.201368
0.463650 0.306150 0.204900
0.486137 0.309887 0.208638
0.508625 0.313625 0.212375
0.531112 0.317362 0.216112
0.553600 0.321100 0.219850
0.576087 0.324838 0.223587
0.598575 0.328575 0.227325
0.621063 0.332313 0.231063
0.643550 0.336050 0.234800
0.666038 0.339787 0.238538
0.688525 0.343525 0.242275
0.711013 0.347262 0.246013
0.733500 0.351000 0.249750
0.755988 0.354737 0.253488
0.778475 0.358475 0.257225
0.800963 0.362212 0.260963
0.116448 0.296448 0.176448
0.136973 0.298223 0.178223
0.157499 0.299999 0.179999
0.178024 0.301774 0.181774
0.198549 0.303549 0.183549
0.219075 0.305325 0.185325
0.239600 0.307100 0.187100
0.260125 0.308875 0.188875
0.280651 0.310650 0.190650
0.301176 0.312426 0.192426
0.321701 0.314201 0.194201
0.342226 0.315976 0.195976
0.362752 0.317752 0.197752
0.383277 0.319527 0.199527
0.403802 0.321302 0.201302
0.426012 0.324763 0.204763
0.448500 0.328500 0.208500
0.470987 0.332238 0.212238
0.493475 0.335975 0.215975
0.515962 0.339712 0.219712
0.538450 0.343450 0.223450
0.560937 0.347187 0.227187
0.583425 0.350925 0.230925
0.605913 0.354662 0.234662
0.628400 0.358400 0.238400
0.650888 0.362138 0.242138
0.673375 0.365875 0.245875
0.695863 0.369613 0.249613
0.718350 0.373350 0.253350
0.740838 0.377087 0.257088
0.763325 0.380825 0.260825
0.785813 0.384562 0.264563
0.808300 0.388300 0.268300
0.119933 0.318683 0.179933
0.140459 0.320459 0.181709
0.160984 0.322234 0.183484
0.181509 0.324009 0.185259
0.202035 0.325785 0.187035
0.222560 0.327560 0.188810
0.243085 0.329335 0.190585
0.263611 0.331111 0.192361
0.284136 0.332886 0.194136
0.304661 0.334661 0.195911
0.325186 0.336436 0.197686
0.345712 0.338212 0.199462
0.366237 0.339987 0.201237
0.388375 0.343375 0.204625
0.410862 0.347112 0.208363
0.433350 0.350850 0.212100
0.455837 0.354587 0.215838
0.478325 0.358325 0.219575
0.500812 0.362063 0.223313
0.523300 0.365800 0.227050
0.545787 0.369537 0.230787
0.568275 0.373275 0.234525
0.590762 0.377012 0.238262
0.613250 0.380750 0.242000
0.635738 0.384487 0.245737
0.658225 0.388225 0.249475
0.680713 0.391962 0.253213
0.703200 0.395700 0.256950
0.725688 0.399438 0.260688
0.748175 0.403175 0.264425
0.770663 0.406912 0.268163
0.793150 0.410650 0.271900
0.815638 0.414387 0.275638
0.123419 0.340919 0.183419
0.143944 0.342694 0.185194
0.164469 0.344469 0.186969
0.184995 0.346245 0.188745
0.205520 0.348020 0.190520
0.226045 0.349795 0.192295
0.246570 0.351571 0.194071
0.267096 0.353346 0.195846
0.287621 0.355121 0.197621
0.308146 0.356896 0.199396
0.328672 0.358672 0.201172
0.350737 0.361987 0.204487
0.373225 0.365725 0.208225
0.395712 0.369462 0.211962
0.418200 0.373200 0.215700
0.440687 0.376937 0.219438
0.463175 0.380675 0.223175
0.485662 0.384412 0.226913
0.508150 0.388150 0.230650
0.530637 0.391887 0.234387
0.553125 0.395625 0.238125
0.575612 0.399363 0.241863
0.598100 0.403100 0.245600
0.620588 0.406838 0.249338
0.643075 0.410575 0.253075
0.665563 0.414312 0.256812
0.688050 0.418050 0.260550
0.710538 0.421787 0.264288
0.733025 0.425525 0.268025
0.755513 0.429262 0.271763
0.778000 0.433000 0.275500
0.800488 0.436738 0.279238
0.822975 0.440475 0.282975
0.126904 0.363154 0.186904
0.147429 0.364929 0.188679
0.167955 0.366705 0.190455
0.188480 0.368480 0.192230
0.209005 0.370255 0.194005
0.229531 0.372030 0.195781
0.250056 0.373806 0.197556
0.270581 0.375581 0.199331
0.291106 0.377356 0.201106
0.313100 0.380600 0.204350
0.335587 0.384337 0.208087
0.358075 0.388075 0.211825
0.380562 0.391813 0.215562
0.403050 0.395550 0.219300
0.425537 0.399288 0.223037
0.448025 0.403025 0.226775
0.470512 0.406762 0.230513
0.493000 0.410500 0.234250
0.515487 0.414237 0.237988
0.537975 0.417975 0.241725
0.560462 0.421712 0.245463
0.582950 0.425450 0.249200
0.605438 0.429187 0.252938
0.627925 0.432925 0.256675
0.650413 0.436663 0.260413
0.672900 0.440400 0.264150
0.695388 0.444138 0.267888
0.717875 0.447875 0.271625
0.740363 0.451613 0.275363
0.762850 0.455350 0.279100
0.785338 0.459087 0.282838
0.807825 0.462825 0.286575
0.830313 0.466562 0.290313
0.130389 0.385389 0.190389
0.150915 0.387165 0.192165
0.171440 0.388940 0.193940
0.191965 0.390715 0.195715
0.212491 0.392491 0.197491
0.233016 0.394266 0.199266
0.253541 0.396041 0.201041
0.275462 0.399213 0.204213
0.297950 0.402950 0.207950
0.320437 0.406687 0.211688
0.342925 0.410425 0.215425
0.365412 0.414162 0.219162
0.387900 0.417900 0.222900
0.410387 0.421637 0.226637
0.432875 0.425375 0.230375
0.455362 0.429113 0.234113
0.477850 0.432850 0.237850
0.500337 0.436587 0.241588
0.522825 0.440325 0.245325
0.545312 0.444062 0.249063
0.567800 0.447800 0.252800
0.590288 0.451537 0.256538
0.612775 0.455275 0.260275
0.635263 0.459012 0.264013
0.657750 0.462750 0.267750
0.680238 0.466487 0.271487
0.702725 0.470225 0.275225
0.725213 0.473963 0.278963
0.747700 0.477700 0.282700
0.770188 0.481438 0.286438
0.792675 0.485175 0.290175
0.815163 0.488912 0.293913
0.837650 0.492650 0.297650
0.133875 0.407625 0.193875
0.154400 0.409400 0.195650
0.174925 0.411175 0.197425
0.195451 0.412950 0.199201
0.215976 0.414726 0.200976
0.237825 0.417825 0.204075
0.260313 0.421563 0.207813
0.282800 0.425300 0.211550
0.305287 0.429038 0.215288
0.327775 0.432775 0.219025
0.350262 0.436512 0.222762
0.372750 0.440250 0.226500
0.395237 0.443987 0.230237
0.417725 0.447725 0.233975
0.440212 0.451462 0.237712
0.462700 0.455200 0.241450
0.485187 0.458937 0.245188
0.507675 0.462675 0.248925
0.530162 0.466412 0.252663
0.552650 0.470150 0.256400
0.575137 0.473887 0.260138
0.597625 0.477625 0.263875
0.620113 0.481362 0.267613
0.642600 0.485100 0.271350
0.665088 0.488837 0.275088
0.687575 0.492575 0.278825
0.710063 0.496312 0.282563
0.732550 0.500050 0.286300
0.755038 0.503788 0.290038
0.777525 0.507525 0.293775
0.800013 0.511263 0.297513
0.822500 0.515000 0.301250
0.844988 0.518737 0.304987
0.137360 0.429860 0.197360
0.157885 0.431635 0.199135
0.178410 0.433411 0.200911
0.200188 0.436437 0.203937
0.222675 0.440175 0.207675
0.245163 0.443912 0.211413
0.267650 0.447650 0.215150
0.290138 0.451387 0.218888
0.312625 0.455125 0.222625
0.335112 0.458863 0.226363
0.357600 0.462600 0.230100
0.380087 0.466338 0.233838
0.402575 0.470075 0.237575
0.425062 0.473813 0.241313
0.447550 0.477550 0.245050
0.470037 0.481287 0.248787
0.492525 0.485025 0.252525
0.515012 0.488762 0.256263
0.537500 0.492500 0.260000
0.559988 0.496237 0.263738
0.582475 0.499975 0.267475
0.604963 0.503713 0.271213
0.627450 0.507450 0.274950
0.649938 0.511188 0.278688
0.672425 0.514925 0.282425
0.694913 0.518663 0.286163
0.717400 0.522400 0.289900
0.739888 0.526138 0.293638
0.762375 0.529875 0.297375
0.784863 0.533613 0.301112
0.807350 0.537350 0.304850
0.829838 0.541088 0.308588
0.852325 0.544825 0.312325
0.140845 0.452095 0.200845
0.162550 0.455050 0.203800
0.185038 0.458788 0.207538
0.207525 0.462525 0.211275
0.230013 0.466262 0.215012
0.252500 0.470000 0.218750
0.274988 0.473737 0.222488
0.297475 0.477475 0.226225
0.319962 0.481212 0.229963
0.342450 0.484950 0.233700
0.364937 0.488687 0.237438
0.387425 0.492425 0.241175
0.409912 0.496163 0.244913
0.432400 0.499900 0.248650
0.454887 0.503638 0.252388
0.477375 0.507375 0.256125
0.499862 0.511112 0.259862
0.522350 0.514850 0.263600
0.544837 0.518587 0.267338
0.567325 0.522325 0.271075
0.589813 0.526062 0.274813
0.612300 0.529800 0.278550
0.634788 0.533537 0.282288
0.657275 0.537275 0.286025
0.679763 0.541013 0.289763
0.702250 0.544750 0.293500
0.724738 0.548488 0.297238
0.747225 0.552225 0.300975
0.769713 0.555963 0.304712
0.792200 0.559700 0.308450
0.814688 0.563438 0.312187
0.837175 0.567175 0.315925
0.859662 0.570913 0.319662
0.147400 0.477400 0.207400
0.169887 0.481137 0.211137
0.192375 0.484875 0.214875
0.214863 0.488613 0.218612
0.237350 0.492350 0.222350
0.259837 0.496087 0.226087
0.282325 0.499825 0.229825
0.304812 0.503563 0.233563
0.327300 0.507300 0.237300
0.349787 0.511038 0.241038
0.372275 0.514775 0.244775
0.394762 0.518513 0.248513
0.417250 0.522250 0.252250
0.439737 0.525988 0.255988
0.462225 0.529725 0.259725
0.484712 0.533463 0.263463
0.507200 0.537200 0.267200
0.529687 0.540938 0.270938
0.552175 0.544675 0.274675
0.574663 0.548413 0.278413
0.597150 0.552150 0.282150
0.619638 0.555887 0.285888
0.642125 0.559625 0.289625
0.664613 0.563362 0.293363
0.687100 0.567100 0.297100
0.709588 0.570837 0.300837
0.732075 0.574575 0.304575
0.754563 0.578313 0.308312
0.777050 0.582050 0.312050
0.799538 0.585788 0.315787
0.822025 0.589525 0.319525
0.844512 0.593263 0.323263
0.867000 0.597000 0.327000
0.154737 0.503487 0.214738
0.177225 0.507225 0.218475
0.199713 0.510962 0.222213
0.222200 0.514700 0.225950
0.244688 0.518437 0.229687
0.267175 0.522175 0.233425
0.289663 0.525913 0.237162
0.312150 0.529650 0.240900
0.334637 0.533388 0.244638
0.357125 0.537125 0.248375
0.379612 0.540863 0.252113
0.402100 0.544600 0.255850
0.424587 0.548338 0.259588
0.447075 0.552075 0.263325
0.469562 0.555813 0.267063
0.492050 0.559550 0.270800
0.514537 0.563288 0.274537
0.537025 0.567025 0.278275
0.559512 0.570763 0.282012
0.582000 0.574500 0.285750
0.604488 0.578238 0.289488
0.626975 0.581975 0.293225
0.649463 0.585713 0.296963
0.671950 0.589450 0.300700
0.694438 0.593188 0.304437
0.716925 0.596925 0.308175
0.739413 0.600663 0.311912
0.761900 0.604400 0.315650
0.784388 0.608137 0.319387
0.806875 0.611875 0.323125
0.829363 0.615613 0.326862
0.851850 0.619350 0.330600
0.874337 0.623088 0.334337
0.162075 0.529575 0.222075
0.184563 0.533312 0.225812
0.207050 0.537050 0.229550
0.229538 0.540787 0.233287
0.252025 0.544525 0.237025
0.274512 0.548262 0.240762
0.297000 0.552000 0.244500
0.319487 0.555737 0.248237
0.341975 0.559475 0.251975
0.364462 0.563213 0.255713
0.386950 0.566950 0.259450
0.409437 0.570688 0.263188
0.431925 0.574425 0.266925
0.454412 0.578163 0.270663
0.476900 0.581900 0.274400
0.499387 0.585638 0.278138
0.521875 0.589375 0.281875
0.544362 0.593113 0.285613
0.566850 0.596850 0.289350
0.589338 0.600588 0.293088
0.611825 0.604325 0.296825
0.634313 0.608063 0.300562
0.656800 0.611800 0.304300
0.679288 0.615538 0.308037
0.701775 0.619275 0.311775
0.724263 0.623012 0.315512
0.746750 0.626750 0.319250
0.769238 0.630488 0.322987
0.791725 0.634225 0.326725
0.814213 0.637962 0.330462
0.836700 0.641700 0.334200
0.859187 0.645438 0.337938
0.881675 0.649175 0.341675
0.169412 0.555663 0.229413
0.191900 0.559400 0.233150
0.214388 0.563138 0.236888
0.236875 0.566875 0.240625
0.259362 0.570612 0.244362
0.281850 0.574350 0.248100
0.304337 0.578088 0.251837
0.326825 0.581825 0.255575
0.349312 0.585562 0.259313
0.371800 0.589300 0.263050
0.394287 0.593037 0.266788
0.416775 0.596775 0.270525
0.439262 0.600513 0.274263
0.461750 0.604250 0.278000
0.484237 0.607988 0.281738
0.506725 0.611725 0.285475
0.529212 0.615463 0.289212
0.551700 0.619200 0.292950
0.574187 0.622938 0.296687
0.596675 0.626675 0.300425
0.619163 0.630413 0.304162
0.641650 0.634150 0.307900
0.664138 0.637888 0.311637
0.686625 0.641625 0.315375
0.709113 0.645363 0.319112
0.731600 0.649100 0.322850
0.754088 0.652838 0.326587
0.776575 0.656575 0.330325
0.799063 0.660313 0.334062
0.821550 0.664050 0.337800
0.844037 0.667787 0.341537
0.866525 0.671525 0.345275
0.888801 0.675102 0.348930
0.176750 0.581750 0.236750
0.199238 0.585488 0.240488
0.221725 0.589225 0.244225
0.244212 0.592963 0.247963
0.266700 0.596700 0.251700
0.289188 0.600437 0.255437
0.311675 0.604175 0.259175
0.334162 0.607913 0.262912
0.356650 0.611650 0.266650
0.379137 0.615387 0.270388
0.401625 0.619125 0.274125
0.424112 0.622862 0.277863
0.446600 0.626600 0.281600
0.469087 0.630337 0.285338
0.491575 0.634075 0.289075
0.514062 0.637813 0.292813
0.536550 0.641550 0.296550
0.559038 0.645288 0.300287
0.581525 0.649025 0.304025
0.604013 0.652763 0.307762
0.626500 0.656500 0.311500
0.648988 0.660238 0.315237
0.671475 0.663975 0.318975
0.693963 0.667713 0.322712
0.716450 0.671450 0.326450
0.738938 0.675188 0.330187
0.761425 0.678925 0.333925
0.783913 0.682663 0.337662
0.806400 0.686400 0.341400
0.828887 0.690138 0.345137
0.851208 0.693739 0.348806
0.872711 0.696693 0.352148
0.894164 0.699639 0.355481
0.184088 0.607838 0.244088
0.206575 0.611575 0.247825
0.229063 0.615313 0.251563
0.251550 0.619050 0.255300
0.274037 0.622788 0.259038
0.296525 0.626525 0.262775
0.319012 0.630263 0.266513
0.341500 0.634000 0.270250
0.363987 0.637738 0.273988
0.386475 0.641475 0.277725
0.408962 0.645213 0.281463
0.431450 0.648950 0.285200
0.453937 0.652688 0.288938
0.476425 0.656425 0.292675
0.498912 0.660162 0.296413
0.521400 0.663900 0.300150
0.543888 0.667638 0.303887
0.566375 0.671375 0.307625
0.588863 0.675113 0.311362
0.611350 0.678850 0.315100
0.633838 0.682588 0.318837
0.656325 0.686325 0.322575
0.678813 0.690063 0.326313
0.701300 0.693800 0.330050
0.723788 0.697538 0.333787
0.746275 0.701275 0.337525
0.768763 0.705013 0.341262
0.791250 0.708750 0.345000
0.813611 0.712377 0.348683
0.835158 0.715311 0.352025
0.856654 0.718236 0.355358
0.878099 0.721153 0.358683
0.899494 0.724062 0.362000
0.191425 0.633925 0.251425
0.213913 0.637663 0.255163
0.236400 0.641400 0.258900
0.258887 0.645138 0.262638
0.281375 0.648875 0.266375
0.303862 0.652613 0.270113
0.326350 0.656350 0.273850
0.348837 0.660088 0.277588
0.371325 0.663825 0.281325
0.393812 0.667563 0.285063
0.416300 0.671300 0.288800
0.438787 0.675038 0.292538
0.461275 0.678775 0.296275
0.483762 0.682513 0.300012
0.506250 0.686250 0.303750
0.528737 0.689988 0.307487
0.551225 0.693725 0.311225
0.573713 0.697463 0.314962
0.596200 0.701200 0.318700
0.618688 0.704937 0.322437
0.641175 0.708675 0.326175
0.663663 0.712413 0.329912
0.686150 0.716150 0.333650
0.708638 0.719888 0.337388
0.731125 0.723625 0.341125
0.753613 0.727363 0.344862
0.776012 0.731017 0.348560
0.797601 0.733930 0.351902
0.819140 0.736835 0.355236
0.840629 0.739731 0.358561
0.862067 0.742619 0.361878
0.883455 0.745499 0.365187
0.904792 0.748370 0.368487
0.198763 0.660013 0.258763
0.221250 0.663750 0.262500
0.243738 0.667488 0.266238
0.266225 0.671225 0.269975
0.288713 0.674963 0.273713
0.311200 0.678700 0.277450
0.333687 0.682438 0.281188
0.356175 0.686175 0.284925
0.378662 0.689913 0.288663
0.401150 0.693650 0.292400
0.423637 0.697388 0.296138
0.446125 0.701125 0.299875
0.468612 0.704863 0.303612
0.491100 0.708600 0.307350
0.513587 0.712338 0.311087
0.536075 0.716075 0.314825
0.558563 0.719813 0.318562
0.581050 0.723550 0.322300
0.603538 0.727288 0.326037
0.626025 0.731025 0.329775
0.648513 0.734762 0.333512
0.671000 0.738500 0.337250
0.693488 0.742238 0.340987
0.715975 0.745975 0.344725
0.738409 0.749658 0.348437
0.760041 0.752550 0.351779
0.781624 0.755434 0.355113
0.803155 0.758310 0.358439
0.824637 0.761177 0.361756
0.846068 0.764036 0.365065
0.867448 0.766887 0.368365
0.888778 0.769729 0.371657
0.910058 0.772563 0.374941
0.206100 0.686100 0.266100
0.228587 0.689837 0.269838
0.251075 0.693575 0.273575
0.273562 0.697313 0.277313
0.296050 0.701050 0.281050
0.318537 0.704788 0.284788
0.341025 0.708525 0.288525
0.363512 0.712263 0.292262
0.386000 0.716000 0.296000
0.408487 0.719738 0.299738
0.430975 0.723475 0.303475
0.453462 0.727213 0.307212
0.475950 0.730950 0.310950
0.498437 0.734688 0.314687
0.520925 0.738425 0.318425
0.543413 0.742163 0.322162
0.565900 0.745900 0.325900
0.588388 0.749638 0.329637
0.610875 0.753375 0.333375
0.633363 0.757113 0.337112
0.655850 0.760850 0.340850
0.678338 0.764587 0.344587
0.700803 0.768301 0.348314
0.722479 0.771173 0.351657
0.744104 0.774036 0.354991
0.765679 0.776891 0.358317
0.787203 0.779737 0.361634
0.808678 0.782576 0.364943
0.830101 0.785405 0.368244
0.851474 0.788227 0.371536
0.872797 0.791040 0.374820
0.894070 0.793844 0.378096
0.915291 0.796641 0.381363
0.213438 0.712187 0.273438
0.235925 0.715925 0.277175
0.258413 0.719663 0.280913
0.280900 0.723400 0.284650
0.303387 0.727137 0.288388
0.325875 0.730875 0.292125
0.348362 0.734613 0.295863
0.370850 0.738350 0.299600
0.393337 0.742088 0.303337
0.415825 0.745825 0.307075
0.438312 0.749563 0.310812
0.460800 0.753300 0.314550
0.483287 0.757038 0.318287
0.505775 0.760775 0.322025
0.528262 0.764513 0.325762
0.550750 0.768250 0.329500
0.573238 0.771988 0.333237
0.595725 0.775725 0.336975
0.618213 0.779463 0.340712
0.640700 0.783200 0.344450
0.663188 0.786938 0.348187
0.684913 0.789796 0.351534
0.706581 0.792639 0.354868
0.728199 0.795473 0.358195
0.749767 0.798299 0.361512
0.771284 0.801116 0.364822
0.792751 0.803925 0.368123
0.814167 0.806726 0.371415
0.835533 0.809518 0.374700
0.856849 0.812302 0.377976
0.878114 0.815078 0.381243
0.899328 0.817845 0.384502
0.920493 0.820604 0.387753
0.220775 0.738275 0.280775
0.243262 0.742012 0.284513
0.265750 0.745750 0.288250
0.288238 0.749488 0.291988
0.310725 0.753225 0.295725
0.333212 0.756962 0.299463
0.355700 0.760700 0.303200
0.378187 0.764437 0.306937
0.400675 0.768175 0.310675
0.423162 0.771913 0.314412
0.445650 0.775650 0.318150
0.468137 0.779388 0.321887
0.490625 0.783125 0.325625
0.513112 0.786863 0.329362
0.535600 0.790600 0.333100
0.558088 0.794338 0.336837
0.580575 0.798075 0.340575
0.603063 0.801813 0.344312
0.625550 0.805550 0.348050
0.647344 0.808421 0.351411
0.669056 0.811243 0.354746
0.690717 0.814057 0.358072
0.712327 0.816862 0.361390
0.733888 0.819659 0.364700
0.755398 0.822447 0.368002
0.776857 0.825227 0.371294
0.798266 0.827999 0.374579
0.819625 0.830762 0.377855
0.840933 0.833517 0.381123
