assets/luts/peach.cube
TITLE "peach"
LUT_3D_SIZE 5
0.160488 0.038762 0.003573
0.416370 0.023540 0.010082
0.660238 0.028907 0.016285
0.897600 0.035084 0.022323
1.000000 0.083604 0.065998
0.080204 0.346619 0.009434
0.416370 0.338217 0.010082
0.660238 0.299762 0.016285
0.897600 0.288147 0.022323
1.000000 0.307702 0.065998
0.080247 0.575340 0.015659
0.372915 0.575340 0.015659
0.660238 0.570617 0.016285
0.897600 0.541210 0.022323
1.000000 0.531800 0.065998
0.084727 0.797685 0.021710
0.356951 0.797685 0.021710
0.629175 0.797685 0.021710
0.897600 0.794273 0.022323
1.000000 0.755899 0.065998
0.134010 0.971392 0.065998
0.373795 0.971392 0.065998
0.613580 0.971392 0.065998
0.853366 0.971392 0.065998
1.000000 0.971392 0.065998
0.081072 0.022791 0.271326
0.413089 0.023703 0.254814
0.658364 0.029137 0.228200
0.896239 0.035326 0.220635
1.000000 0.084102 0.242146
0.079520 0.335450 0.254814
0.373080 0.301955 0.230267
0.629328 0.288902 0.221267
0.853659 0.308072 0.242080
1.000000 0.317726 0.250725
0.080750 0.568963 0.228200
0.358018 0.545636 0.221780
0.629328 0.543404 0.221267
0.853659 0.532124 0.242080
1.000000 0.540632 0.250725
0.085473 0.793051 0.220635
0.365850 0.763909 0.233428
0.614339 0.763909 0.233428
0.853659 0.756177 0.242080
1.000000 0.763538 0.250725
0.135935 0.972423 0.243201
0.384391 0.977884 0.250725
0.622900 0.977884 0.250725
0.861409 0.977884 0.250725
1.000000 0.977884 0.250725
0.079904 0.027658 0.475372
0.375896 0.027658 0.475372
0.658364 0.029137 0.465724
0.896239 0.035326 0.442902
1.000000 0.084102 0.439305
0.080226 0.301955 0.471120
0.358018 0.289697 0.447006
0.625984 0.287901 0.442902
0.855002 0.309762 0.440579
1.000000 0.319333 0.448159
0.080750 0.568963 0.465724
0.355728 0.540476 0.442902
0.613922 0.532124 0.439247
0.862659 0.541994 0.448103
1.000000 0.550140 0.455401
0.085473 0.793051 0.442902
0.375972 0.757454 0.440579
0.623293 0.763862 0.447216
0.862659 0.764725 0.448103
1.000000 0.771866 0.455401
0.135935 0.972423 0.440233
0.387264 0.979688 0.449042
0.632943 0.985077 0.455401
0.870190 0.985077 0.455401
1.000000 0.985077 0.455401
0.084164 0.033758 0.672232
0.358018 0.033758 0.672232
0.631873 0.033758 0.672232
0.896239 0.035326 0.665168
1.000000 0.084102 0.636463
0.084693 0.288902 0.669190
0.365850 0.299444 0.642158
0.614339 0.299444 0.642158
0.855002 0.309762 0.637563
1.000000 0.319333 0.644154
0.084693 0.543404 0.669190
0.374186 0.532124 0.636413
0.623293 0.541004 0.643330
0.863962 0.543409 0.645216
1.000000 0.551509 0.651604
0.085473 0.793051 0.665168
0.375972 0.757454 0.637563
0.625832 0.765960 0.645216
0.871409 0.773021 0.651557
1.000000 0.779990 0.657806
0.135935 0.972423 0.637264
0.387264 0.979688 0.644927
0.635394 0.986860 0.652355
0.878768 0.992191 0.657806
1.000000 0.992191 0.657806
0.117361 0.067211 0.846522
0.365850 0.067211 0.846522
0.614339 0.067211 0.846522
0.862828 0.067211 0.846522
1.000000 0.084102 0.833622
0.134449 0.308072 0.833579
0.384835 0.318147 0.839445
0.623293 0.318147 0.839445
0.861750 0.318147 0.839445
1.000000 0.319333 0.840150
0.134449 0.532124 0.833579
0.386016 0.541994 0.840109
0.633322 0.550498 0.845885
0.870523 0.550498 0.845885
1.000000 0.551509 0.846580
0.134449 0.756177 0.833579
0.386016 0.764725 0.840109
0.634328 0.773021 0.846539
0.879094 0.780299 0.852243
1.000000 0.781171 0.852930
0.135935 0.972423 0.834295
0.387264 0.979688 0.840813
0.635394 0.986860 0.847234
0.880882 0.993956 0.853576
1.000000 0.999237 0.858291
