assets/luts/peach.cube
TITLE "peach"
LUT_3D_SIZE 9
0.160488 0.038762 0.003573
0.290642 0.022511 0.006884
0.416370 0.023540 0.010082
0.539316 0.026018 0.013209
0.660238 0.028907 0.016285
0.779571 0.031958 0.019320
0.897600 0.035084 0.022323
1.000000 0.038250 0.025299
1.000000 0.083604 0.065998
0.089506 0.228442 0.006217
0.290642 0.213768 0.006884
0.416370 0.180879 0.010082
0.539316 0.169342 0.013209
0.660238 0.164334 0.016285
0.779571 0.162207 0.019320
0.897600 0.161616 0.022323
1.000000 0.161960 0.025299
1.000000 0.195653 0.065998
0.080204 0.346619 0.009434
0.253265 0.346619 0.009434
0.416370 0.338217 0.010082
0.539316 0.312666 0.013209
0.660238 0.299762 0.016285
0.779571 0.292457 0.019320
0.897600 0.288147 0.022323
1.000000 0.285670 0.025299
1.000000 0.307702 0.065998
0.079131 0.461982 0.012574
0.234823 0.461982 0.012574
0.390514 0.461982 0.012574
0.539316 0.455990 0.013209
0.660238 0.435190 0.016285
0.779571 0.422706 0.019320
0.897600 0.414679 0.022323
1.000000 0.409380 0.025299
1.000000 0.419751 0.065998
0.080247 0.575340 0.015659
0.226581 0.575340 0.015659
0.372915 0.575340 0.015659
0.519249 0.575340 0.015659
0.660238 0.570617 0.016285
0.779571 0.552955 0.019320
0.897600 0.541210 0.022323
1.000000 0.533090 0.025299
1.000000 0.531800 0.065998
0.082261 0.687145 0.018702
0.222606 0.687145 0.018702
0.362952 0.687145 0.018702
0.503297 0.687145 0.018702
0.643643 0.687145 0.018702
0.779571 0.683204 0.019320
0.897600 0.667742 0.022323
1.000000 0.656800 0.025299
1.000000 0.643850 0.065998
0.084727 0.797685 0.021710
0.220839 0.797685 0.021710
0.356951 0.797685 0.021710
0.493063 0.797685 0.021710
0.629175 0.797685 0.021710
0.765287 0.797685 0.021710
0.897600 0.794273 0.022323
1.000000 0.780510 0.025299
1.000000 0.755899 0.065998
0.087450 0.907160 0.024690
0.220369 0.907160 0.024690
0.353288 0.907160 0.024690
0.486207 0.907160 0.024690
0.619126 0.907160 0.024690
0.752045 0.907160 0.024690
0.884964 0.907160 0.024690
1.000000 0.904220 0.025299
1.000000 0.867948 0.065998
0.134010 0.971392 0.065998
0.253902 0.971392 0.065998
0.373795 0.971392 0.065998
0.493688 0.971392 0.065998
0.613580 0.971392 0.065998
0.733473 0.971392 0.065998
0.853366 0.971392 0.065998
0.973258 0.971392 0.065998
1.000000 0.971392 0.065998
0.095412 0.023770 0.162532
0.285060 0.022464 0.135861
0.413089 0.023703 0.117645
0.536952 0.026230 0.111607
0.658364 0.029137 0.109439
0.778002 0.032196 0.109005
0.896239 0.035326 0.109502
1.000000 0.038527 0.110666
1.000000 0.084102 0.143567
0.085008 0.209430 0.135861
0.253630 0.185160 0.120960
0.390820 0.171080 0.112816
0.519508 0.165107 0.109841
0.643867 0.162509 0.109012
0.765486 0.161651 0.109286
0.885144 0.161813 0.110204
0.973527 0.196045 0.143497
1.000000 0.200391 0.147386
0.079520 0.335450 0.117645
0.237605 0.321168 0.113889
0.390820 0.316732 0.112816
0.519508 0.301955 0.109841
0.643867 0.293732 0.109012
0.765486 0.288902 0.109286
0.885144 0.286070 0.110204
0.973527 0.308072 0.143497
1.000000 0.312169 0.147386
0.079308 0.453935 0.111607
0.227900 0.442601 0.110222
0.375896 0.442601 0.110222
0.519508 0.438803 0.109841
0.643867 0.424956 0.109012
0.765486 0.416153 0.109286
0.885144 0.410327 0.110204
0.973527 0.420098 0.143497
1.000000 0.423947 0.147386
0.080750 0.568963 0.109439
0.223238 0.559492 0.109070
0.364701 0.559492 0.109070
0.506165 0.559492 0.109070
0.643867 0.556179 0.109012
0.765486 0.543404 0.109286
0.885144 0.534584 0.110204
0.973527 0.532124 0.143497
1.000000 0.535725 0.147386
0.082921 0.681805 0.109005
0.221091 0.673605 0.109167
0.358018 0.673605 0.109167
0.494946 0.673605 0.109167
0.631873 0.673605 0.109167
0.765486 0.670655 0.109286
0.885144 0.658841 0.110204
0.973527 0.644151 0.143497
1.000000 0.647503 0.147386
0.085473 0.793051 0.109502
0.220389 0.785769 0.109977
0.353936 0.785769 0.109977
0.487483 0.785769 0.109977
0.621030 0.785769 0.109977
0.754577 0.785769 0.109977
0.885144 0.783098 0.110204
0.973527 0.756177 0.143497
1.000000 0.759281 0.147386
0.088314 0.903902 0.110666
0.241606 0.880026 0.131246
0.365850 0.880026 0.131246
0.490095 0.880026 0.131246
0.614339 0.880026 0.131246
0.738584 0.880026 0.131246
0.862828 0.880026 0.131246
0.973527 0.868204 0.143497
1.000000 0.871059 0.147386
0.135935 0.972423 0.144685
0.258913 0.974252 0.147386
0.378516 0.974252 0.147386
0.498118 0.974252 0.147386
0.617720 0.974252 0.147386
0.737323 0.974252 0.147386
0.856925 0.974252 0.147386
0.976527 0.974252 0.147386
1.000000 0.974252 0.147386
0.081072 0.022791 0.271326
0.260200 0.022791 0.271326
0.413089 0.023703 0.254814
0.536952 0.026230 0.237067
0.658364 0.029137 0.228200
0.778002 0.032196 0.223336
0.896239 0.035326 0.220635
1.000000 0.038527 0.219456
1.000000 0.084102 0.242146
0.080246 0.185160 0.263556
0.237605 0.173031 0.244249
0.384404 0.168798 0.237067
0.513961 0.164093 0.228200
0.638986 0.162118 0.223336
0.761111 0.161614 0.220635
0.881987 0.162152 0.219456
0.974760 0.197839 0.243595
1.000000 0.202142 0.247230
0.079520 0.335450 0.254814
0.231856 0.311367 0.237067
0.373080 0.301955 0.230267
0.503458 0.293732 0.224488
0.629328 0.288902 0.221267
0.752189 0.286070 0.219550
0.853659 0.308072 0.242080
0.977697 0.313751 0.247166
1.000000 0.317726 0.250725
0.079308 0.453935 0.237067
0.225154 0.434006 0.228200
0.364701 0.427283 0.225414
0.503458 0.424956 0.224488
0.629328 0.416153 0.221267
0.752189 0.410327 0.219550
0.853659 0.420098 0.242080
0.977697 0.425435 0.247166
1.000000 0.429179 0.250725
0.080750 0.568963 0.228200
0.221937 0.551884 0.223336
0.358018 0.545636 0.221780
0.494946 0.545636 0.221780
0.629328 0.543404 0.221267
0.752189 0.534584 0.219550
0.853659 0.532124 0.242080
0.977697 0.537119 0.247166
1.000000 0.540632 0.250725
0.082921 0.681805 0.223336
0.220601 0.666764 0.220635
0.353936 0.660959 0.219810
0.487483 0.660959 0.219810
0.621030 0.660959 0.219810
0.752189 0.658841 0.219550
0.853659 0.644151 0.242080
0.977697 0.648803 0.247166
1.000000 0.652085 0.250725
0.085473 0.793051 0.220635
0.220593 0.780277 0.219456
0.365850 0.763909 0.233428
0.490095 0.763909 0.233428
0.614339 0.763909 0.233428
0.738584 0.763909 0.233428
0.853659 0.756177 0.242080
0.977697 0.760487 0.247166
1.000000 0.763538 0.250725
0.088314 0.903902 0.219456
0.256215 0.869377 0.243595
0.378973 0.871362 0.246138
0.498548 0.871362 0.246138
0.618122 0.871362 0.246138
0.737697 0.871362 0.246138
0.857272 0.871362 0.246138
0.977697 0.872171 0.247166
1.000000 0.874991 0.250725
0.135935 0.972423 0.243201
0.262044 0.976068 0.248252
0.384391 0.977884 0.250725
0.503645 0.977884 0.250725
0.622900 0.977884 0.250725
0.742154 0.977884 0.250725
0.861409 0.977884 0.250725
0.980663 0.977884 0.250725
1.000000 0.977884 0.250725
0.079099 0.024895 0.374610
0.237605 0.024895 0.374610
0.396111 0.024895 0.374610
0.536952 0.026230 0.362527
0.658364 0.029137 0.346962
0.778002 0.032196 0.337667
0.896239 0.035326 0.331769
1.000000 0.038527 0.328246
1.000000 0.084102 0.340726
0.079126 0.171080 0.369163
0.227900 0.165972 0.353655
0.375896 0.165972 0.353655
0.513961 0.164093 0.346962
0.638986 0.162118 0.337667
0.761111 0.161614 0.331769
0.881987 0.162152 0.328246
0.974760 0.197839 0.342087
1.000000 0.202142 0.345509
0.079126 0.316732 0.369163
0.226653 0.301955 0.350693
0.364701 0.295074 0.341758
0.499970 0.292040 0.337667
0.625984 0.287901 0.331769
0.749709 0.285777 0.328246
0.855002 0.309762 0.342087
0.978915 0.315390 0.346831
1.000000 0.319333 0.350161
0.079308 0.453935 0.362527
0.225154 0.434006 0.346962
0.360953 0.421962 0.337667
0.493169 0.416153 0.333248
0.619234 0.410327 0.328896
0.733790 0.420098 0.340663
0.858195 0.425435 0.345448
0.981820 0.430629 0.350102
1.000000 0.434284 0.353374
0.080750 0.568963 0.346962
0.221937 0.551884 0.337667
0.355728 0.540476 0.331769
0.487483 0.536149 0.329643
0.619234 0.534584 0.328896
0.733790 0.532124 0.340663
0.858195 0.537119 0.345448
0.981820 0.541994 0.350102
1.000000 0.545432 0.353374
0.082921 0.681805 0.337667
0.220601 0.666764 0.331769
0.352872 0.656652 0.328246
0.490095 0.647793 0.335610
0.614339 0.647793 0.335610
0.733790 0.644151 0.340663
0.858195 0.648803 0.345448
0.981820 0.653359 0.350102
1.000000 0.656581 0.353374
0.085473 0.793051 0.331769
0.220593 0.780277 0.328246
0.375972 0.757454 0.342087
0.498548 0.759610 0.344480
0.618122 0.759610 0.344480
0.737697 0.759610 0.344480
0.858195 0.760487 0.345448
0.981820 0.764725 0.350102
1.000000 0.767730 0.353374
0.088314 0.903902 0.328246
0.256215 0.869377 0.342087
0.381920 0.873329 0.346831
0.504064 0.875291 0.349158
0.623293 0.875291 0.349158
0.742522 0.875291 0.349158
0.861750 0.875291 0.349158
0.981820 0.876090 0.350102
1.000000 0.878879 0.353374
0.135935 0.972423 0.341717
0.262044 0.976068 0.346471
0.387264 0.979688 0.351099
0.509040 0.981492 0.353374
0.627969 0.981492 0.353374
0.746899 0.981492 0.353374
0.865828 0.981492 0.353374
0.984757 0.981492 0.353374
1.000000 0.981492 0.353374
0.079904 0.027658 0.475372
0.227900 0.027658 0.475372
0.375896 0.027658 0.475372
0.523892 0.027658 0.475372
0.658364 0.029137 0.465724
0.778002 0.032196 0.451998
0.896239 0.035326 0.442902
1.000000 0.038527 0.437036
1.000000 0.084102 0.439305
0.080226 0.165107 0.471120
0.223238 0.162866 0.458101
0.364701 0.162866 0.458101
0.506165 0.162866 0.458101
0.638986 0.162118 0.451998
0.761111 0.161614 0.442902
0.881987 0.162152 0.437036
0.974760 0.197839 0.440579
1.000000 0.202142 0.443787
0.080226 0.301955 0.471120
0.222641 0.293732 0.455441
0.358018 0.289697 0.447006
0.494946 0.289697 0.447006
0.625984 0.287901 0.442902
0.749709 0.285777 0.437036
0.855002 0.309762 0.440579
0.978915 0.315390 0.445028
1.000000 0.319333 0.448159
0.080226 0.438803 0.471120
0.222641 0.424956 0.455441
0.357011 0.416153 0.445229
0.487483 0.411338 0.439476
0.617430 0.409402 0.437036
0.735245 0.421685 0.440579
0.859516 0.426978 0.445028
0.983026 0.432134 0.449372
1.000000 0.435764 0.452435
0.080750 0.568963 0.465724
0.221937 0.551884 0.451998
0.355728 0.540476 0.442902
0.485151 0.533027 0.437036
0.613922 0.532124 0.439247
0.738693 0.537119 0.443730
0.862659 0.541994 0.448103
0.985903 0.546767 0.452381
1.000000 0.550140 0.455401
0.082921 0.681805 0.451998
0.220601 0.666764 0.442902
0.352872 0.656652 0.437036
0.495730 0.645531 0.440579
0.618122 0.647858 0.442822
0.738693 0.648803 0.443730
0.862659 0.653359 0.448103
0.985903 0.657834 0.452381
1.000000 0.661003 0.455401
0.085473 0.793051 0.442902
0.220593 0.780277 0.437036
0.375972 0.757454 0.440579
0.501319 0.761741 0.445028
0.623293 0.763862 0.447216
0.742522 0.763862 0.447216
0.862659 0.764725 0.448103
0.985903 0.768900 0.452381
1.000000 0.771866 0.455401
0.088314 0.903902 0.437036
0.256215 0.869377 0.440579
0.381920 0.873329 0.445028
0.506768 0.877235 0.449372
0.628355 0.879176 0.451512
0.747260 0.879176 0.451512
0.866165 0.879176 0.451512
0.985903 0.879967 0.452381
1.000000 0.882729 0.455401
0.135935 0.972423 0.440233
0.262044 0.976068 0.444691
0.387264 0.979688 0.449042
0.511689 0.983284 0.453300
0.632943 0.985077 0.455401
0.751567 0.985077 0.455401
0.870190 0.985077 0.455401
0.988814 0.985077 0.455401
1.000000 0.985077 0.455401
0.081774 0.030657 0.574445
0.223238 0.030657 0.574445
0.364701 0.030657 0.574445
0.506165 0.030657 0.574445
0.647628 0.030657 0.574445
0.778002 0.032196 0.566330
0.896239 0.035326 0.554035
1.000000 0.038527 0.545826
1.000000 0.084102 0.537884
0.082232 0.162509 0.570918
0.221091 0.161727 0.559619
0.358018 0.161727 0.559619
0.494946 0.161727 0.559619
0.631873 0.161727 0.559619
0.761111 0.161614 0.554035
0.881987 0.162152 0.545826
0.974760 0.197839 0.539071
1.000000 0.202142 0.542065
0.082232 0.293732 0.570918
0.220852 0.288902 0.557209
0.353936 0.286528 0.549309
0.487483 0.286528 0.549309
0.621030 0.286528 0.549309
0.749709 0.285777 0.545826
0.855002 0.309762 0.539071
0.978915 0.315390 0.543226
1.000000 0.319333 0.546156
0.082232 0.424956 0.570918
0.220852 0.416153 0.557209
0.353324 0.410327 0.547589
0.490095 0.415560 0.539975
0.614339 0.415560 0.539975
0.735245 0.421685 0.539071
0.859516 0.426978 0.543226
0.983026 0.432134 0.547294
1.000000 0.435764 0.550170
0.082232 0.556179 0.570918
0.220852 0.543404 0.557209
0.353324 0.534584 0.547589
0.494054 0.532124 0.537830
0.618122 0.536106 0.541163
0.740117 0.538566 0.543226
0.863962 0.543409 0.547294
0.987098 0.548154 0.551288
1.000000 0.551509 0.554116
0.082921 0.681805 0.566330
0.220601 0.666764 0.554035
0.352872 0.656652 0.545826
0.495730 0.645531 0.539071
0.620718 0.650153 0.543226
0.743499 0.653359 0.546105
0.867062 0.657834 0.550119
0.989950 0.662235 0.554066
1.000000 0.665357 0.556863
0.085473 0.793051 0.554035
0.220593 0.780277 0.545826
0.375972 0.757454 0.539071
0.501319 0.761741 0.543226
0.625832 0.765960 0.547294
0.747260 0.768050 0.549303
0.867062 0.768900 0.550119
0.989950 0.773021 0.554066
1.000000 0.775951 0.556863
0.088314 0.903902 0.545826
0.256215 0.869377 0.539071
0.381920 0.873329 0.543226
0.506768 0.877235 0.547294
0.630845 0.881101 0.551288
0.751922 0.883023 0.553263
0.870523 0.883023 0.553263
0.989950 0.883806 0.554066
1.000000 0.886544 0.556863
0.135935 0.972423 0.538748
0.262044 0.976068 0.542910
0.387264 0.979688 0.546984
0.511689 0.983284 0.550984
0.635394 0.986860 0.554916
0.756167 0.988643 0.556863
0.874502 0.988643 0.556863
0.992837 0.988643 0.556863
1.000000 0.988643 0.556863
0.084164 0.033758 0.672232
0.221091 0.033758 0.672232
0.358018 0.033758 0.672232
0.494946 0.033758 0.672232
0.631873 0.033758 0.672232
0.768800 0.033758 0.672232
0.896239 0.035326 0.665168
1.000000 0.038527 0.654616
1.000000 0.084102 0.636463
0.084693 0.161651 0.669190
0.220389 0.161718 0.659142
0.353936 0.161718 0.659142
0.487483 0.161718 0.659142
0.621030 0.161718 0.659142
0.754577 0.161718 0.659142
0.881987 0.162152 0.654616
0.974760 0.197839 0.637563
1.000000 0.202142 0.640343
0.084693 0.288902 0.669190
0.220369 0.286070 0.656935
0.365850 0.299444 0.642158
0.490095 0.299444 0.642158
0.614339 0.299444 0.642158
0.738584 0.299444 0.642158
0.855002 0.309762 0.637563
0.978915 0.315390 0.641423
1.000000 0.319333 0.644154
0.084693 0.416153 0.669190
0.220369 0.410327 0.656935
0.374186 0.420098 0.636413
0.498548 0.424354 0.639505
0.618122 0.424354 0.639505
0.737697 0.424354 0.639505
0.859516 0.426978 0.641423
0.983026 0.432134 0.645216
1.000000 0.435764 0.647906
0.084693 0.543404 0.669190
0.220369 0.534584 0.656935
0.374186 0.532124 0.636413
0.499689 0.537119 0.640294
0.623293 0.541004 0.643330
0.742522 0.541004 0.643330
0.863962 0.543409 0.645216
0.987098 0.548154 0.648952
1.000000 0.551509 0.651604
0.084693 0.670655 0.669190
0.220369 0.658841 0.656935
0.374186 0.644151 0.636413
0.499689 0.648803 0.640294
0.624338 0.653359 0.644106
0.747260 0.656923 0.647094
0.868347 0.659137 0.648952
0.991135 0.663519 0.652637
1.000000 0.666628 0.655255
0.085473 0.793051 0.665168
0.220593 0.780277 0.654616
0.375972 0.757454 0.637563
0.501319 0.761741 0.641423
0.625832 0.765960 0.645216
0.749596 0.770119 0.648952
0.871409 0.773021 0.651557
0.993964 0.777092 0.655209
1.000000 0.779990 0.657806
0.088314 0.903902 0.654616
0.256215 0.869377 0.637563
0.381920 0.873329 0.641423
0.506768 0.877235 0.645216
0.630845 0.881101 0.648952
0.754224 0.884930 0.652637
0.874831 0.886835 0.654464
0.993964 0.887612 0.655209
1.000000 0.890327 0.657806
0.135935 0.972423 0.637264
0.262044 0.976068 0.641129
0.387264 0.979688 0.644927
0.511689 0.983284 0.648667
0.635394 0.986860 0.652355
0.758441 0.990416 0.655998
0.878768 0.992191 0.657806
0.996829 0.992191 0.657806
1.000000 0.992191 0.657806
0.086842 0.036908 0.768975
0.220389 0.036908 0.768975
0.353936 0.036908 0.768975
0.487483 0.036908 0.768975
0.621030 0.036908 0.768975
0.754577 0.036908 0.768975
0.888123 0.036908 0.768975
1.000000 0.038527 0.763406
1.000000 0.084102 0.735042
0.087414 0.161813 0.766281
0.241606 0.183327 0.744340
0.365850 0.183327 0.744340
0.490095 0.183327 0.744340
0.614339 0.183327 0.744340
0.738584 0.183327 0.744340
0.862828 0.183327 0.744340
0.974760 0.197839 0.736056
1.000000 0.202142 0.738622
0.087414 0.286070 0.766281
0.254318 0.308072 0.734996
0.378973 0.312602 0.737847
0.498548 0.312602 0.737847
0.618122 0.312602 0.737847
0.737697 0.312602 0.737847
0.857272 0.312602 0.737847
0.978915 0.315390 0.739620
1.000000 0.319333 0.742152
0.087414 0.410327 0.766281
0.254318 0.420098 0.734996
0.380187 0.425435 0.738576
0.504064 0.429576 0.741388
0.623293 0.429576 0.741388
0.742522 0.429576 0.741388
0.861750 0.429576 0.741388
0.983026 0.432134 0.743139
1.000000 0.435764 0.745641
0.087414 0.534584 0.766281
0.254318 0.532124 0.734996
0.380187 0.537119 0.738576
0.505177 0.541994 0.742107
0.628355 0.545797 0.744885
0.747260 0.545797 0.744885
0.866165 0.545797 0.744885
0.987098 0.548154 0.746616
1.000000 0.551509 0.749092
0.087414 0.658841 0.766281
0.254318 0.644151 0.734996
0.380187 0.648803 0.738576
0.505177 0.653359 0.742107
0.629379 0.657834 0.745597
0.751922 0.661339 0.748344
0.870523 0.661339 0.748344
0.991135 0.663519 0.750058
1.000000 0.666628 0.752510
0.087414 0.783098 0.766281
0.254318 0.756177 0.734996
0.380187 0.760487 0.738576
0.505177 0.764725 0.742107
0.629379 0.768900 0.745597
0.752869 0.773021 0.749048
0.874831 0.776262 0.751769
0.995140 0.778283 0.753467
1.000000 0.781171 0.755897
0.088314 0.903902 0.763406
0.256215 0.869377 0.736056
0.381920 0.873329 0.739620
0.506768 0.877235 0.743139
0.630845 0.881101 0.746616
0.754224 0.884930 0.750058
0.876965 0.888727 0.753467
0.997949 0.891388 0.755854
1.000000 0.894083 0.758271
0.135935 0.972423 0.735780
0.262044 0.976068 0.739348
0.387264 0.979688 0.742870
0.511689 0.983284 0.746351
0.635394 0.986860 0.749795
0.758441 0.990416 0.753206
0.880882 0.993956 0.756587
1.000000 0.995722 0.758271
1.000000 0.995722 0.758271
0.117361 0.067211 0.846522
0.241606 0.067211 0.846522
0.365850 0.067211 0.846522
0.490095 0.067211 0.846522
0.614339 0.067211 0.846522
0.738584 0.067211 0.846522
0.862828 0.067211 0.846522
0.987073 0.067211 0.846522
1.000000 0.084102 0.833622
0.134449 0.196045 0.833579
0.259398 0.200850 0.836189
0.378973 0.200850 0.836189
0.498548 0.200850 0.836189
0.618122 0.200850 0.836189
0.737697 0.200850 0.836189
0.857272 0.200850 0.836189
0.976847 0.200850 0.836189
1.000000 0.202142 0.836900
0.134449 0.308072 0.833579
0.260685 0.313751 0.836858
0.384835 0.318147 0.839445
0.504064 0.318147 0.839445
0.623293 0.318147 0.839445
0.742522 0.318147 0.839445
0.861750 0.318147 0.839445
0.980979 0.318147 0.839445
1.000000 0.319333 0.840150
0.134449 0.420098 0.833579
0.260685 0.425435 0.836858
0.386016 0.430629 0.840109
0.509450 0.434671 0.842676
0.628355 0.434671 0.842676
0.747260 0.434671 0.842676
0.866165 0.434671 0.842676
0.985070 0.434671 0.842676
1.000000 0.435764 0.843376
0.134449 0.532124 0.833579
0.260685 0.537119 0.836858
0.386016 0.541994 0.840109
0.510538 0.546767 0.843335
0.633322 0.550498 0.845885
0.751922 0.550498 0.845885
0.870523 0.550498 0.845885
0.989124 0.550498 0.845885
1.000000 0.551509 0.846580
0.134449 0.644151 0.833579
0.260685 0.648803 0.836858
0.386016 0.653359 0.840109
0.510538 0.657834 0.843335
0.634328 0.662235 0.846539
0.756518 0.665689 0.849073
0.874831 0.665689 0.849073
0.993144 0.665689 0.849073
1.000000 0.666628 0.849764
0.134449 0.756177 0.833579
0.260685 0.760487 0.836858
0.386016 0.764725 0.840109
0.510538 0.768900 0.843335
0.634328 0.773021 0.846539
0.757452 0.777092 0.849724
0.879094 0.780299 0.852243
0.997135 0.780299 0.852243
1.000000 0.781171 0.852930
0.134449 0.868204 0.833579
0.260685 0.872171 0.836858
0.386016 0.876090 0.840109
0.510538 0.879967 0.843335
0.634328 0.883806 0.846539
0.757452 0.887612 0.849724
0.879962 0.891388 0.852890
1.000000 0.894370 0.855395
1.000000 0.895183 0.856079
0.135935 0.972423 0.834295
0.262044 0.976068 0.837568
0.387264 0.979688 0.840813
0.511689 0.983284 0.844034
0.635394 0.986860 0.847234
0.758441 0.990416 0.850414
0.880882 0.993956 0.853576
1.000000 0.997478 0.856722
1.000000 0.999237 0.858291
