assets/luts/peach.cube
TITLE "peach"
LUT_3D_SIZE 33
0.160488 0.038762 0.003573
0.193612 0.027734 0.004416
0.226297 0.024322 0.005247
0.258622 0.022986 0.006070
0.290642 0.022511 0.006884
0.322399 0.022474 0.007692
0.353923 0.022689 0.008494
0.385240 0.023062 0.009290
0.416370 0.023540 0.010082
0.447330 0.024093 0.010870
0.478133 0.024698 0.011653
0.508792 0.025343 0.012433
0.539316 0.026018 0.013209
0.569716 0.026716 0.013983
0.599998 0.027433 0.014753
0.630170 0.028164 0.015520
0.660238 0.028907 0.016285
0.690207 0.029659 0.017047
0.720082 0.030419 0.017807
0.749869 0.031186 0.018565
0.779571 0.031958 0.019320
0.809192 0.032735 0.020074
0.838735 0.033515 0.020825
0.868203 0.034298 0.021575
0.897600 0.035084 0.022323
0.926928 0.035872 0.023069
0.956190 0.036662 0.023813
0.985388 0.037454 0.024556
1.000000 0.038250 0.025299
1.000000 0.039151 0.026110
1.000000 0.058173 0.043189
1.000000 0.083604 0.065998
1.000000 0.083604 0.065998
0.146876 0.136929 0.003727
0.193612 0.101679 0.004416
0.226297 0.084083 0.005247
0.258622 0.075360 0.006070
0.290642 0.070325 0.006884
0.322399 0.067178 0.007692
0.353923 0.065126 0.008494
0.385240 0.063767 0.009290
0.416370 0.062875 0.010082
0.447330 0.062312 0.010870
0.478133 0.061989 0.011653
0.508792 0.061849 0.012433
0.539316 0.061849 0.013209
0.569716 0.061960 0.013983
0.599998 0.062159 0.014753
0.630170 0.062431 0.015520
0.660238 0.062764 0.016285
0.690207 0.063146 0.017047
0.720082 0.063570 0.017807
0.749869 0.064030 0.018565
0.779571 0.064520 0.019320
0.809192 0.065038 0.020074
0.838735 0.065578 0.020825
0.868203 0.066139 0.021575
0.897600 0.066717 0.022323
0.926928 0.067311 0.023069
0.956190 0.067919 0.023813
0.985388 0.068539 0.024556
1.000000 0.069178 0.025299
1.000000 0.070010 0.026110
1.000000 0.087778 0.043189
1.000000 0.111616 0.065998
1.000000 0.111616 0.065998
0.110501 0.167805 0.004567
0.185917 0.167805 0.004567
0.226297 0.143845 0.005247
0.258622 0.127734 0.006070
0.290642 0.118139 0.006884
0.322399 0.111882 0.007692
0.353923 0.107563 0.008494
0.385240 0.104473 0.009290
0.416370 0.102210 0.010082
0.447330 0.100531 0.010870
0.478133 0.099281 0.011653
0.508792 0.098355 0.012433
0.539316 0.097680 0.013209
0.569716 0.097203 0.013983
0.599998 0.096886 0.014753
0.630170 0.096699 0.015520
0.660238 0.096620 0.016285
0.690207 0.096632 0.017047
0.720082 0.096720 0.017807
0.749869 0.096873 0.018565
0.779571 0.097083 0.019320
0.809192 0.097341 0.020074
0.838735 0.097641 0.020825
0.868203 0.097979 0.021575
0.897600 0.098350 0.022323
0.926928 0.098750 0.023069
0.956190 0.099176 0.023813
0.985388 0.099625 0.024556
1.000000 0.100105 0.025299
1.000000 0.100869 0.026110
1.000000 0.117384 0.043189
1.000000 0.139628 0.065998
1.000000 0.139628 0.065998
0.096589 0.198286 0.005397
0.158758 0.198286 0.005397
0.220926 0.198286 0.005397
0.258622 0.180107 0.006070
0.290642 0.165954 0.006884
0.322399 0.156586 0.007692
0.353923 0.150001 0.008494
0.385240 0.145178 0.009290
0.416370 0.141544 0.010082
0.447330 0.138750 0.010870
0.478133 0.136572 0.011653
0.508792 0.134861 0.012433
0.539316 0.133511 0.013209
0.569716 0.132447 0.013983
0.599998 0.131613 0.014753
0.630170 0.130967 0.015520
0.660238 0.130477 0.016285
0.690207 0.130119 0.017047
0.720082 0.129870 0.017807
0.749869 0.129717 0.018565
0.779571 0.129645 0.019320
0.809192 0.129644 0.020074
0.838735 0.129705 0.020825
0.868203 0.129820 0.021575
0.897600 0.129983 0.022323
0.926928 0.130189 0.023069
0.956190 0.130433 0.023813
0.985388 0.130711 0.024556
1.000000 0.131033 0.025299
1.000000 0.131728 0.026110
1.000000 0.146989 0.043189
1.000000 0.167640 0.065998
1.000000 0.167640 0.065998
0.089506 0.228442 0.006217
0.144500 0.228442 0.006217
0.199495 0.228442 0.006217
0.254490 0.228442 0.006217
0.290642 0.213768 0.006884
0.322399 0.201290 0.007692
0.353923 0.192438 0.008494
0.385240 0.185884 0.009290
0.416370 0.180879 0.010082
0.447330 0.176969 0.010870
0.478133 0.173864 0.011653
0.508792 0.171367 0.012433
0.539316 0.169342 0.013209
0.569716 0.167690 0.013983
0.599998 0.166339 0.014753
0.630170 0.165235 0.015520
0.660238 0.164334 0.016285
0.690207 0.163605 0.017047
0.720082 0.163021 0.017807
0.749869 0.162561 0.018565
0.779571 0.162207 0.019320
0.809192 0.161947 0.020074
0.838735 0.161768 0.020825
0.868203 0.161660 0.021575
0.897600 0.161616 0.022323
0.926928 0.161627 0.023069
0.956190 0.161689 0.023813
0.985388 0.161796 0.024556
1.000000 0.161960 0.025299
1.000000 0.162588 0.026110
1.000000 0.176595 0.043189
1.000000 0.195653 0.065998
1.000000 0.195653 0.065998
0.085398 0.258320 0.007031
0.135868 0.258320 0.007031
0.186338 0.258320 0.007031
0.236808 0.258320 0.007031
0.287278 0.258320 0.007031
0.322399 0.245994 0.007692
0.353923 0.234876 0.008494
0.385240 0.226589 0.009290
0.416370 0.220213 0.010082
0.447330 0.215188 0.010870
0.478133 0.211155 0.011653
0.508792 0.207873 0.012433
0.539316 0.205173 0.013209
0.569716 0.202934 0.013983
0.599998 0.201066 0.014753
0.630170 0.199503 0.015520
0.660238 0.198191 0.016285
0.690207 0.197092 0.017047
0.720082 0.196171 0.017807
0.749869 0.195404 0.018565
0.779571 0.194770 0.019320
0.809192 0.194250 0.020074
0.838735 0.193831 0.020825
0.868203 0.193501 0.021575
0.897600 0.193249 0.022323
0.926928 0.193066 0.023069
0.956190 0.192946 0.023813
0.985388 0.192882 0.024556
1.000000 0.192888 0.025299
1.000000 0.193447 0.026110
1.000000 0.206200 0.043189
1.000000 0.223665 0.065998
1.000000 0.223665 0.065998
0.082854 0.287958 0.007837
0.130194 0.287958 0.007837
0.177535 0.287958 0.007837
0.224875 0.287958 0.007837
0.272215 0.287958 0.007837
0.319556 0.287958 0.007837
0.353923 0.277313 0.008494
0.385240 0.267295 0.009290
0.416370 0.259548 0.010082
0.447330 0.253407 0.010870
0.478133 0.248447 0.011653
0.508792 0.244379 0.012433
0.539316 0.241004 0.013209
0.569716 0.238177 0.013983
0.599998 0.235793 0.014753
0.630170 0.233770 0.015520
0.660238 0.232048 0.016285
0.690207 0.230578 0.017047
0.720082 0.229322 0.017807
0.749869 0.228248 0.018565
0.779571 0.227332 0.019320
0.809192 0.226553 0.020074
0.838735 0.225894 0.020825
0.868203 0.225341 0.021575
0.897600 0.224882 0.022323
0.926928 0.224505 0.023069
0.956190 0.224203 0.023813
0.985388 0.223968 0.024556
1.000000 0.223815 0.025299
1.000000 0.224306 0.026110
1.000000 0.235806 0.043189
1.000000 0.251677 0.065998
1.000000 0.251677 0.065998
0.081233 0.317383 0.008638
0.126271 0.317383 0.008638
0.171308 0.317383 0.008638
0.216345 0.317383 0.008638
0.261383 0.317383 0.008638
0.306420 0.317383 0.008638
0.351457 0.317383 0.008638
0.385240 0.308000 0.009290
0.416370 0.298882 0.010082
0.447330 0.291626 0.010870
0.478133 0.285738 0.011653
0.508792 0.280885 0.012433
0.539316 0.276835 0.013209
0.569716 0.273421 0.013983
0.599998 0.270519 0.014753
0.630170 0.268038 0.015520
0.660238 0.265905 0.016285
0.690207 0.264065 0.017047
0.720082 0.262472 0.017807
0.749869 0.261092 0.018565
0.779571 0.259894 0.019320
0.809192 0.258856 0.020074
0.838735 0.257958 0.020825
0.868203 0.257182 0.021575
0.897600 0.256514 0.022323
0.926928 0.255944 0.023069
0.956190 0.255460 0.023813
0.985388 0.255053 0.024556
1.000000 0.254743 0.025299
1.000000 0.255165 0.026110
1.000000 0.265411 0.043189
1.000000 0.279690 0.065998
1.000000 0.279690 0.065998
0.080204 0.346619 0.009434
0.123469 0.346619 0.009434
0.166734 0.346619 0.009434
0.209999 0.346619 0.009434
0.253265 0.346619 0.009434
0.296530 0.346619 0.009434
0.339795 0.346619 0.009434
0.383060 0.346619 0.009434
0.416370 0.338217 0.010082
0.447330 0.329845 0.010870
0.478133 0.323030 0.011653
0.508792 0.317391 0.012433
0.539316 0.312666 0.013209
0.569716 0.308664 0.013983
0.599998 0.305246 0.014753
0.630170 0.302306 0.015520
0.660238 0.299762 0.016285
0.690207 0.297551 0.017047
0.720082 0.295622 0.017807
0.749869 0.293935 0.018565
0.779571 0.292457 0.019320
0.809192 0.291159 0.020074
0.838735 0.290021 0.020825
0.868203 0.289022 0.021575
0.897600 0.288147 0.022323
0.926928 0.287383 0.023069
0.956190 0.286717 0.023813
0.985388 0.286139 0.024556
1.000000 0.285670 0.025299
1.000000 0.286025 0.026110
1.000000 0.295017 0.043189
1.000000 0.307702 0.065998
1.000000 0.307702 0.065998
0.079577 0.375682 0.010225
0.121432 0.375682 0.010225
0.163286 0.375682 0.010225
0.205141 0.375682 0.010225
0.246995 0.375682 0.010225
0.288849 0.375682 0.010225
0.330704 0.375682 0.010225
0.372558 0.375682 0.010225
0.414413 0.375682 0.010225
0.447330 0.368065 0.010870
0.478133 0.360321 0.011653
0.508792 0.353897 0.012433
0.539316 0.348497 0.013209
0.569716 0.343908 0.013983
0.599998 0.339973 0.014753
0.630170 0.336574 0.015520
0.660238 0.333619 0.016285
0.690207 0.331037 0.017047
0.720082 0.328773 0.017807
0.749869 0.326779 0.018565
0.779571 0.325019 0.019320
0.809192 0.323462 0.020074
0.838735 0.322084 0.020825
0.868203 0.320863 0.021575
0.897600 0.319780 0.022323
0.926928 0.318821 0.023069
0.956190 0.317973 0.023813
0.985388 0.317225 0.024556
1.000000 0.316598 0.025299
1.000000 0.316884 0.026110
1.000000 0.324622 0.043189
1.000000 0.335714 0.065998
1.000000 0.335714 0.065998
0.079235 0.404589 0.011011
0.119937 0.404589 0.011011
0.160639 0.404589 0.011011
0.201341 0.404589 0.011011
0.242043 0.404589 0.011011
0.282744 0.404589 0.011011
0.323446 0.404589 0.011011
0.364148 0.404589 0.011011
0.404850 0.404589 0.011011
0.445551 0.404589 0.011011
0.478133 0.397613 0.011653
0.508792 0.390403 0.012433
0.539316 0.384328 0.013209
0.569716 0.379151 0.013983
0.599998 0.374699 0.014753
0.630170 0.370841 0.015520
0.660238 0.367476 0.016285
0.690207 0.364524 0.017047
0.720082 0.361923 0.017807
0.749869 0.359622 0.018565
0.779571 0.357581 0.019320
0.809192 0.355766 0.020074
0.838735 0.354147 0.020825
0.868203 0.352703 0.021575
0.897600 0.351413 0.022323
0.926928 0.350260 0.023069
0.956190 0.349230 0.023813
0.985388 0.348310 0.024556
1.000000 0.347525 0.025299
1.000000 0.347743 0.026110
1.000000 0.354228 0.043189
1.000000 0.363727 0.065998
1.000000 0.363727 0.065998
0.079104 0.433352 0.011794
0.118843 0.433352 0.011794
0.158583 0.433352 0.011794
0.198323 0.433352 0.011794
0.238063 0.433352 0.011794
0.277803 0.433352 0.011794
0.317542 0.433352 0.011794
0.357282 0.433352 0.011794
0.397022 0.433352 0.011794
0.436762 0.433352 0.011794
0.476502 0.433352 0.011794
0.508792 0.426909 0.012433
0.539316 0.420159 0.013209
0.569716 0.414395 0.013983
0.599998 0.409426 0.014753
0.630170 0.405109 0.015520
0.660238 0.401333 0.016285
0.690207 0.398010 0.017047
0.720082 0.395073 0.017807
0.749869 0.392466 0.018565
0.779571 0.390144 0.019320
0.809192 0.388069 0.020074
0.838735 0.386211 0.020825
0.868203 0.384544 0.021575
0.897600 0.383046 0.022323
0.926928 0.381699 0.023069
0.956190 0.380487 0.023813
0.985388 0.379396 0.024556
1.000000 0.378452 0.025299
1.000000 0.378603 0.026110
1.000000 0.383833 0.043189
1.000000 0.391739 0.065998
1.000000 0.391739 0.065998
0.079131 0.461982 0.012574
0.118054 0.461982 0.012574
0.156977 0.461982 0.012574
0.195900 0.461982 0.012574
0.234823 0.461982 0.012574
0.273746 0.461982 0.012574
0.312668 0.461982 0.012574
0.351591 0.461982 0.012574
0.390514 0.461982 0.012574
0.429437 0.461982 0.012574
0.468360 0.461982 0.012574
0.507283 0.461982 0.012574
0.539316 0.455990 0.013209
0.569716 0.449638 0.013983
0.599998 0.444153 0.014753
0.630170 0.439377 0.015520
0.660238 0.435190 0.016285
0.690207 0.431497 0.017047
0.720082 0.428224 0.017807
0.749869 0.425310 0.018565
0.779571 0.422706 0.019320
0.809192 0.420372 0.020074
0.838735 0.418274 0.020825
0.868203 0.416384 0.021575
0.897600 0.414679 0.022323
0.926928 0.413138 0.023069
0.956190 0.411744 0.023813
0.985388 0.410482 0.024556
1.000000 0.409380 0.025299
1.000000 0.409462 0.026110
1.000000 0.413439 0.043189
1.000000 0.419751 0.065998
1.000000 0.419751 0.065998
0.079282 0.490488 0.013349
0.117501 0.490488 0.013349
0.155720 0.490488 0.013349
0.193939 0.490488 0.013349
0.232158 0.490488 0.013349
0.270377 0.490488 0.013349
0.308597 0.490488 0.013349
0.346816 0.490488 0.013349
0.385035 0.490488 0.013349
0.423254 0.490488 0.013349
0.461473 0.490488 0.013349
0.499692 0.490488 0.013349
0.537912 0.490488 0.013349
0.569716 0.484882 0.013983
0.599998 0.478879 0.014753
0.630170 0.473645 0.015520
0.660238 0.469047 0.016285
0.690207 0.464983 0.017047
0.720082 0.461374 0.017807
0.749869 0.458153 0.018565
0.779571 0.455268 0.019320
0.809192 0.452675 0.020074
0.838735 0.450337 0.020825
0.868203 0.448225 0.021575
0.897600 0.446312 0.022323
0.926928 0.444577 0.023069
0.956190 0.443000 0.023813
0.985388 0.441567 0.024556
1.000000 0.440307 0.025299
1.000000 0.440321 0.026110
1.000000 0.443044 0.043189
1.000000 0.447763 0.065998
1.000000 0.447763 0.065998
0.079530 0.518878 0.014122
0.117135 0.518878 0.014122
0.154741 0.518878 0.014122
0.192346 0.518878 0.014122
0.229952 0.518878 0.014122
0.267557 0.518878 0.014122
0.305162 0.518878 0.014122
0.342768 0.518878 0.014122
0.380373 0.518878 0.014122
0.417979 0.518878 0.014122
0.455584 0.518878 0.014122
0.493189 0.518878 0.014122
0.530795 0.518878 0.014122
0.568400 0.518878 0.014122
0.599998 0.513606 0.014753
0.630170 0.507912 0.015520
0.660238 0.502904 0.016285
0.690207 0.498470 0.017047
0.720082 0.494524 0.017807
0.749869 0.490997 0.018565
0.779571 0.487830 0.019320
0.809192 0.484978 0.020074
0.838735 0.482400 0.020825
0.868203 0.480065 0.021575
0.897600 0.477945 0.022323
0.926928 0.476015 0.023069
0.956190 0.474257 0.023813
0.985388 0.472653 0.024556
1.000000 0.471235 0.025299
1.000000 0.471180 0.026110
1.000000 0.472650 0.043189
1.000000 0.475776 0.065998
1.000000 0.475776 0.065998
0.079857 0.547160 0.014892
0.116921 0.547160 0.014892
0.153986 0.547160 0.014892
0.191050 0.547160 0.014892
0.228115 0.547160 0.014892
0.265179 0.547160 0.014892
0.302244 0.547160 0.014892
0.339308 0.547160 0.014892
0.376373 0.547160 0.014892
0.413437 0.547160 0.014892
0.450502 0.547160 0.014892
0.487566 0.547160 0.014892
0.524631 0.547160 0.014892
0.561695 0.547160 0.014892
0.598760 0.547160 0.014892
0.630170 0.542180 0.015520
0.660238 0.536760 0.016285
0.690207 0.531956 0.017047
0.720082 0.527675 0.017807
0.749869 0.523841 0.018565
0.779571 0.520393 0.019320
0.809192 0.517281 0.020074
0.838735 0.514464 0.020825
0.868203 0.511906 0.021575
0.897600 0.509577 0.022323
0.926928 0.507454 0.023069
0.956190 0.505514 0.023813
0.985388 0.503739 0.024556
1.000000 0.502162 0.025299
1.000000 0.502040 0.026110
1.000000 0.502255 0.043189
1.000000 0.503788 0.065998
1.000000 0.503788 0.065998
0.080247 0.575340 0.015659
0.116831 0.575340 0.015659
0.153414 0.575340 0.015659
0.189998 0.575340 0.015659
0.226581 0.575340 0.015659
0.263165 0.575340 0.015659
0.299748 0.575340 0.015659
0.336332 0.575340 0.015659
0.372915 0.575340 0.015659
0.409499 0.575340 0.015659
0.446082 0.575340 0.015659
0.482666 0.575340 0.015659
0.519249 0.575340 0.015659
0.555832 0.575340 0.015659
0.592416 0.575340 0.015659
0.628999 0.575340 0.015659
0.660238 0.570617 0.016285
0.690207 0.565443 0.017047
0.720082 0.560825 0.017807
0.749869 0.556684 0.018565
0.779571 0.552955 0.019320
0.809192 0.549584 0.020074
0.838735 0.546527 0.020825
0.868203 0.543746 0.021575
0.897600 0.541210 0.022323
0.926928 0.538893 0.023069
0.956190 0.536771 0.023813
0.985388 0.534824 0.024556
1.000000 0.533090 0.025299
1.000000 0.532899 0.026110
1.000000 0.531861 0.043189
1.000000 0.531800 0.065998
1.000000 0.531800 0.065998
0.080691 0.603424 0.016423
0.116843 0.603424 0.016423
0.152995 0.603424 0.016423
0.189148 0.603424 0.016423
0.225300 0.603424 0.016423
0.261452 0.603424 0.016423
0.297604 0.603424 0.016423
0.333757 0.603424 0.016423
0.369909 0.603424 0.016423
0.406061 0.603424 0.016423
0.442213 0.603424 0.016423
0.478366 0.603424 0.016423
0.514518 0.603424 0.016423
0.550670 0.603424 0.016423
0.586822 0.603424 0.016423
0.622975 0.603424 0.016423
0.659127 0.603424 0.016423
0.690207 0.598929 0.017047
0.720082 0.593976 0.017807
0.749869 0.589528 0.018565
0.779571 0.585517 0.019320
0.809192 0.581887 0.020074
0.838735 0.578590 0.020825
0.868203 0.575587 0.021575
0.897600 0.572843 0.022323
0.926928 0.570332 0.023069
0.956190 0.568028 0.023813
0.985388 0.565910 0.024556
1.000000 0.564017 0.025299
1.000000 0.563758 0.026110
1.000000 0.561466 0.043189
1.000000 0.559813 0.065998
1.000000 0.559813 0.065998
0.081179 0.631416 0.017185
0.116942 0.631416 0.017185
0.152705 0.631416 0.017185
0.188468 0.631416 0.017185
0.224231 0.631416 0.017185
0.259994 0.631416 0.017185
0.295757 0.631416 0.017185
0.331520 0.631416 0.017185
0.367282 0.631416 0.017185
0.403045 0.631416 0.017185
0.438808 0.631416 0.017185
0.474571 0.631416 0.017185
0.510334 0.631416 0.017185
0.546097 0.631416 0.017185
0.581860 0.631416 0.017185
0.617623 0.631416 0.017185
0.653386 0.631416 0.017185
0.689149 0.631416 0.017185
0.720082 0.627126 0.017807
0.749869 0.622372 0.018565
0.779571 0.618080 0.019320
0.809192 0.614190 0.020074
0.838735 0.610653 0.020825
0.868203 0.607427 0.021575
0.897600 0.604476 0.022323
0.926928 0.601770 0.023069
0.956190 0.599284 0.023813
0.985388 0.596996 0.024556
1.000000 0.594945 0.025299
1.000000 0.594617 0.026110
1.000000 0.591072 0.043189
1.000000 0.587825 0.065998
1.000000 0.587825 0.065998
0.081704 0.659322 0.017944
0.117113 0.659322 0.017944
0.152523 0.659322 0.017944
0.187932 0.659322 0.017944
0.223341 0.659322 0.017944
0.258751 0.659322 0.017944
0.294160 0.659322 0.017944
0.329569 0.659322 0.017944
0.364979 0.659322 0.017944
0.400388 0.659322 0.017944
0.435797 0.659322 0.017944
0.471207 0.659322 0.017944
0.506616 0.659322 0.017944
0.542026 0.659322 0.017944
0.577435 0.659322 0.017944
0.612844 0.659322 0.017944
0.648254 0.659322 0.017944
0.683663 0.659322 0.017944
0.719072 0.659322 0.017944
0.749869 0.655215 0.018565
0.779571 0.650642 0.019320
0.809192 0.646493 0.020074
0.838735 0.642717 0.020825
0.868203 0.639267 0.021575
0.897600 0.636109 0.022323
0.926928 0.633209 0.023069
0.956190 0.630541 0.023813
0.985388 0.628081 0.024556
1.000000 0.625872 0.025299
1.000000 0.625477 0.026110
1.000000 0.620677 0.043189
1.000000 0.615837 0.065998
1.000000 0.615837 0.065998
0.082261 0.687145 0.018702
0.117347 0.687145 0.018702
0.152434 0.687145 0.018702
0.187520 0.687145 0.018702
0.222606 0.687145 0.018702
0.257693 0.687145 0.018702
0.292779 0.687145 0.018702
0.327865 0.687145 0.018702
0.362952 0.687145 0.018702
0.398038 0.687145 0.018702
0.433124 0.687145 0.018702
0.468211 0.687145 0.018702
0.503297 0.687145 0.018702
0.538384 0.687145 0.018702
0.573470 0.687145 0.018702
0.608556 0.687145 0.018702
0.643643 0.687145 0.018702
0.678729 0.687145 0.018702
0.713815 0.687145 0.018702
0.748902 0.687145 0.018702
0.779571 0.683204 0.019320
0.809192 0.678796 0.020074
0.838735 0.674780 0.020825
0.868203 0.671108 0.021575
0.897600 0.667742 0.022323
0.926928 0.664648 0.023069
0.956190 0.661798 0.023813
0.985388 0.659167 0.024556
1.000000 0.656800 0.025299
1.000000 0.656336 0.026110
1.000000 0.650282 0.043189
1.000000 0.643850 0.065998
1.000000 0.643850 0.065998
0.082845 0.714890 0.019457
0.117635 0.714890 0.019457
0.152425 0.714890 0.019457
0.187215 0.714890 0.019457
0.222004 0.714890 0.019457
0.256794 0.714890 0.019457
0.291584 0.714890 0.019457
0.326374 0.714890 0.019457
0.361164 0.714890 0.019457
0.395954 0.714890 0.019457
0.430744 0.714890 0.019457
0.465533 0.714890 0.019457
0.500323 0.714890 0.019457
0.535113 0.714890 0.019457
0.569903 0.714890 0.019457
0.604693 0.714890 0.019457
0.639483 0.714890 0.019457
0.674273 0.714890 0.019457
0.709062 0.714890 0.019457
0.743852 0.714890 0.019457
0.778642 0.714890 0.019457
0.809192 0.711099 0.020074
0.838735 0.706843 0.020825
0.868203 0.702948 0.021575
0.897600 0.699375 0.022323
0.926928 0.696087 0.023069
0.956190 0.693055 0.023813
0.985388 0.690253 0.024556
1.000000 0.687727 0.025299
1.000000 0.687195 0.026110
1.000000 0.679888 0.043189
1.000000 0.671862 0.065998
1.000000 0.671862 0.065998
0.083453 0.742559 0.020210
0.117969 0.742559 0.020210
0.152486 0.742559 0.020210
0.187002 0.742559 0.020210
0.221518 0.742559 0.020210
0.256035 0.742559 0.020210
0.290551 0.742559 0.020210
0.325068 0.742559 0.020210
0.359584 0.742559 0.020210
0.394101 0.742559 0.020210
0.428617 0.742559 0.020210
0.463134 0.742559 0.020210
0.497650 0.742559 0.020210
0.532166 0.742559 0.020210
0.566683 0.742559 0.020210
0.601199 0.742559 0.020210
0.635716 0.742559 0.020210
0.670232 0.742559 0.020210
0.704749 0.742559 0.020210
0.739265 0.742559 0.020210
0.773782 0.742559 0.020210
0.808298 0.742559 0.020210
0.838735 0.738906 0.020825
0.868203 0.734789 0.021575
0.897600 0.731008 0.022323
0.926928 0.727526 0.023069
0.956190 0.724312 0.023813
0.985388 0.721338 0.024556
1.000000 0.718655 0.025299
1.000000 0.718054 0.026110
1.000000 0.709493 0.043189
1.000000 0.699874 0.065998
1.000000 0.699874 0.065998
0.084081 0.770157 0.020961
0.118344 0.770157 0.020961
0.152607 0.770157 0.020961
0.186871 0.770157 0.020961
0.221134 0.770157 0.020961
0.255397 0.770157 0.020961
0.289661 0.770157 0.020961
0.323924 0.770157 0.020961
0.358187 0.770157 0.020961
0.392450 0.770157 0.020961
0.426714 0.770157 0.020961
0.460977 0.770157 0.020961
0.495240 0.770157 0.020961
0.529503 0.770157 0.020961
0.563767 0.770157 0.020961
0.598030 0.770157 0.020961
0.632293 0.770157 0.020961
0.666557 0.770157 0.020961
0.700820 0.770157 0.020961
0.735083 0.770157 0.020961
0.769346 0.770157 0.020961
0.803610 0.770157 0.020961
0.837873 0.770157 0.020961
0.868203 0.766629 0.021575
0.897600 0.762640 0.022323
0.926928 0.758964 0.023069
0.956190 0.755568 0.023813
0.985388 0.752424 0.024556
1.000000 0.749582 0.025299
1.000000 0.748914 0.026110
1.000000 0.739099 0.043189
1.000000 0.727886 0.065998
1.000000 0.727886 0.065998
0.084727 0.797685 0.021710
0.118755 0.797685 0.021710
0.152783 0.797685 0.021710
0.186811 0.797685 0.021710
0.220839 0.797685 0.021710
0.254867 0.797685 0.021710
0.288895 0.797685 0.021710
0.322923 0.797685 0.021710
0.356951 0.797685 0.021710
0.390979 0.797685 0.021710
0.425007 0.797685 0.021710
0.459035 0.797685 0.021710
0.493063 0.797685 0.021710
0.527091 0.797685 0.021710
0.561119 0.797685 0.021710
0.595147 0.797685 0.021710
0.629175 0.797685 0.021710
0.663203 0.797685 0.021710
0.697231 0.797685 0.021710
0.731259 0.797685 0.021710
0.765287 0.797685 0.021710
0.799315 0.797685 0.021710
0.833343 0.797685 0.021710
0.867371 0.797685 0.021710
0.897600 0.794273 0.022323
0.926928 0.790403 0.023069
0.956190 0.786825 0.023813
0.985388 0.783510 0.024556
1.000000 0.780510 0.025299
1.000000 0.779773 0.026110
1.000000 0.768704 0.043189
1.000000 0.755899 0.065998
1.000000 0.755899 0.065998
0.085388 0.825147 0.022458
0.119197 0.825147 0.022458
0.153006 0.825147 0.022458
0.186814 0.825147 0.022458
0.220623 0.825147 0.022458
0.254431 0.825147 0.022458
0.288240 0.825147 0.022458
0.322049 0.825147 0.022458
0.355857 0.825147 0.022458
0.389666 0.825147 0.022458
0.423475 0.825147 0.022458
0.457283 0.825147 0.022458
0.491092 0.825147 0.022458
0.524900 0.825147 0.022458
0.558709 0.825147 0.022458
0.592518 0.825147 0.022458
0.626326 0.825147 0.022458
0.660135 0.825147 0.022458
0.693943 0.825147 0.022458
0.727752 0.825147 0.022458
0.761561 0.825147 0.022458
0.795369 0.825147 0.022458
0.829178 0.825147 0.022458
0.862986 0.825147 0.022458
0.896795 0.825147 0.022458
0.926928 0.821842 0.023069
0.956190 0.818082 0.023813
0.985388 0.814595 0.024556
1.000000 0.811437 0.025299
1.000000 0.810632 0.026110
1.000000 0.798310 0.043189
1.000000 0.783911 0.065998
1.000000 0.783911 0.065998
0.086064 0.852546 0.023203
0.119667 0.852546 0.023203
0.153271 0.852546 0.023203
0.186874 0.852546 0.023203
0.220477 0.852546 0.023203
0.254081 0.852546 0.023203
0.287684 0.852546 0.023203
0.321288 0.852546 0.023203
0.354891 0.852546 0.023203
0.388494 0.852546 0.023203
0.422098 0.852546 0.023203
0.455701 0.852546 0.023203
0.489304 0.852546 0.023203
0.522908 0.852546 0.023203
0.556511 0.852546 0.023203
0.590115 0.852546 0.023203
0.623718 0.852546 0.023203
0.657321 0.852546 0.023203
0.690925 0.852546 0.023203
0.724528 0.852546 0.023203
0.758131 0.852546 0.023203
0.791735 0.852546 0.023203
0.825338 0.852546 0.023203
0.858942 0.852546 0.023203
0.892545 0.852546 0.023203
0.926148 0.852546 0.023203
0.956190 0.849339 0.023813
0.985388 0.845681 0.024556
1.000000 0.842365 0.025299
