assets/luts/retro_ccd.cube
TITLE "retro_ccd"
LUT_3D_SIZE 33
0.059012 0.082843 0.009087
0.106046 0.022275 0.010379
0.131847 0.019921 0.011725
0.157701 0.020007 0.013074
0.183600 0.020743 0.014425
0.209536 0.021745 0.015779
0.235507 0.022883 0.017134
0.261506 0.024100 0.018490
0.287533 0.025367 0.019848
0.313583 0.026667 0.021208
0.339656 0.027992 0.022568
0.365749 0.029334 0.023930
0.391861 0.030690 0.025292
0.417991 0.032057 0.026655
0.444138 0.033431 0.028020
0.470300 0.034813 0.029385
0.496477 0.036201 0.030751
0.522668 0.037593 0.032117
0.548872 0.038989 0.033485
0.575089 0.040389 0.034853
0.601318 0.041792 0.036221
0.627559 0.043197 0.037590
0.653811 0.044605 0.038960
0.680073 0.046015 0.040331
0.706346 0.047427 0.041701
0.732628 0.048841 0.043073
0.758920 0.050256 0.044445
0.785221 0.051673 0.045817
0.811532 0.053091 0.047190
0.837850 0.054510 0.048563
0.866699 0.056077 0.050068
0.895576 0.057646 0.051575
0.922059 0.059085 0.052957
0.019120 0.109388 0.010430
0.103785 0.109388 0.010430
0.131847 0.078576 0.011725
0.157701 0.067832 0.013074
0.183600 0.063053 0.014425
0.209536 0.060718 0.015779
0.235507 0.059621 0.017134
0.261506 0.059238 0.018490
0.287533 0.059304 0.019848
0.313583 0.059671 0.021208
0.339656 0.060249 0.022568
0.365749 0.060981 0.023930
0.391861 0.061830 0.025292
0.417991 0.062768 0.026655
0.444138 0.063776 0.028020
0.470300 0.064841 0.029385
0.496477 0.065952 0.030751
0.522668 0.067100 0.032117
0.548872 0.068281 0.033485
0.575089 0.069488 0.034853
0.601318 0.070718 0.036221
0.627559 0.071968 0.037590
0.653811 0.073235 0.038960
0.680073 0.074516 0.040331
0.706346 0.075811 0.041701
0.732628 0.077117 0.043073
0.758920 0.078433 0.044445
0.785221 0.079758 0.045817
0.811532 0.081092 0.047190
0.837850 0.082432 0.048563
0.866699 0.084008 0.050068
0.895576 0.085587 0.051575
0.922059 0.087033 0.052957
0.018116 0.136002 0.011777
0.074397 0.136002 0.011777
0.130677 0.136002 0.011777
0.157701 0.115657 0.013074
0.183600 0.105363 0.014425
0.209536 0.099690 0.015779
0.235507 0.096358 0.017134
0.261506 0.094376 0.018490
0.287533 0.093241 0.019848
0.313583 0.092674 0.021208
0.339656 0.092506 0.022568
0.365749 0.092628 0.023930
0.391861 0.092969 0.025292
0.417991 0.093479 0.026655
0.444138 0.094121 0.028020
0.470300 0.094868 0.029385
0.496477 0.095703 0.030751
0.522668 0.096608 0.032117
0.548872 0.097573 0.033485
0.575089 0.098588 0.034853
0.601318 0.099645 0.036221
0.627559 0.100739 0.037590
0.653811 0.101864 0.038960
0.680073 0.103017 0.040331
0.706346 0.104195 0.041701
0.732628 0.105393 0.043073
0.758920 0.106610 0.044445
0.785221 0.107844 0.045817
0.811532 0.109092 0.047190
0.837850 0.110355 0.048563
0.866699 0.111940 0.050068
0.895576 0.113527 0.051575
0.922059 0.114982 0.052957
0.018630 0.162671 0.013126
0.064728 0.162671 0.013126
0.110826 0.162671 0.013126
0.156924 0.162671 0.013126
0.183600 0.147674 0.014425
0.209536 0.138663 0.015779
0.235507 0.133096 0.017134
0.261506 0.129513 0.018490
0.287533 0.127178 0.019848
0.313583 0.125677 0.021208
0.339656 0.124763 0.022568
0.365749 0.124275 0.023930
0.391861 0.124109 0.025292
0.417991 0.124190 0.026655
0.444138 0.124465 0.028020
0.470300 0.124896 0.029385
0.496477 0.125454 0.030751
0.522668 0.126116 0.032117
0.548872 0.126865 0.033485
0.575089 0.127687 0.034853
0.601318 0.128572 0.036221
0.627559 0.129510 0.037590
0.653811 0.130494 0.038960
0.680073 0.131518 0.040331
0.706346 0.132578 0.041701
0.732628 0.133669 0.043073
0.758920 0.134787 0.044445
0.785221 0.135929 0.045817
0.811532 0.137093 0.047190
0.837850 0.138277 0.048563
0.866699 0.139871 0.050068
0.895576 0.141467 0.051575
0.922059 0.142930 0.052957
0.019558 0.189386 0.014477
0.060425 0.189386 0.014477
0.101292 0.189386 0.014477
0.142159 0.189386 0.014477
0.183026 0.189386 0.014477
0.209536 0.177635 0.015779
0.235507 0.169834 0.017134
0.261506 0.164651 0.018490
0.287533 0.161115 0.019848
0.313583 0.158681 0.021208
0.339656 0.157020 0.022568
0.365749 0.155922 0.023930
0.391861 0.155249 0.025292
0.417991 0.154901 0.026655
0.444138 0.154810 0.028020
0.470300 0.154924 0.029385
0.496477 0.155205 0.030751
0.522668 0.155623 0.032117
0.548872 0.156157 0.033485
0.575089 0.156786 0.034853
0.601318 0.157498 0.036221
0.627559 0.158280 0.037590
0.653811 0.159124 0.038960
0.680073 0.160019 0.040331
0.706346 0.160962 0.041701
0.732628 0.161945 0.043073
0.758920 0.162963 0.044445
0.785221 0.164014 0.045817
0.811532 0.165094 0.047190
0.837850 0.166199 0.048563
0.866699 0.167802 0.050068
0.895576 0.169408 0.051575
0.922059 0.170879 0.052957
0.020658 0.216140 0.015831
0.058344 0.216140 0.015831
0.096029 0.216140 0.015831
0.133715 0.216140 0.015831
0.171400 0.216140 0.015831
0.209086 0.216140 0.015831
0.235507 0.206571 0.017134
0.261506 0.199789 0.018490
0.287533 0.195052 0.019848
0.313583 0.191684 0.021208
0.339656 0.189277 0.022568
0.365749 0.187569 0.023930
0.391861 0.186388 0.025292
0.417991 0.185612 0.026655
0.444138 0.185154 0.028020
0.470300 0.184951 0.029385
0.496477 0.184956 0.030751
0.522668 0.185131 0.032117
0.548872 0.185448 0.033485
0.575089 0.185886 0.034853
0.601318 0.186425 0.036221
0.627559 0.187051 0.037590
0.653811 0.187753 0.038960
0.680073 0.188520 0.040331
0.706346 0.189345 0.041701
0.732628 0.190220 0.043073
0.758920 0.191140 0.044445
0.785221 0.192100 0.045817
0.811532 0.193095 0.047190
0.837850 0.194121 0.048563
0.866699 0.195733 0.050068
0.895576 0.197348 0.051575
0.922059 0.198828 0.052957
0.021847 0.242928 0.017186
0.057396 0.242928 0.017186
0.092945 0.242928 0.017186
0.128493 0.242928 0.017186
0.164042 0.242928 0.017186
0.199591 0.242928 0.017186
0.235139 0.242928 0.017186
0.261506 0.234927 0.018490
0.287533 0.228989 0.019848
0.313583 0.224687 0.021208
0.339656 0.221534 0.022568
0.365749 0.219217 0.023930
0.391861 0.217528 0.025292
0.417991 0.216323 0.026655
0.444138 0.215499 0.028020
0.470300 0.214979 0.029385
0.496477 0.214707 0.030751
0.522668 0.214639 0.032117
0.548872 0.214740 0.033485
0.575089 0.214985 0.034853
0.601318 0.215351 0.036221
0.627559 0.215822 0.037590
0.653811 0.216383 0.038960
0.680073 0.217021 0.040331
0.706346 0.217729 0.041701
0.732628 0.218496 0.043073
0.758920 0.219317 0.044445
0.785221 0.220185 0.045817
0.811532 0.221095 0.047190
0.837850 0.222044 0.048563
0.866699 0.223664 0.050068
0.895576 0.225288 0.051575
0.922059 0.226776 0.052957
0.023088 0.269746 0.018542
0.057104 0.269746 0.018542
0.091120 0.269746 0.018542
0.125136 0.269746 0.018542
0.159152 0.269746 0.018542
0.193167 0.269746 0.018542
0.227183 0.269746 0.018542
0.261199 0.269746 0.018542
0.287533 0.262926 0.019848
0.313583 0.257691 0.021208
0.339656 0.253791 0.022568
0.365749 0.250864 0.023930
0.391861 0.248667 0.025292
0.417991 0.247034 0.026655
0.444138 0.245843 0.028020
0.470300 0.245007 0.029385
0.496477 0.244458 0.030751
0.522668 0.244146 0.032117
0.548872 0.244032 0.033485
0.575089 0.244084 0.034853
0.601318 0.244278 0.036221
0.627559 0.244593 0.037590
0.653811 0.245012 0.038960
0.680073 0.245522 0.040331
0.706346 0.246112 0.041701
0.732628 0.246772 0.043073
0.758920 0.247494 0.044445
0.785221 0.248270 0.045817
0.811532 0.249096 0.047190
0.837850 0.249966 0.048563
0.866699 0.251595 0.050068
0.895576 0.253229 0.051575
0.922059 0.254725 0.052957
0.024362 0.296592 0.019900
0.057226 0.296592 0.019900
0.090089 0.296592 0.019900
0.122953 0.296592 0.019900
0.155816 0.296592 0.019900
0.188680 0.296592 0.019900
0.221544 0.296592 0.019900
0.254407 0.296592 0.019900
0.287271 0.296592 0.019900
0.313583 0.290694 0.021208
0.339656 0.286047 0.022568
0.365749 0.282511 0.023930
0.391861 0.279807 0.025292
0.417991 0.277745 0.026655
0.444138 0.276188 0.028020
0.470300 0.275034 0.029385
0.496477 0.274209 0.030751
0.522668 0.273654 0.032117
0.548872 0.273324 0.033485
0.575089 0.273184 0.034853
0.601318 0.273205 0.036221
0.627559 0.273364 0.037590
0.653811 0.273642 0.038960
0.680073 0.274023 0.040331
0.706346 0.274496 0.041701
0.732628 0.275048 0.043073
0.758920 0.275671 0.044445
0.785221 0.276356 0.045817
0.811532 0.277097 0.047190
0.837850 0.277888 0.048563
0.866699 0.279526 0.050068
0.895576 0.281169 0.051575
0.922059 0.282673 0.052957
0.025659 0.323462 0.021260
0.057625 0.323462 0.021260
0.089592 0.323462 0.021260
0.121558 0.323462 0.021260
0.153524 0.323462 0.021260
0.185491 0.323462 0.021260
0.217457 0.323462 0.021260
0.249424 0.323462 0.021260
0.281390 0.323462 0.021260
0.313357 0.323462 0.021260
0.339656 0.318304 0.022568
0.365749 0.314158 0.023930
0.391861 0.310947 0.025292
0.417991 0.308456 0.026655
0.444138 0.306532 0.028020
0.470300 0.305062 0.029385
0.496477 0.303960 0.030751
0.522668 0.303161 0.032117
0.548872 0.302616 0.033485
0.575089 0.302283 0.034853
0.601318 0.302131 0.036221
0.627559 0.302134 0.037590
0.653811 0.302271 0.038960
0.680073 0.302524 0.040331
0.706346 0.302879 0.041701
0.732628 0.303324 0.043073
0.758920 0.303847 0.044445
0.785221 0.304441 0.045817
0.811532 0.305098 0.047190
0.837850 0.305810 0.048563
0.866699 0.307457 0.050068
0.895576 0.309109 0.051575
0.922059 0.310622 0.052957
0.026971 0.350356 0.022620
0.058220 0.350356 0.022620
0.089469 0.350356 0.022620
0.120717 0.350356 0.022620
0.151966 0.350356 0.022620
0.183215 0.350356 0.022620
0.214463 0.350356 0.022620
0.245712 0.350356 0.022620
0.276960 0.350356 0.022620
0.308209 0.350356 0.022620
0.339458 0.350356 0.022620
0.365749 0.345805 0.023930
0.391861 0.342086 0.025292
0.417991 0.339167 0.026655
0.444138 0.336877 0.028020
0.470300 0.335090 0.029385
0.496477 0.333711 0.030751
0.522668 0.332669 0.032117
0.548872 0.331908 0.033485
0.575089 0.331382 0.034853
0.601318 0.331058 0.036221
0.627559 0.330905 0.037590
0.653811 0.330901 0.038960
0.680073 0.331025 0.040331
0.706346 0.331263 0.041701
0.732628 0.331600 0.043073
0.758920 0.332024 0.044445
0.785221 0.332527 0.045817
0.811532 0.333098 0.047190
0.837850 0.333733 0.048563
0.866699 0.335389 0.050068
0.895576 0.337050 0.051575
0.922059 0.338570 0.052957
0.028296 0.377270 0.023982
0.058958 0.377270 0.023982
0.089619 0.377270 0.023982
0.120281 0.377270 0.023982
0.150943 0.377270 0.023982
0.181604 0.377270 0.023982
0.212266 0.377270 0.023982
0.242927 0.377270 0.023982
0.273589 0.377270 0.023982
0.304251 0.377270 0.023982
0.334912 0.377270 0.023982
0.365574 0.377270 0.023982
0.391861 0.373226 0.025292
0.417991 0.369878 0.026655
0.444138 0.367221 0.028020
0.470300 0.365117 0.029385
0.496477 0.363462 0.030751
0.522668 0.362177 0.032117
0.548872 0.361200 0.033485
0.575089 0.360482 0.034853
0.601318 0.359984 0.036221
0.627559 0.359676 0.037590
0.653811 0.359530 0.038960
0.680073 0.359526 0.040331
0.706346 0.359647 0.041701
0.732628 0.359876 0.043073
0.758920 0.360201 0.044445
0.785221 0.360612 0.045817
0.811532 0.361099 0.047190
0.837850 0.361655 0.048563
0.866699 0.363320 0.050068
0.895576 0.364990 0.051575
0.922059 0.366519 0.052957
0.029630 0.404204 0.025344
0.059803 0.404204 0.025344
0.089976 0.404204 0.025344
0.120149 0.404204 0.025344
0.150322 0.404204 0.025344
0.180495 0.404204 0.025344
0.210668 0.404204 0.025344
0.240841 0.404204 0.025344
0.271014 0.404204 0.025344
0.301187 0.404204 0.025344
0.331360 0.404204 0.025344
0.361533 0.404204 0.025344
0.391706 0.404204 0.025344
0.417991 0.400589 0.026655
0.444138 0.397566 0.028020
0.470300 0.395145 0.029385
0.496477 0.393213 0.030751
0.522668 0.391684 0.032117
0.548872 0.390491 0.033485
0.575089 0.389581 0.034853
0.601318 0.388911 0.036221
0.627559 0.388447 0.037590
0.653811 0.388160 0.038960
0.680073 0.388027 0.040331
0.706346 0.388030 0.041701
0.732628 0.388151 0.043073
0.758920 0.388378 0.044445
0.785221 0.388697 0.045817
0.811532 0.389100 0.047190
0.837850 0.389577 0.048563
0.866699 0.391251 0.050068
0.895576 0.392930 0.051575
0.922059 0.394467 0.052957
0.030971 0.431156 0.026708
0.060731 0.431156 0.026708
0.090491 0.431156 0.026708
0.120251 0.431156 0.026708
0.150011 0.431156 0.026708
0.179771 0.431156 0.026708
0.209531 0.431156 0.026708
0.239291 0.431156 0.026708
0.269052 0.431156 0.026708
0.298812 0.431156 0.026708
0.328572 0.431156 0.026708
0.358332 0.431156 0.026708
0.388092 0.431156 0.026708
0.417852 0.431156 0.026708
0.444138 0.427911 0.028020
0.470300 0.425173 0.029385
0.496477 0.422964 0.030751
0.522668 0.421192 0.032117
0.548872 0.419783 0.033485
0.575089 0.418680 0.034853
0.601318 0.417838 0.036221
0.627559 0.417217 0.037590
0.653811 0.416789 0.038960
0.680073 0.416528 0.040331
0.706346 0.416414 0.041701
0.732628 0.416427 0.043073
0.758920 0.416555 0.044445
0.785221 0.416783 0.045817
0.811532 0.417101 0.047190
0.837850 0.417499 0.048563
0.866699 0.419182 0.050068
0.895576 0.420871 0.051575
0.922059 0.422416 0.052957
0.032317 0.458126 0.028072
0.061724 0.458126 0.028072
0.091131 0.458126 0.028072
0.120538 0.458126 0.028072
0.149945 0.458126 0.028072
0.179351 0.458126 0.028072
0.208758 0.458126 0.028072
0.238165 0.458126 0.028072
0.267572 0.458126 0.028072
0.296979 0.458126 0.028072
0.326386 0.458126 0.028072
0.355792 0.458126 0.028072
0.385199 0.458126 0.028072
0.414606 0.458126 0.028072
0.444013 0.458126 0.028072
0.470300 0.455200 0.029385
0.496477 0.452715 0.030751
0.522668 0.450700 0.032117
0.548872 0.449075 0.033485
0.575089 0.447780 0.034853
0.601318 0.446764 0.036221
0.627559 0.445988 0.037590
0.653811 0.445419 0.038960
0.680073 0.445029 0.040331
0.706346 0.444797 0.041701
0.732628 0.444703 0.043073
0.758920 0.444731 0.044445
0.785221 0.444868 0.045817
0.811532 0.445101 0.047190
0.837850 0.445421 0.048563
0.866699 0.447113 0.050068
0.895576 0.448811 0.051575
0.922059 0.450364 0.052957
0.033669 0.485111 0.029437
0.062770 0.485111 0.029437
0.091871 0.485111 0.029437
0.120973 0.485111 0.029437
0.150074 0.485111 0.029437
0.179175 0.485111 0.029437
0.208276 0.485111 0.029437
0.237378 0.485111 0.029437
0.266479 0.485111 0.029437
0.295580 0.485111 0.029437
0.324681 0.485111 0.029437
0.353782 0.485111 0.029437
0.382884 0.485111 0.029437
0.411985 0.485111 0.029437
0.441086 0.485111 0.029437
0.470187 0.485111 0.029437
0.496477 0.482466 0.030751
0.522668 0.480207 0.032117
0.548872 0.478367 0.033485
0.575089 0.476879 0.034853
0.601318 0.475691 0.036221
0.627559 0.474759 0.037590
0.653811 0.474048 0.038960
0.680073 0.473531 0.040331
0.706346 0.473181 0.041701
0.732628 0.472979 0.043073
0.758920 0.472908 0.044445
0.785221 0.472953 0.045817
0.811532 0.473102 0.047190
0.837850 0.473344 0.048563
0.866699 0.475044 0.050068
0.895576 0.476751 0.051575
0.922059 0.478313 0.052957
0.035024 0.512112 0.030803
0.063859 0.512112 0.030803
0.092693 0.512112 0.030803
0.121528 0.512112 0.030803
0.150362 0.512112 0.030803
0.179197 0.512112 0.030803
0.208031 0.512112 0.030803
0.236865 0.512112 0.030803
0.265700 0.512112 0.030803
0.294534 0.512112 0.030803
0.323369 0.512112 0.030803
0.352203 0.512112 0.030803
0.381037 0.512112 0.030803
0.409872 0.512112 0.030803
0.438706 0.512112 0.030803
0.467541 0.512112 0.030803
0.496375 0.512112 0.030803
0.522668 0.509715 0.032117
0.548872 0.507659 0.033485
0.575089 0.505978 0.034853
0.601318 0.504617 0.036221
0.627559 0.503530 0.037590
0.653811 0.502678 0.038960
0.680073 0.502032 0.040331
0.706346 0.501564 0.041701
0.732628 0.501255 0.043073
0.758920 0.501085 0.044445
0.785221 0.501039 0.045817
0.811532 0.501103 0.047190
0.837850 0.501266 0.048563
0.866699 0.502975 0.050068
0.895576 0.504692 0.051575
0.922059 0.506262 0.052957
0.036383 0.539127 0.032170
0.064983 0.539127 0.032170
0.093582 0.539127 0.032170
0.122182 0.539127 0.032170
0.150782 0.539127 0.032170
0.179381 0.539127 0.032170
0.207981 0.539127 0.032170
0.236580 0.539127 0.032170
0.265180 0.539127 0.032170
0.293779 0.539127 0.032170
0.322379 0.539127 0.032170
0.350978 0.539127 0.032170
0.379578 0.539127 0.032170
0.408177 0.539127 0.032170
0.436777 0.539127 0.032170
0.465377 0.539127 0.032170
0.493976 0.539127 0.032170
0.522576 0.539127 0.032170
0.548872 0.536951 0.033485
0.575089 0.535078 0.034853
0.601318 0.533544 0.036221
0.627559 0.532300 0.037590
0.653811 0.531308 0.038960
0.680073 0.530533 0.040331
0.706346 0.529948 0.041701
0.732628 0.529531 0.043073
0.758920 0.529262 0.044445
0.785221 0.529124 0.045817
0.811532 0.529104 0.047190
0.837850 0.529188 0.048563
0.866699 0.530906 0.050068
0.895576 0.532632 0.051575
0.922059 0.534210 0.052957
0.037745 0.566156 0.033537
0.066137 0.566156 0.033537
0.094528 0.566156 0.033537
0.122919 0.566156 0.033537
0.151310 0.566156 0.033537
0.179702 0.566156 0.033537
0.208093 0.566156 0.033537
0.236484 0.566156 0.033537
0.264876 0.566156 0.033537
0.293267 0.566156 0.033537
0.321658 0.566156 0.033537
0.350049 0.566156 0.033537
0.378441 0.566156 0.033537
0.406832 0.566156 0.033537
0.435223 0.566156 0.033537
0.463615 0.566156 0.033537
0.492006 0.566156 0.033537
0.520397 0.566156 0.033537
0.548788 0.566156 0.033537
0.575089 0.564177 0.034853
0.601318 0.562470 0.036221
0.627559 0.561071 0.037590
0.653811 0.559937 0.038960
0.680073 0.559034 0.040331
0.706346 0.558331 0.041701
0.732628 0.557807 0.043073
0.758920 0.557438 0.044445
0.785221 0.557209 0.045817
0.811532 0.557104 0.047190
0.837850 0.557110 0.048563
0.866699 0.558837 0.050068
0.895576 0.560572 0.051575
0.922059 0.562159 0.052957
0.039110 0.593198 0.034905
0.067315 0.593198 0.034905
0.095521 0.593198 0.034905
0.123726 0.593198 0.034905
0.151931 0.593198 0.034905
0.180137 0.593198 0.034905
0.208342 0.593198 0.034905
0.236548 0.593198 0.034905
0.264753 0.593198 0.034905
0.292959 0.593198 0.034905
0.321164 0.593198 0.034905
0.349369 0.593198 0.034905
0.377575 0.593198 0.034905
0.405780 0.593198 0.034905
0.433986 0.593198 0.034905
0.462191 0.593198 0.034905
0.490397 0.593198 0.034905
0.518602 0.593198 0.034905
0.546808 0.593198 0.034905
0.575013 0.593198 0.034905
0.601318 0.591397 0.036221
0.627559 0.589842 0.037590
0.653811 0.588567 0.038960
0.680073 0.587535 0.040331
0.706346 0.586715 0.041701
0.732628 0.586083 0.043073
0.758920 0.585615 0.044445
0.785221 0.585295 0.045817
0.811532 0.585105 0.047190
0.837850 0.585033 0.048563
0.866699 0.586769 0.050068
0.895576 0.588513 0.051575
0.922059 0.590107 0.052957
0.040476 0.620252 0.036274
0.068515 0.620252 0.036274
0.096554 0.620252 0.036274
0.124592 0.620252 0.036274
0.152631 0.620252 0.036274
0.180669 0.620252 0.036274
0.208708 0.620252 0.036274
0.236747 0.620252 0.036274
0.264785 0.620252 0.036274
0.292824 0.620252 0.036274
0.320863 0.620252 0.036274
0.348901 0.620252 0.036274
0.376940 0.620252 0.036274
0.404979 0.620252 0.036274
0.433017 0.620252 0.036274
0.461056 0.620252 0.036274
0.489094 0.620252 0.036274
0.517133 0.620252 0.036274
0.545172 0.620252 0.036274
0.573210 0.620252 0.036274
0.601249 0.620252 0.036274
0.627559 0.618613 0.037590
0.653811 0.617196 0.038960
0.680073 0.616036 0.040331
0.706346 0.615099 0.041701
0.732628 0.614358 0.043073
0.758920 0.613792 0.044445
0.785221 0.613380 0.045817
0.811532 0.613106 0.047190
0.837850 0.612955 0.048563
0.866699 0.614700 0.050068
0.895576 0.616453 0.051575
0.922059 0.618056 0.052957
0.041845 0.647318 0.037643
0.069733 0.647318 0.037643
0.097621 0.647318 0.037643
0.125509 0.647318 0.037643
0.153397 0.647318 0.037643
0.181286 0.647318 0.037643
0.209174 0.647318 0.037643
0.237062 0.647318 0.037643
0.264950 0.647318 0.037643
0.292838 0.647318 0.037643
0.320726 0.647318 0.037643
0.348614 0.647318 0.037643
0.376503 0.647318 0.037643
0.404391 0.647318 0.037643
0.432279 0.647318 0.037643
0.460167 0.647318 0.037643
0.488055 0.647318 0.037643
0.515943 0.647318 0.037643
0.543831 0.647318 0.037643
0.571720 0.647318 0.037643
0.599608 0.647318 0.037643
0.627496 0.647318 0.037643
0.653811 0.645826 0.038960
0.680073 0.644537 0.040331
0.706346 0.643482 0.041701
0.732628 0.642634 0.043073
0.758920 0.641969 0.044445
0.785221 0.641465 0.045817
0.811532 0.641107 0.047190
0.837850 0.640877 0.048563
0.866699 0.642631 0.050068
0.895576 0.644393 0.051575
0.922059 0.646004 0.052957
0.043215 0.674396 0.039013
0.070967 0.674396 0.039013
0.098719 0.674396 0.039013
0.126470 0.674396 0.039013
0.154222 0.674396 0.039013
0.181974 0.674396 0.039013
0.209726 0.674396 0.039013
0.237477 0.674396 0.039013
0.265229 0.674396 0.039013
0.292981 0.674396 0.039013
0.320732 0.674396 0.039013
0.348484 0.674396 0.039013
0.376236 0.674396 0.039013
0.403988 0.674396 0.039013
0.431739 0.674396 0.039013
0.459491 0.674396 0.039013
0.487243 0.674396 0.039013
0.514995 0.674396 0.039013
0.542746 0.674396 0.039013
0.570498 0.674396 0.039013
0.598250 0.674396 0.039013
0.626001 0.674396 0.039013
0.653753 0.674396 0.039013
0.680073 0.673038 0.040331
0.706346 0.671866 0.041701
0.732628 0.670910 0.043073
0.758920 0.670146 0.044445
0.785221 0.669551 0.045817
0.811532 0.669107 0.047190
0.837850 0.668799 0.048563
0.866699 0.670562 0.050068
0.895576 0.672334 0.051575
0.922059 0.673953 0.052957
0.044587 0.701485 0.040383
0.072215 0.701485 0.040383
0.099842 0.701485 0.040383
0.127470 0.701485 0.040383
0.155097 0.701485 0.040383
0.182725 0.701485 0.040383
0.210352 0.701485 0.040383
0.237980 0.701485 0.040383
0.265608 0.701485 0.040383
0.293235 0.701485 0.040383
0.320863 0.701485 0.040383
0.348490 0.701485 0.040383
0.376118 0.701485 0.040383
0.403745 0.701485 0.040383
0.431373 0.701485 0.040383
0.459000 0.701485 0.040383
0.486628 0.701485 0.040383
0.514255 0.701485 0.040383
0.541883 0.701485 0.040383
0.569511 0.701485 0.040383
0.597138 0.701485 0.040383
0.624766 0.701485 0.040383
0.652393 0.701485 0.040383
0.680021 0.701485 0.040383
0.706346 0.700249 0.041701
0.732628 0.699186 0.043073
0.758920 0.698322 0.044445
0.785221 0.697636 0.045817
0.811532 0.697108 0.047190
0.837850 0.696722 0.048563
0.866699 0.698493 0.050068
0.895576 0.700274 0.051575
0.922059 0.701901 0.052957
0.045960 0.728584 0.041754
0.073475 0.728584 0.041754
0.100989 0.728584 0.041754
0.128503 0.728584 0.041754
0.156017 0.728584 0.041754
0.183531 0.728584 0.041754
0.211045 0.728584 0.041754
0.238559 0.728584 0.041754
0.266073 0.728584 0.041754
0.293587 0.728584 0.041754
0.321101 0.728584 0.041754
0.348615 0.728584 0.041754
0.376129 0.728584 0.041754
0.403643 0.728584 0.041754
0.431157 0.728584 0.041754
0.458672 0.728584 0.041754
0.486186 0.728584 0.041754
0.513700 0.728584 0.041754
0.541214 0.728584 0.041754
0.568728 0.728584 0.041754
0.596242 0.728584 0.041754
0.623756 0.728584 0.041754
0.651270 0.728584 0.041754
0.678784 0.728584 0.041754
0.706298 0.728584 0.041754
0.732628 0.727462 0.043073
0.758920 0.726499 0.044445
0.785221 0.725721 0.045817
0.811532 0.725109 0.047190
0.837850 0.724644 0.048563
0.866699 0.726424 0.050068
0.895576 0.728214 0.051575
0.922059 0.729850 0.052957
0.047335 0.755693 0.043125
0.074745 0.755693 0.043125
0.102155 0.755693 0.043125
0.129565 0.755693 0.043125
0.156975 0.755693 0.043125
0.184385 0.755693 0.043125
0.211795 0.755693 0.043125
0.239205 0.755693 0.043125
0.266615 0.755693 0.043125
0.294025 0.755693 0.043125
0.321435 0.755693 0.043125
0.348845 0.755693 0.043125
0.376255 0.755693 0.043125
0.403665 0.755693 0.043125
0.431075 0.755693 0.043125
0.458485 0.755693 0.043125
0.485895 0.755693 0.043125
0.513305 0.755693 0.043125
0.540715 0.755693 0.043125
0.568125 0.755693 0.043125
0.595535 0.755693 0.043125
0.622945 0.755693 0.043125
0.650355 0.755693 0.043125
0.677765 0.755693 0.043125
0.705175 0.755693 0.043125
0.732585 0.755693 0.043125
0.758920 0.754676 0.044445
0.785221 0.753807 0.045817
0.811532 0.753109 0.047190
0.837850 0.752566 0.048563
0.866699 0.754355 0.050068
0.895576 0.756155 0.051575
0.922059 0.757798 0.052957
0.048711 0.782812 0.044497
0.076025 0.782812 0.044497
0.103339 0.782812 0.044497
0.130654 0.782812 0.044497
0.157968 0.782812 0.044497
0.185282 0.782812 0.044497
0.212596 0.782812 0.044497
0.239911 0.782812 0.044497
0.267225 0.782812 0.044497
0.294539 0.782812 0.044497
0.321853 0.782812 0.044497
0.349168 0.782812 0.044497
0.376482 0.782812 0.044497
0.403796 0.782812 0.044497
0.431110 0.782812 0.044497
0.458425 0.782812 0.044497
0.485739 0.782812 0.044497
0.513053 0.782812 0.044497
0.540367 0.782812 0.044497
0.567681 0.782812 0.044497
0.594996 0.782812 0.044497
0.622310 0.782812 0.044497
0.649624 0.782812 0.044497
0.676938 0.782812 0.044497
0.704253 0.782812 0.044497
0.731567 0.782812 0.044497
0.758881 0.782812 0.044497
0.785221 0.781892 0.045817
0.811532 0.781110 0.047190
