assets/luts/retro_ccd.cube
TITLE "retro_ccd"
LUT_3D_SIZE 9
0.059012 0.082843 0.009087
0.183600 0.020743 0.014425
0.287533 0.025367 0.019848
0.391861 0.030690 0.025292
0.496477 0.036201 0.030751
0.601318 0.041792 0.036221
0.706346 0.047427 0.041701
0.811532 0.053091 0.047190
0.922059 0.059085 0.052957
0.019558 0.189386 0.014477
0.183026 0.189386 0.014477
0.287533 0.161115 0.019848
0.391861 0.155249 0.025292
0.496477 0.155205 0.030751
0.601318 0.157498 0.036221
0.706346 0.160962 0.041701
0.811532 0.165094 0.047190
0.922059 0.170879 0.052957
0.024362 0.296592 0.019900
0.155816 0.296592 0.019900
0.287271 0.296592 0.019900
0.391861 0.279807 0.025292
0.496477 0.274209 0.030751
0.601318 0.273205 0.036221
0.706346 0.274496 0.041701
0.811532 0.277097 0.047190
0.922059 0.282673 0.052957
0.029630 0.404204 0.025344
0.150322 0.404204 0.025344
0.271014 0.404204 0.025344
0.391706 0.404204 0.025344
0.496477 0.393213 0.030751
0.601318 0.388911 0.036221
0.706346 0.388030 0.041701
0.811532 0.389100 0.047190
0.922059 0.394467 0.052957
0.035024 0.512112 0.030803
0.150362 0.512112 0.030803
0.265700 0.512112 0.030803
0.381037 0.512112 0.030803
0.496375 0.512112 0.030803
0.601318 0.504617 0.036221
0.706346 0.501564 0.041701
0.811532 0.501103 0.047190
0.922059 0.506262 0.052957
0.040476 0.620252 0.036274
0.152631 0.620252 0.036274
0.264785 0.620252 0.036274
0.376940 0.620252 0.036274
0.489094 0.620252 0.036274
0.601249 0.620252 0.036274
0.706346 0.615099 0.041701
0.811532 0.613106 0.047190
0.922059 0.618056 0.052957
0.045960 0.728584 0.041754
0.156017 0.728584 0.041754
0.266073 0.728584 0.041754
0.376129 0.728584 0.041754
0.486186 0.728584 0.041754
0.596242 0.728584 0.041754
0.706298 0.728584 0.041754
0.811532 0.725109 0.047190
0.922059 0.729850 0.052957
0.051466 0.837079 0.047243
0.160042 0.837079 0.047243
0.268618 0.837079 0.047243
0.377195 0.837079 0.047243
0.485771 0.837079 0.047243
0.594347 0.837079 0.047243
0.702923 0.837079 0.047243
0.811500 0.837079 0.047243
0.922059 0.841644 0.052957
0.057226 0.950040 0.052957
0.165612 0.950040 0.052957
0.273998 0.950040 0.052957
0.382384 0.950040 0.052957
0.490770 0.950040 0.052957
0.599156 0.950040 0.052957
0.707542 0.950040 0.052957
0.815928 0.950040 0.052957
0.922059 0.950040 0.052957
0.019353 0.020599 0.172845
0.181821 0.020854 0.168811
0.286713 0.025523 0.144703
0.391373 0.030856 0.140089
0.496157 0.036370 0.140518
0.601101 0.041963 0.142991
0.706196 0.047599 0.146492
0.811432 0.053264 0.150582
0.925573 0.055877 0.153708
0.019644 0.188131 0.168811
0.156279 0.161488 0.145324
0.271479 0.155334 0.140190
0.381376 0.155149 0.140402
0.489335 0.157377 0.142773
0.596407 0.160805 0.146219
0.703029 0.164916 0.150277
0.815787 0.170751 0.155903
0.933989 0.171878 0.156876
0.024469 0.296013 0.144703
0.150400 0.280106 0.140175
0.271388 0.280106 0.140175
0.381376 0.274324 0.140402
0.489335 0.273191 0.142773
0.596407 0.274413 0.146219
0.703029 0.276972 0.150277
0.815787 0.282542 0.155903
0.933989 0.285294 0.156876
0.029741 0.403860 0.140089
0.150305 0.393431 0.140417
0.265808 0.393431 0.140417
0.381310 0.393431 0.140417
0.489335 0.389005 0.142773
0.596407 0.388021 0.146219
0.703029 0.389029 0.150277
0.815787 0.394333 0.155903
0.933989 0.398711 0.156876
0.035137 0.511886 0.140518
0.152512 0.504771 0.142802
0.264771 0.504771 0.142802
0.377029 0.504771 0.142802
0.489288 0.504771 0.142802
0.596407 0.501629 0.146219
0.703029 0.501085 0.150277
0.815787 0.506125 0.155903
0.933989 0.512127 0.156876
0.040590 0.620098 0.142991
0.155864 0.615204 0.146256
0.265992 0.615204 0.146256
0.376119 0.615204 0.146256
0.486247 0.615204 0.146256
0.596375 0.615204 0.146256
0.703029 0.613142 0.150277
0.815787 0.617916 0.155903
0.933989 0.625543 0.156876
0.046075 0.728478 0.146492
0.159869 0.725177 0.150318
0.268497 0.725177 0.150318
0.377125 0.725177 0.150318
0.485753 0.725177 0.150318
0.594381 0.725177 0.150318
0.703009 0.725177 0.150318
0.815787 0.729707 0.155903
0.933989 0.738960 0.156876
0.051581 0.837008 0.150582
0.165547 0.841569 0.155962
0.273932 0.841569 0.155962
0.382316 0.841569 0.155962
0.490701 0.841569 0.155962
0.599085 0.841569 0.155962
0.707470 0.841569 0.155962
0.815855 0.841569 0.155962
0.933989 0.852376 0.156876
0.055098 0.952519 0.154445
0.166565 0.962345 0.156876
0.276524 0.962345 0.156876
0.386483 0.962345 0.156876
0.496442 0.962345 0.156876
0.606400 0.962345 0.156876
0.716359 0.962345 0.156876
0.826318 0.962345 0.156876
0.933989 0.962345 0.156876
0.024103 0.025157 0.276577
0.156279 0.025207 0.276314
0.286713 0.025523 0.274697
0.391373 0.030856 0.259596
0.496157 0.036370 0.254781
0.601101 0.041963 0.254128
0.706196 0.047599 0.255565
0.811432 0.053264 0.258198
0.925573 0.055877 0.261986
0.024103 0.161606 0.276577
0.150419 0.155334 0.260208
0.270829 0.155191 0.259596
0.380902 0.155249 0.254781
0.488998 0.157590 0.254128
0.596176 0.161079 0.255565
0.702881 0.165227 0.258198
0.820471 0.166894 0.260941
0.934423 0.172300 0.266297
0.024469 0.296013 0.274697
0.150285 0.279525 0.259596
0.265808 0.274296 0.254926
0.377051 0.273191 0.254091
0.486262 0.274413 0.255416
0.594389 0.276972 0.257982
0.707404 0.282542 0.263354
0.826443 0.285419 0.266008
0.940082 0.291280 0.271638
0.029741 0.403860 0.259596
0.150392 0.393007 0.254781
0.264771 0.388983 0.254095
0.377029 0.388983 0.254095
0.486262 0.388021 0.255416
0.594389 0.389029 0.257982
0.707404 0.394333 0.263354
0.826443 0.398836 0.266008
0.940082 0.404746 0.271638
0.035137 0.511886 0.254781
0.152692 0.504471 0.254128
0.265992 0.501614 0.255436
0.376119 0.501614 0.255436
0.486247 0.501614 0.255436
0.594389 0.501085 0.257982
0.707404 0.506125 0.263354
0.826443 0.512253 0.266008
0.940082 0.518213 0.271638
0.040590 0.620098 0.254128
0.156095 0.614999 0.255565
0.268497 0.613133 0.258011
0.377125 0.613133 0.258011
0.485753 0.613133 0.258011
0.594381 0.613133 0.258011
0.707404 0.617916 0.263354
0.826443 0.625671 0.266008
0.940082 0.631679 0.271638
0.046075 0.728478 0.255565
0.160131 0.725045 0.258198
0.273932 0.729776 0.263414
0.382316 0.729776 0.263414
0.490701 0.729776 0.263414
0.599085 0.729776 0.263414
0.707470 0.729776 0.263414
0.826443 0.739088 0.266008
0.940082 0.745145 0.271638
0.051581 0.837008 0.258198
0.161735 0.846344 0.260941
0.276700 0.852566 0.266063
0.386660 0.852566 0.266063
0.496621 0.852566 0.266063
0.606581 0.852566 0.266063
0.716541 0.852566 0.266063
0.826501 0.852566 0.266063
0.940082 0.858612 0.271638
0.055098 0.952519 0.262462
0.166919 0.962731 0.266242
0.282327 0.968629 0.271638
0.392334 0.968629 0.271638
0.502341 0.968629 0.271638
0.612348 0.968629 0.271638
0.722355 0.968629 0.271638
0.832363 0.968629 0.271638
0.940082 0.968629 0.271638
0.029360 0.030468 0.380226
0.150400 0.030520 0.380070
0.271388 0.030520 0.380070
0.391373 0.030856 0.379103
0.496157 0.036370 0.369045
0.601101 0.041963 0.365266
0.706196 0.047599 0.364639
0.811432 0.053264 0.365815
0.925573 0.055877 0.370263
0.029360 0.155334 0.380226
0.150293 0.155149 0.369497
0.265808 0.155162 0.369434
0.380902 0.155249 0.369045
0.488998 0.157590 0.365266
0.596176 0.161079 0.364639
0.702881 0.165227 0.365815
0.820471 0.166894 0.369786
0.934423 0.172300 0.375313
0.029360 0.280200 0.380226
0.150293 0.274324 0.369497
0.264768 0.273191 0.365408
0.376896 0.273217 0.365266
0.486156 0.274559 0.364639
0.594331 0.277191 0.365815
0.710681 0.280135 0.369786
0.826873 0.285844 0.375433
0.940516 0.291707 0.381112
0.029741 0.403860 0.379103
0.150392 0.393007 0.369045
0.264794 0.388844 0.365266
0.376119 0.388023 0.364616
0.485749 0.389029 0.365688
0.599020 0.394333 0.370804
0.716483 0.398836 0.375021
0.832488 0.404872 0.380819
0.946180 0.410803 0.386517
0.035137 0.511886 0.369045
0.152692 0.504471 0.365266
0.266115 0.501519 0.364639
0.377125 0.501089 0.365705
0.485753 0.501089 0.365705
0.599020 0.506125 0.370804
0.716483 0.512253 0.375021
0.832488 0.518339 0.380819
0.946180 0.524316 0.386517
0.040590 0.620098 0.365266
0.156095 0.614999 0.364639
0.268681 0.613081 0.365815
0.382316 0.617983 0.370866
0.490701 0.617983 0.370866
0.599085 0.617983 0.370866
0.716483 0.625671 0.375021
0.832488 0.631807 0.380819
0.946180 0.637830 0.386517
0.046075 0.728478 0.364639
0.160131 0.725045 0.365815
0.271524 0.733102 0.369786
0.386660 0.739148 0.375077
0.496621 0.739148 0.375077
0.606581 0.739148 0.375077
0.716541 0.739148 0.375077
0.832488 0.745274 0.380819
0.946180 0.751343 0.386517
0.051581 0.837008 0.365815
0.161735 0.846344 0.369786
0.277057 0.852949 0.375433
0.392512 0.858801 0.380875
0.502521 0.858801 0.380875
0.612529 0.858801 0.380875
0.722538 0.858801 0.380875
0.832546 0.858801 0.380875
0.946180 0.864857 0.386517
0.055098 0.952519 0.370478
0.166919 0.962731 0.375257
0.282685 0.969016 0.381056
0.398205 0.974919 0.386517
0.508258 0.974919 0.386517
0.618311 0.974919 0.386517
0.728364 0.974919 0.386517
0.838417 0.974919 0.386517
0.946180 0.974919 0.386517
0.034751 0.035974 0.484045
0.150305 0.036027 0.483943
0.265808 0.036027 0.483943
0.381310 0.036027 0.483943
0.496157 0.036370 0.483308
0.601101 0.041963 0.476403
0.706196 0.047599 0.473712
0.811432 0.053264 0.473431
0.925573 0.055877 0.478540
0.034751 0.155149 0.484045
0.152484 0.157377 0.476725
0.264771 0.157405 0.476681
0.377029 0.157405 0.476681
0.488998 0.157590 0.476403
0.596176 0.161079 0.473712
0.702881 0.165227 0.473431
0.820471 0.166894 0.478631
0.934423 0.172300 0.484329
0.034751 0.274324 0.484045
0.152484 0.273191 0.476725
0.265973 0.274413 0.473810
0.376119 0.274432 0.473796
0.486156 0.274559 0.473712
0.594331 0.277191 0.473431
0.710681 0.280135 0.478631
0.826873 0.285844 0.484450
0.940516 0.291707 0.490176
0.034751 0.393499 0.484045
0.152484 0.389005 0.476725
0.265973 0.388021 0.473810
0.377109 0.389029 0.473393
0.485781 0.389154 0.473431
0.600892 0.393377 0.478631
0.716910 0.399265 0.484450
0.832919 0.405303 0.490298
0.946615 0.411235 0.496041
0.035137 0.511886 0.483308
0.152692 0.504471 0.476403
0.266115 0.501519 0.473712
0.377231 0.501118 0.473431
0.490701 0.506190 0.478318
0.606524 0.512253 0.484035
0.722480 0.518339 0.489881
0.838543 0.524443 0.495745
0.952285 0.530436 0.501502
0.040590 0.620098 0.476403
0.156095 0.614999 0.473712
0.268681 0.613081 0.473431
0.381313 0.619860 0.478631
0.496621 0.625730 0.484091
0.606581 0.625730 0.484091
0.722480 0.631807 0.489881
0.838543 0.637958 0.495745
0.952285 0.643994 0.501502
0.046075 0.728478 0.473712
0.160131 0.725045 0.473431
0.271524 0.733102 0.478631
0.387020 0.739528 0.484450
0.502521 0.745334 0.489937
0.612529 0.745334 0.489937
0.722538 0.745334 0.489937
0.838543 0.751472 0.495745
0.952285 0.757552 0.501502
0.051581 0.837008 0.473431
0.161735 0.846344 0.478631
0.277057 0.852949 0.484450
0.392873 0.859186 0.490298
0.508438 0.865047 0.495801
0.618493 0.865047 0.495801
0.728547 0.865047 0.495801
0.838601 0.865047 0.495801
0.952285 0.871110 0.501502
0.055098 0.952519 0.478494
0.166919 0.962731 0.484273
0.282685 0.969016 0.490120
0.398568 0.975307 0.495984
0.514191 0.981216 0.501502
0.624287 0.981216 0.501502
0.734383 0.981216 0.501502
0.844479 0.981216 0.501502
0.952285 0.981216 0.501502
0.040201 0.041563 0.588043
0.152512 0.041617 0.587974
0.264771 0.041617 0.587974
0.377029 0.041617 0.587974
0.489288 0.041617 0.587974
0.601101 0.041963 0.587541
0.706196 0.047599 0.582786
0.811432 0.053264 0.581047
0.925573 0.055877 0.586817
0.040201 0.157377 0.588043
0.155828 0.160805 0.583007
0.265992 0.160842 0.582976
0.376119 0.160842 0.582976
0.486247 0.160842 0.582976
0.596176 0.161079 0.582786
0.702881 0.165227 0.581047
0.820471 0.166894 0.587475
0.934423 0.172300 0.593345
0.040201 0.273191 0.588043
0.155828 0.274413 0.583007
0.268468 0.276972 0.581099
0.377125 0.277002 0.581091
0.485753 0.277002 0.581091
0.594331 0.277191 0.581047
0.710681 0.280135 0.587475
0.826873 0.285844 0.593467
0.940516 0.291707 0.599240
0.040201 0.389005 0.588043
0.155828 0.388021 0.583007
0.268468 0.389029 0.581099
0.382254 0.394333 0.585706
0.490701 0.394398 0.585770
0.600892 0.393377 0.587475
0.716910 0.399265 0.593467
0.832919 0.405303 0.599363
0.946615 0.411235 0.605150
0.040201 0.504820 0.588043
0.155828 0.501629 0.583007
0.268468 0.501085 0.581099
0.382254 0.506125 0.585706
0.496564 0.512253 0.593048
0.606947 0.512686 0.593467
0.722908 0.518773 0.599363
0.838974 0.524879 0.605273
0.952720 0.530872 0.611072
0.040590 0.620098 0.587541
0.156095 0.614999 0.582786
0.268681 0.613081 0.581047
0.381313 0.619860 0.587475
0.496983 0.626107 0.593467
0.612529 0.631866 0.598999
0.728489 0.637958 0.604851
0.844605 0.644122 0.610774
0.958394 0.650170 0.616584
0.046075 0.728478 0.582786
0.160131 0.725045 0.581047
0.271524 0.733102 0.587475
0.387020 0.739528 0.593467
0.502885 0.745715 0.599363
0.618493 0.751532 0.604908
0.728547 0.751532 0.604908
0.844605 0.757681 0.610774
0.958394 0.763770 0.616584
0.051581 0.837008 0.581047
0.161735 0.846344 0.587475
0.277057 0.852949 0.593467
0.392873 0.859186 0.599363
0.508803 0.865432 0.605273
0.624469 0.871300 0.610830
0.734566 0.871300 0.610830
0.844663 0.871300 0.610830
0.958394 0.877371 0.616584
0.055098 0.952519 0.586511
0.166919 0.962731 0.593288
0.282685 0.969016 0.599183
0.398568 0.975307 0.605093
0.514557 0.981604 0.611015
0.630275 0.987517 0.616584
0.740411 0.987517 0.616584
0.850548 0.987517 0.616584
0.958394 0.987517 0.616584
0.045683 0.047197 0.692204
0.155864 0.047251 0.692156
0.265992 0.047251 0.692156
0.376119 0.047251 0.692156
0.486247 0.047251 0.692156
0.596375 0.047251 0.692156
0.706196 0.047599 0.691860
0.811432 0.053264 0.688663
0.925573 0.055877 0.695095
0.045683 0.160805 0.692204
0.159828 0.164916 0.688804
0.268497 0.164958 0.688784
0.377125 0.164958 0.688784
0.485753 0.164958 0.688784
0.594381 0.164958 0.688784
0.702881 0.165227 0.688663
0.820471 0.166894 0.696320
0.934423 0.172300 0.702361
0.045683 0.274413 0.692204
0.159828 0.276972 0.688804
0.273871 0.282542 0.693156
0.382316 0.282605 0.693222
0.490701 0.282605 0.693222
0.599085 0.282605 0.693222
0.710681 0.280135 0.696320
0.826873 0.285844 0.702484
0.940516 0.291707 0.708304
0.045683 0.388021 0.692204
0.159828 0.389029 0.688804
0.273871 0.394333 0.693156
0.386604 0.398836 0.702062
0.496621 0.398894 0.702119
0.606581 0.398894 0.702119
0.716910 0.399265 0.702484
0.832919 0.405303 0.708428
0.946615 0.411235 0.714259
0.045683 0.501629 0.692204
0.159828 0.501085 0.688804
0.273871 0.506125 0.693156
0.386604 0.512253 0.702062
0.502464 0.518339 0.708004
0.612529 0.518398 0.708061
0.722908 0.518773 0.708428
0.838974 0.524879 0.714383
0.952720 0.530872 0.720224
0.045683 0.615237 0.692204
0.159828 0.613142 0.688804
0.273871 0.617916 0.693156
0.386604 0.625671 0.702062
0.502464 0.631807 0.708004
0.618435 0.637958 0.713958
0.728917 0.638396 0.714383
0.845037 0.644562 0.720348
0.958829 0.650611 0.726199
0.046075 0.728478 0.691860
0.160131 0.725045 0.688663
0.271524 0.733102 0.696320
0.387020 0.739528 0.702484
0.502885 0.745715 0.708428
0.618860 0.751914 0.714383
0.734566 0.757741 0.719980
0.850675 0.763900 0.725897
0.964509 0.769998 0.731756
0.051581 0.837008 0.688663
0.161735 0.846344 0.696320
0.277057 0.852949 0.702484
0.392873 0.859186 0.708428
0.508803 0.865432 0.714383
0.624837 0.871685 0.720348
0.740595 0.877561 0.725955
0.850733 0.877561 0.725955
0.964509 0.883638 0.731756
0.055098 0.952519 0.694527
0.166919 0.962731 0.702304
0.282685 0.969016 0.708247
0.398568 0.975307 0.714201
0.514557 0.981604 0.720167
0.630644 0.987906 0.726141
0.746449 0.993824 0.731756
0.856624 0.993824 0.731756
0.964509 0.993824 0.731756
0.051188 0.052860 0.796510
0.159869 0.052914 0.796478
0.268497 0.052914 0.796478
0.377125 0.052914 0.796478
0.485753 0.052914 0.796478
0.594381 0.052914 0.796478
0.703009 0.052914 0.796478
0.811432 0.053264 0.796279
0.925573 0.055877 0.803372
0.051188 0.164916 0.796510
0.165488 0.170751 0.800607
0.273932 0.170812 0.800674
0.382316 0.170812 0.800674
0.490701 0.170812 0.800674
0.599085 0.170812 0.800674
0.707470 0.170812 0.800674
0.820471 0.166894 0.805165
0.934423 0.172300 0.811377
0.051188 0.276972 0.796510
0.165488 0.282542 0.800607
0.276645 0.285419 0.811075
0.386660 0.285476 0.811133
0.496621 0.285476 0.811133
0.606581 0.285476 0.811133
0.716541 0.285476 0.811133
0.826873 0.285844 0.811502
0.940516 0.291707 0.817368
0.051188 0.389029 0.796510
0.165488 0.394333 0.800607
0.276645 0.398836 0.811075
0.392456 0.404872 0.817066
0.502521 0.404930 0.817123
0.612529 0.404930 0.817123
0.722538 0.404930 0.817123
0.832919 0.405303 0.817493
0.946615 0.411235 0.823368
0.051188 0.501085 0.796510
0.165488 0.506125 0.800607
0.276645 0.512253 0.811075
0.392456 0.518339 0.817066
0.508381 0.524443 0.823065
0.618493 0.524502 0.823123
0.728547 0.524502 0.823123
0.838974 0.524879 0.823492
0.952720 0.530872 0.829375
0.051188 0.613142 0.796510
0.165488 0.617916 0.800607
0.276645 0.625671 0.811075
0.392456 0.631807 0.817066
0.508381 0.637958 0.823065
0.624411 0.644122 0.829073
0.734566 0.644182 0.829130
0.845037 0.644562 0.829501
0.958829 0.650611 0.835391
0.051188 0.725198 0.796510
0.165488 0.729707 0.800607
0.276645 0.739088 0.811075
0.392456 0.745274 0.817066
0.508381 0.751472 0.823065
0.624411 0.757681 0.829073
0.740537 0.763900 0.835087
0.851107 0.764343 0.835516
0.964944 0.770442 0.841413
0.051581 0.837008 0.796279
0.161735 0.846344 0.805165
0.277057 0.852949 0.811502
0.392873 0.859186 0.817493
0.508803 0.865432 0.823492
0.624837 0.871685 0.829501
0.740966 0.877947 0.835516
0.856809 0.883829 0.841167
0.970627 0.889912 0.847011
0.055098 0.952519 0.802544
0.166919 0.962731 0.811320
0.282685 0.969016 0.817310
0.398568 0.975307 0.823310
0.514557 0.981604 0.829318
0.630644 0.987906 0.835333
0.746821 0.994212 0.841355
0.862707 0.996800 0.847011
0.970627 0.996800 0.847011
0.057104 0.058959 0.908058
0.165547 0.059020 0.908126
0.273932 0.059020 0.908126
0.382316 0.059020 0.908126
0.490701 0.059020 0.908126
0.599085 0.059020 0.908126
0.707470 0.059020 0.908126
0.815855 0.059020 0.908126
0.925573 0.055877 0.911649
0.057104 0.170751 0.908058
0.166685 0.172001 0.920089
0.276700 0.172058 0.920147
0.386660 0.172058 0.920147
0.496621 0.172058 0.920147
0.606581 0.172058 0.920147
0.716541 0.172058 0.920147
0.826501 0.172058 0.920147
0.934423 0.172300 0.920393
0.057104 0.282542 0.908058
0.166685 0.285419 0.920089
0.282448 0.291405 0.926127
0.392512 0.291462 0.926185
0.502521 0.291462 0.926185
0.612529 0.291462 0.926185
0.722538 0.291462 0.926185
0.832546 0.291462 0.926185
0.940516 0.291707 0.926432
0.057104 0.394333 0.908058
0.166685 0.398836 0.920089
0.282448 0.404872 0.926127
0.398328 0.410929 0.932172
0.508438 0.410987 0.932230
0.618493 0.410987 0.932230
0.728547 0.410987 0.932230
0.838601 0.410987 0.932230
0.946615 0.411235 0.932477
0.057104 0.506125 0.908058
0.166685 0.512253 0.920089
0.282448 0.518339 0.926127
0.398328 0.524443 0.932172
0.514315 0.530564 0.938222
0.624469 0.530622 0.938280
0.734566 0.530622 0.938280
0.844663 0.530622 0.938280
0.952720 0.530872 0.938527
0.057104 0.617916 0.908058
0.166685 0.625671 0.920089
0.282448 0.631807 0.926127
0.398328 0.637958 0.932172
0.514315 0.644122 0.938222
0.630399 0.650299 0.944277
0.740595 0.650358 0.944336
0.850733 0.650358 0.944336
0.958829 0.650611 0.944583
0.057104 0.729707 0.908058
0.166685 0.739088 0.920089
0.282448 0.745274 0.926127
0.398328 0.751472 0.932172
0.514315 0.757681 0.938222
0.630399 0.763900 0.944277
0.746574 0.770127 0.950338
0.856809 0.770187 0.950396
0.964944 0.770442 0.950643
0.057104 0.841499 0.908058
0.166685 0.852506 0.920089
0.282448 0.858742 0.926127
0.398328 0.864987 0.932172
0.514315 0.871240 0.938222
0.630399 0.877501 0.944277
0.746574 0.883769 0.950338
0.862833 0.890043 0.956402
0.971063 0.890359 0.956708
0.055098 0.952519 0.910560
0.166919 0.962731 0.920335
0.282685 0.969016 0.926374
0.398568 0.975307 0.932419
0.514557 0.981604 0.938469
0.630644 0.987906 0.944525
0.746821 0.994212 0.950585
0.863082 0.996800 0.956650
0.976750 0.996800 0.962345
