assets/luts/retro_ccd.cube
TITLE "retro_ccd"
LUT_3D_SIZE 5
0.059012 0.082843 0.009087
0.287533 0.025367 0.019848
0.496477 0.036201 0.030751
0.706346 0.047427 0.041701
0.922059 0.059085 0.052957
0.024362 0.296592 0.019900
0.287271 0.296592 0.019900
0.496477 0.274209 0.030751
0.706346 0.274496 0.041701
0.922059 0.282673 0.052957
0.035024 0.512112 0.030803
0.265700 0.512112 0.030803
0.496375 0.512112 0.030803
0.706346 0.501564 0.041701
0.922059 0.506262 0.052957
0.045960 0.728584 0.041754
0.266073 0.728584 0.041754
0.486186 0.728584 0.041754
0.706298 0.728584 0.041754
0.922059 0.729850 0.052957
0.057226 0.950040 0.052957
0.273998 0.950040 0.052957
0.490770 0.950040 0.052957
0.707542 0.950040 0.052957
0.922059 0.950040 0.052957
0.024103 0.025157 0.276577
0.286713 0.025523 0.274697
0.496157 0.036370 0.254781
0.706196 0.047599 0.255565
0.925573 0.055877 0.261986
0.024469 0.296013 0.274697
0.265808 0.274296 0.254926
0.486262 0.274413 0.255416
0.707404 0.282542 0.263354
0.940082 0.291280 0.271638
0.035137 0.511886 0.254781
0.265992 0.501614 0.255436
0.486247 0.501614 0.255436
0.707404 0.506125 0.263354
0.940082 0.518213 0.271638
0.046075 0.728478 0.255565
0.273932 0.729776 0.263414
0.490701 0.729776 0.263414
0.707470 0.729776 0.263414
0.940082 0.745145 0.271638
0.055098 0.952519 0.262462
0.282327 0.968629 0.271638
0.502341 0.968629 0.271638
0.722355 0.968629 0.271638
0.940082 0.968629 0.271638
0.034751 0.035974 0.484045
0.265808 0.036027 0.483943
0.496157 0.036370 0.483308
0.706196 0.047599 0.473712
0.925573 0.055877 0.478540
0.034751 0.274324 0.484045
0.265973 0.274413 0.473810
0.486156 0.274559 0.473712
0.710681 0.280135 0.478631
0.940516 0.291707 0.490176
0.035137 0.511886 0.483308
0.266115 0.501519 0.473712
0.490701 0.506190 0.478318
0.722480 0.518339 0.489881
0.952285 0.530436 0.501502
0.046075 0.728478 0.473712
0.271524 0.733102 0.478631
0.502521 0.745334 0.489937
0.722538 0.745334 0.489937
0.952285 0.757552 0.501502
0.055098 0.952519 0.478494
0.282685 0.969016 0.490120
0.514191 0.981216 0.501502
0.734383 0.981216 0.501502
0.952285 0.981216 0.501502
0.045683 0.047197 0.692204
0.265992 0.047251 0.692156
0.486247 0.047251 0.692156
0.706196 0.047599 0.691860
0.925573 0.055877 0.695095
0.045683 0.274413 0.692204
0.273871 0.282542 0.693156
0.490701 0.282605 0.693222
0.710681 0.280135 0.696320
0.940516 0.291707 0.708304
0.045683 0.501629 0.692204
0.273871 0.506125 0.693156
0.502464 0.518339 0.708004
0.722908 0.518773 0.708428
0.952720 0.530872 0.720224
0.046075 0.728478 0.691860
0.271524 0.733102 0.696320
0.502885 0.745715 0.708428
0.734566 0.757741 0.719980
0.964509 0.769998 0.731756
0.055098 0.952519 0.694527
0.282685 0.969016 0.708247
0.514557 0.981604 0.720167
0.746449 0.993824 0.731756
0.964509 0.993824 0.731756
0.057104 0.058959 0.908058
0.273932 0.059020 0.908126
0.490701 0.059020 0.908126
0.707470 0.059020 0.908126
0.925573 0.055877 0.911649
0.057104 0.282542 0.908058
0.282448 0.291405 0.926127
0.502521 0.291462 0.926185
0.722538 0.291462 0.926185
0.940516 0.291707 0.926432
0.057104 0.506125 0.908058
0.282448 0.518339 0.926127
0.514315 0.530564 0.938222
0.734566 0.530622 0.938280
0.952720 0.530872 0.938527
0.057104 0.729707 0.908058
0.282448 0.745274 0.926127
0.514315 0.757681 0.938222
0.746574 0.770127 0.950338
0.964944 0.770442 0.950643
0.055098 0.952519 0.910560
0.282685 0.969016 0.926374
0.514557 0.981604 0.938469
0.746821 0.994212 0.950585
0.976750 0.996800 0.962345
