assets/luts/seoul_night.cube
TITLE "seoul_night"
LUT_3D_SIZE 9
0.014811 0.000000 0.042591
0.055641 0.000000 0.044446
0.129828 0.000000 0.045312
0.226273 0.000000 0.045844
0.340719 0.000000 0.046237
0.467732 0.000000 0.046553
0.600684 0.000000 0.046818
0.731876 0.000000 0.047048
0.852633 0.000000 0.047251
0.014811 0.044069 0.044601
0.060543 0.048993 0.039567
0.138604 0.050060 0.038162
0.237074 0.051743 0.038162
0.353054 0.053495 0.038162
0.480984 0.055109 0.038162
0.614125 0.056575 0.038162
0.744673 0.057909 0.038162
0.863863 0.059133 0.038162
0.014811 0.115038 0.045396
0.061496 0.123455 0.038162
0.139110 0.123455 0.038162
0.237074 0.127389 0.038162
0.353054 0.132034 0.038162
0.480984 0.136323 0.038162
0.614125 0.140226 0.038162
0.744673 0.143786 0.038162
0.863863 0.147055 0.038162
0.014811 0.207805 0.045903
0.063056 0.218230 0.038162
0.143584 0.218230 0.038162
0.238188 0.218230 0.038162
0.353054 0.225270 0.038162
0.480984 0.232802 0.038162
0.614125 0.239652 0.038162
0.744673 0.245898 0.038162
0.863863 0.251630 0.038162
0.014811 0.318606 0.046283
0.064622 0.330592 0.038162
0.148088 0.330592 0.038162
0.246241 0.330592 0.038162
0.354593 0.330592 0.038162
0.480984 0.340059 0.038162
0.614125 0.350048 0.038162
0.744673 0.359139 0.038162
0.863863 0.367466 0.038162
0.014811 0.442452 0.046591
0.066057 0.455430 0.038162
0.152225 0.455430 0.038162
0.253636 0.455430 0.038162
0.365445 0.455430 0.038162
0.482803 0.455430 0.038162
0.614125 0.466607 0.038162
0.744673 0.478400 0.038162
0.863863 0.489170 0.038162
0.014811 0.573202 0.046851
0.067359 0.586495 0.038162
0.155984 0.586495 0.038162
0.260354 0.586495 0.038162
0.375283 0.586495 0.038162
0.495586 0.586495 0.038162
0.616078 0.586495 0.038162
0.744673 0.598577 0.038162
0.863863 0.611349 0.038162
0.014811 0.703698 0.047077
0.068544 0.716531 0.038162
0.159414 0.716531 0.038162
0.266480 0.716531 0.038162
0.384237 0.716531 0.038162
0.507180 0.716531 0.038162
0.629803 0.716531 0.038162
0.746601 0.716531 0.038162
0.863863 0.728611 0.038162
0.014811 0.825860 0.047277
0.069630 0.837373 0.038162
0.162564 0.837373 0.038162
0.272103 0.837373 0.038162
0.392441 0.837373 0.038162
0.517767 0.837373 0.038162
0.642274 0.837373 0.038162
0.760153 0.837373 0.038162
0.865595 0.837373 0.038162
0.014811 0.000000 0.119495
0.057636 0.000000 0.119495
0.129828 0.000000 0.127540
0.226273 0.000000 0.134962
0.340719 0.000000 0.140510
0.467732 0.000000 0.144997
0.600684 0.000000 0.148793
0.731876 0.000000 0.152100
0.852633 0.000000 0.155040
0.014811 0.045040 0.119495
0.060805 0.050081 0.130567
0.146019 0.048763 0.129303
0.255603 0.045765 0.125220
0.384285 0.041823 0.119444
0.524837 0.037280 0.112564
0.668442 0.032340 0.104924
0.804891 0.027138 0.096752
0.950946 0.000362 0.053481
0.014811 0.115038 0.128702
0.058789 0.131324 0.129303
0.146347 0.131812 0.128463
0.256042 0.132092 0.124584
0.384921 0.130514 0.118648
0.525605 0.127528 0.111658
0.669267 0.123523 0.103942
0.805686 0.118752 0.095716
0.950946 0.090996 0.052078
0.014811 0.207805 0.135791
0.055083 0.236784 0.125220
0.145909 0.237772 0.123864
0.256463 0.237772 0.123864
0.384921 0.239668 0.118648
0.525605 0.239735 0.111658
0.669267 0.238108 0.103942
0.805686 0.235180 0.095716
0.950946 0.214842 0.052078
0.014811 0.318606 0.141164
0.050489 0.361560 0.119444
0.143524 0.362941 0.117761
0.257993 0.362941 0.117761
0.385560 0.362941 0.117761
0.525605 0.366193 0.111658
0.669267 0.367784 0.103942
0.805686 0.367567 0.095716
0.950946 0.359914 0.052078
0.014811 0.442452 0.145542
0.045334 0.498968 0.112564
0.139809 0.500618 0.110658
0.257307 0.500618 0.110658
0.388735 0.500618 0.110658
0.526393 0.500618 0.110658
0.669267 0.504870 0.103942
0.805686 0.507708 0.095716
0.950946 0.515065 0.052078
0.014811 0.573202 0.149263
0.039811 0.640816 0.104924
0.135128 0.642590 0.102862
0.254990 0.642590 0.102862
0.389639 0.642590 0.102862
0.530781 0.642590 0.102862
0.670123 0.642590 0.102862
0.805686 0.647402 0.095716
0.950946 0.669141 0.052078
0.014811 0.703698 0.152514
0.034053 0.777600 0.096752
0.124918 0.786527 0.087245
0.248317 0.786527 0.087245
0.388238 0.786527 0.087245
0.535299 0.786527 0.087245
0.680118 0.786527 0.087245
0.813311 0.786527 0.087245
0.950946 0.810994 0.052078
0.014811 0.825860 0.155411
0.015224 0.915313 0.069304
0.110817 0.915313 0.067501
0.237065 0.915313 0.067501
0.382151 0.915313 0.067501
0.535431 0.915313 0.067501
0.686263 0.915313 0.067501
0.824004 0.915313 0.067501
0.938010 0.915313 0.067501
0.014811 0.000000 0.231552
0.062916 0.000000 0.231552
0.132769 0.000000 0.231552
0.226273 0.000000 0.243166
0.340719 0.000000 0.255455
0.467732 0.000000 0.265402
0.600684 0.000000 0.273820
0.731876 0.000000 0.281152
0.852633 0.000000 0.287671
0.014811 0.050747 0.231552
0.058398 0.048462 0.257814
0.146347 0.048109 0.258281
0.255603 0.045765 0.259424
0.384285 0.041823 0.258055
0.524837 0.037280 0.254345
0.668442 0.032340 0.248943
0.804891 0.027138 0.242255
0.950946 0.000362 0.202357
0.014811 0.116426 0.231552
0.058398 0.131585 0.257814
0.146099 0.132092 0.259413
0.257841 0.130795 0.258055
0.388160 0.127957 0.254345
0.529880 0.124062 0.248943
0.674088 0.119375 0.242255
0.875564 0.059443 0.153408
0.950946 0.082825 0.188199
0.014811 0.207805 0.245001
0.055083 0.236784 0.259424
0.144284 0.239516 0.258055
0.257993 0.239795 0.257291
0.388455 0.239735 0.253761
0.530330 0.238108 0.248181
0.674631 0.235180 0.241357
0.874204 0.189255 0.150869
0.950946 0.205068 0.186317
0.014811 0.318606 0.256905
0.050489 0.361560 0.258055
0.140870 0.365847 0.254345
0.257307 0.366529 0.253096
0.388735 0.366529 0.253096
0.530330 0.367784 0.248181
0.674631 0.367567 0.241357
0.874204 0.350351 0.150869
0.950946 0.351225 0.186317
0.014811 0.442452 0.266610
0.045334 0.498968 0.254345
0.136411 0.504376 0.248943
0.254990 0.505370 0.247330
0.389639 0.505370 0.247330
0.530781 0.505370 0.247330
0.674631 0.507708 0.241357
0.874204 0.525153 0.150869
0.950946 0.508419 0.186317
0.014811 0.573202 0.274861
0.039811 0.640816 0.248943
0.131170 0.646817 0.242255
0.248317 0.653258 0.234189
0.388238 0.653258 0.234189
0.535299 0.653258 0.234189
0.680118 0.653258 0.234189
0.874204 0.697676 0.150869
0.950946 0.664994 0.186317
0.014811 0.703698 0.282071
0.034053 0.777600 0.242255
0.065028 0.853307 0.153408
0.197737 0.850433 0.148115
0.364104 0.850433 0.148115
0.543488 0.850433 0.148115
0.718741 0.850433 0.148115
0.872713 0.850433 0.148115
0.950946 0.809299 0.186317
0.014811 0.825860 0.288495
0.015224 0.915313 0.217340
0.106671 0.915313 0.209417
0.231381 0.915313 0.207389
0.377114 0.915313 0.207389
0.531536 0.915313 0.207389
0.683743 0.915313 0.207389
0.822833 0.915313 0.207389
0.937903 0.915313 0.207389
0.014811 0.000000 0.369759
0.066430 0.000000 0.369759
0.142009 0.000000 0.369759
0.229974 0.000000 0.369759
0.340719 0.000000 0.383854
0.467732 0.000000 0.399685
0.600684 0.000000 0.413039
0.731876 0.000000 0.424636
0.852633 0.000000 0.434916
0.014811 0.054559 0.369759
0.054556 0.045322 0.412807
0.145909 0.044823 0.413602
0.256463 0.044823 0.413602
0.384285 0.041823 0.416604
0.524837 0.037280 0.417674
0.668442 0.032340 0.416184
0.804891 0.027138 0.412736
0.950946 0.000362 0.387163
0.014811 0.125809 0.369759
0.054556 0.132092 0.412807
0.143932 0.130514 0.416902
0.257993 0.130184 0.417169
0.388160 0.127957 0.417674
0.529880 0.124062 0.416184
0.674088 0.119375 0.412736
0.875564 0.059443 0.354538
0.950946 0.082825 0.373704
0.014811 0.209545 0.369759
0.054556 0.237284 0.412807
0.143932 0.239668 0.416902
0.257504 0.239735 0.417614
0.389591 0.238385 0.416184
0.532607 0.235601 0.412736
0.722526 0.191252 0.354538
0.864360 0.175245 0.331277
0.950946 0.195007 0.357710
0.014811 0.318606 0.386164
0.050489 0.361560 0.416604
0.140870 0.365847 0.417674
0.255720 0.367694 0.416184
0.389639 0.367850 0.415464
0.532808 0.367567 0.412196
0.720718 0.350351 0.351650
0.862955 0.333144 0.328439
0.950946 0.340789 0.355475
0.014811 0.442452 0.401604
0.045334 0.498968 0.417674
0.136411 0.504376 0.416184
0.252440 0.507463 0.412736
0.388238 0.510577 0.408272
0.535299 0.510577 0.408272
0.720718 0.525153 0.351650
0.862955 0.508525 0.328439
0.950946 0.500399 0.355475
0.014811 0.573202 0.414688
0.039811 0.640816 0.416184
0.131170 0.646817 0.412736
0.202097 0.699454 0.354538
0.364104 0.695733 0.348507
0.543488 0.695733 0.348507
0.718741 0.695733 0.348507
0.862955 0.683123 0.328439
0.950946 0.659979 0.355475
0.014811 0.703698 0.426087
0.034053 0.777600 0.412736
0.065028 0.853307 0.354538
0.185348 0.842027 0.331277
0.346234 0.839066 0.325350
0.526333 0.839066 0.325350
0.703897 0.839066 0.325350
0.861416 0.839066 0.325350
0.950946 0.807248 0.355475
0.014811 0.825860 0.436215
0.015224 0.915313 0.396808
0.106671 0.915313 0.389372
0.227138 0.915313 0.381902
0.372008 0.915313 0.379939
0.527577 0.915313 0.379939
0.681179 0.915313 0.379939
0.821642 0.915313 0.379939
0.937794 0.915313 0.379939
0.014811 0.000000 0.524378
0.069121 0.000000 0.524378
0.149119 0.000000 0.524378
0.242366 0.000000 0.524378
0.344996 0.000000 0.524378
0.467732 0.000000 0.539763
0.600684 0.000000 0.557591
0.731876 0.000000 0.572981
0.852633 0.000000 0.586548
0.014811 0.057486 0.524378
0.049879 0.041291 0.582814
0.143524 0.040701 0.583803
0.257993 0.040701 0.583803
0.385560 0.040701 0.583803
0.524837 0.037280 0.588022
0.668442 0.032340 0.590952
0.804891 0.027138 0.591411
0.950946 0.000362 0.585028
0.014811 0.133044 0.524378
0.049879 0.130514 0.582814
0.140371 0.127528 0.588539
0.257307 0.127042 0.589050
0.388735 0.127042 0.589050
0.529880 0.124062 0.590952
0.674088 0.119375 0.591411
0.875564 0.059443 0.577195
0.950946 0.082825 0.574279
0.014811 0.221961 0.524378
0.049879 0.239668 0.582814
0.140371 0.239735 0.588539
0.255381 0.238108 0.591129
0.389639 0.237783 0.591282
0.532607 0.235601 0.591411
0.722526 0.191252 0.577195
0.864360 0.175245 0.554778
0.950946 0.195007 0.561398
0.014811 0.320621 0.524378
0.049879 0.362247 0.582814
0.140371 0.366193 0.588539
0.255381 0.367784 0.591129
0.388992 0.367567 0.591324
0.547900 0.352484 0.577195
0.707743 0.335253 0.554778
0.852796 0.318214 0.532318
0.950946 0.329001 0.544507
0.014811 0.442452 0.542332
0.045334 0.498968 0.588022
0.136411 0.504376 0.590952
0.252440 0.507463 0.591411
0.368739 0.527199 0.577195
0.543488 0.522920 0.571425
0.705906 0.508525 0.552012
0.851347 0.491864 0.529549
0.950946 0.489766 0.541981
0.014811 0.573202 0.559785
0.039811 0.640816 0.590952
0.131170 0.646817 0.591411
0.202097 0.699454 0.577195
0.350818 0.684927 0.554778
0.526333 0.681150 0.548995
0.703897 0.681150 0.548995
0.851347 0.668357 0.529549
0.950946 0.653310 0.541981
0.014811 0.703698 0.574900
0.034053 0.777600 0.591411
0.065028 0.853307 0.577195
0.185348 0.842027 0.554778
0.333093 0.830410 0.532318
0.509137 0.827365 0.526527
0.688823 0.827365 0.526527
0.849760 0.827365 0.526527
0.950946 0.804521 0.541981
0.014811 0.825860 0.588256
0.015224 0.915313 0.587323
0.106671 0.915313 0.581373
0.227138 0.915313 0.575373
0.368032 0.915313 0.569069
0.523361 0.915313 0.567343
0.678445 0.915313 0.567343
0.820371 0.915313 0.567343
0.937679 0.915313 0.567343
0.014811 0.000000 0.683333
0.071327 0.000000 0.683333
0.154965 0.000000 0.683333
0.252551 0.000000 0.683333
0.359784 0.000000 0.683333
0.472362 0.000000 0.683333
0.600684 0.000000 0.698619
0.731876 0.000000 0.716619
0.852633 0.000000 0.732338
0.014811 0.059889 0.683333
0.044670 0.036690 0.751860
0.139809 0.036039 0.752889
0.257307 0.036039 0.752889
0.388735 0.036039 0.752889
0.526393 0.036039 0.752889
0.668442 0.032340 0.757547
0.804891 0.027138 0.761499
0.950946 0.000362 0.773080
0.014811 0.139002 0.683333
0.044670 0.127528 0.751860
0.135804 0.123523 0.758168
0.254990 0.122922 0.758799
0.389639 0.122922 0.758799
0.530781 0.122922 0.758799
0.674088 0.119375 0.761499
0.875564 0.059443 0.788515
0.950946 0.082825 0.766036
0.014811 0.232180 0.683333
0.044670 0.239735 0.751860
0.135804 0.238108 0.758168
0.251958 0.235180 0.761828
0.388238 0.232058 0.765527
0.535299 0.232058 0.765527
0.722526 0.191252 0.788515
0.864360 0.175245 0.770130
0.950946 0.195007 0.757552
0.014811 0.335401 0.683333
0.044670 0.366193 0.751860
0.135804 0.367784 0.758168
0.251958 0.367567 0.761828
0.366520 0.350351 0.786272
0.543488 0.348027 0.783818
0.707743 0.335253 0.770130
0.852796 0.318214 0.751350
0.950946 0.329001 0.746350
0.014811 0.444644 0.683333
0.044670 0.499781 0.751860
0.135804 0.504870 0.758168
0.251958 0.507708 0.761828
0.366520 0.525153 0.786272
0.528641 0.508525 0.767838
0.692727 0.493918 0.751350
0.840881 0.477235 0.732191
0.950946 0.476018 0.729366
0.014811 0.573202 0.701196
0.039811 0.640816 0.757547
0.131170 0.646817 0.761499
0.202097 0.699454 0.788515
0.350818 0.684927 0.770130
0.513570 0.670187 0.751350
0.688823 0.666357 0.746450
0.839389 0.653389 0.729806
0.950946 0.643065 0.726550
0.014811 0.703698 0.718851
0.034053 0.777600 0.761499
0.065028 0.853307 0.788515
0.185348 0.842027 0.770130
0.333093 0.830410 0.751350
0.496348 0.818467 0.732191
0.673529 0.815339 0.727197
0.837755 0.815339 0.727197
0.950946 0.800329 0.726550
0.014811 0.825860 0.734307
0.015224 0.915313 0.768503
0.106671 0.915313 0.764539
0.227138 0.915313 0.760530
0.368032 0.915313 0.756308
0.519826 0.915313 0.751513
0.675256 0.915313 0.750094
0.818889 0.915313 0.750094
0.937544 0.915313 0.750094
0.014811 0.000000 0.832381
0.073209 0.000000 0.832381
0.159963 0.000000 0.832381
0.261255 0.000000 0.832381
0.372389 0.000000 0.832381
0.488671 0.000000 0.832381
0.605407 0.000000 0.832381
0.731876 0.000000 0.845981
0.852633 0.000000 0.862057
0.014811 0.061941 0.832381
0.039112 0.031711 0.901135
0.135128 0.031020 0.902030
0.254990 0.031020 0.902030
0.389639 0.031020 0.902030
0.530781 0.031020 0.902030
0.670123 0.031020 0.902030
0.804891 0.027138 0.906217
0.950946 0.000362 0.928446
0.014811 0.144103 0.832381
0.039112 0.123523 0.901135
0.130479 0.118752 0.906799
0.248317 0.113763 0.912534
0.388238 0.113763 0.912534
0.535299 0.113763 0.912534
0.680118 0.113763 0.912534
0.875564 0.059443 0.955630
0.950946 0.082825 0.925091
0.014811 0.240925 0.832381
0.039112 0.238108 0.901135
0.130479 0.235180 0.906799
0.200008 0.189255 0.954203
0.364104 0.187085 0.952635
0.543488 0.187085 0.952635
0.718741 0.187085 0.952635
0.864360 0.175245 0.943766
0.950946 0.195007 0.921033
0.014811 0.348016 0.832381
0.039112 0.367784 0.901135
0.130479 0.367567 0.906799
0.200008 0.350351 0.954203
0.348624 0.333144 0.942260
0.526333 0.330846 0.940607
0.703897 0.330846 0.940607
0.852796 0.318214 0.931269
0.950946 0.329001 0.915652
0.014811 0.460990 0.832381
0.039112 0.504870 0.901135
0.130479 0.507708 0.906799
0.200008 0.525153 0.954203
0.348624 0.508525 0.942260
0.511450 0.491864 0.929686
0.688823 0.489622 0.927949
0.840881 0.477235 0.918152
0.950946 0.476018 0.907437
0.014811 0.575457 0.832381
0.039112 0.641686 0.901135
0.130479 0.647402 0.906799
0.200008 0.697676 0.954203
0.348624 0.683123 0.942260
0.511450 0.668357 0.929686
0.675597 0.653389 0.916493
0.828622 0.640107 0.904429
0.950946 0.626463 0.891502
0.014811 0.703698 0.848279
0.034053 0.777600 0.906217
0.065028 0.853307 0.955630
0.185348 0.842027 0.943766
0.333093 0.830410 0.931269
0.496348 0.818467 0.918152
0.662038 0.806206 0.904429
0.825410 0.802997 0.900798
0.950946 0.792068 0.888315
0.014811 0.825860 0.864052
0.015224 0.915313 0.919966
0.106671 0.915313 0.917986
0.227138 0.915313 0.915980
0.368032 0.915313 0.913864
0.519826 0.915313 0.911455
0.672142 0.915313 0.908248
0.816791 0.915313 0.907124
0.937353 0.915313 0.907124
0.014811 0.000000 0.955339
0.074857 0.000000 0.955339
0.164351 0.000000 0.955339
0.268890 0.000000 0.955339
0.383420 0.000000 0.955339
0.502885 0.000000 0.955339
0.622228 0.000000 0.955339
0.736394 0.000000 0.955339
0.852633 0.000000 0.965478
0.014811 0.063741 0.955339
0.033332 0.026484 1.000000
0.124918 0.021140 1.000000
0.248317 0.021140 1.000000
0.388238 0.021140 1.000000
0.535299 0.021140 1.000000
0.680118 0.021140 1.000000
0.813311 0.021140 1.000000
0.950946 0.000362 1.000000
0.014811 0.148585 0.955339
0.033332 0.118752 1.000000
0.063352 0.057850 1.000000
0.197737 0.056125 1.000000
0.364104 0.056125 1.000000
0.543488 0.056125 1.000000
0.718741 0.056125 1.000000
0.872713 0.056125 1.000000
0.950946 0.082825 1.000000
0.014811 0.248602 0.955339
0.033332 0.235180 1.000000
0.063352 0.189255 1.000000
0.183317 0.173304 1.000000
0.346234 0.171194 1.000000
0.526333 0.171194 1.000000
0.703897 0.171194 1.000000
0.861416 0.171194 1.000000
0.950946 0.195007 1.000000
0.014811 0.359067 0.955339
0.033332 0.367567 1.000000
0.063352 0.350351 1.000000
0.183317 0.333144 1.000000
0.330923 0.316128 1.000000
0.509137 0.313856 1.000000
0.688823 0.313856 1.000000
0.849760 0.313856 1.000000
0.950946 0.329001 1.000000
0.014811 0.475253 0.955339
0.033332 0.507708 1.000000
0.063352 0.525153 1.000000
0.183317 0.508525 1.000000
0.330923 0.491864 1.000000
0.494224 0.475178 1.000000
0.673529 0.472934 1.000000
0.837755 0.472934 1.000000
0.950946 0.476018 1.000000
0.014811 0.592433 0.955339
0.033332 0.647402 1.000000
0.063352 0.697676 1.000000
0.183317 0.683123 1.000000
0.330923 0.668357 1.000000
0.494224 0.653389 1.000000
0.660121 0.638230 1.000000
0.825410 0.636178 1.000000
0.950946 0.626463 1.000000
0.014811 0.705883 0.955339
0.033332 0.778446 1.000000
0.063352 0.851935 1.000000
0.183317 0.840613 1.000000
0.330923 0.828956 1.000000
0.494224 0.816973 1.000000
0.660121 0.804674 1.000000
0.814457 0.792068 1.000000
0.943206 0.780769 1.000000
0.014811 0.825860 0.967179
0.015224 0.915313 1.000000
0.106671 0.915313 1.000000
0.227138 0.915313 1.000000
0.368032 0.915313 1.000000
0.519826 0.915313 1.000000
0.672142 0.915313 1.000000
0.813813 0.915313 1.000000
0.936904 0.915313 1.000000
0.014811 0.000000 1.000000
0.076186 0.000000 1.000000
0.167896 0.000000 1.000000
0.275057 0.000000 1.000000
0.392310 0.000000 1.000000
0.514298 0.000000 1.000000
0.635661 0.000000 1.000000
0.751040 0.000000 1.000000
0.855076 0.000000 1.000000
0.014811 0.065195 1.000000
0.016898 0.011544 1.000000
0.113302 0.011034 1.000000
0.239086 0.011034 1.000000
0.383282 0.011034 1.000000
0.535478 0.011034 1.000000
0.685257 0.011034 1.000000
0.822204 0.011034 1.000000
0.935905 0.011034 1.000000
0.014811 0.152209 1.000000
0.016898 0.103809 1.000000
0.109081 0.099234 1.000000
0.234154 0.098642 1.000000
0.378916 0.098642 1.000000
0.532097 0.098642 1.000000
0.683061 0.098642 1.000000
0.821173 0.098642 1.000000
0.935797 0.098642 1.000000
0.014811 0.254808 1.000000
0.016898 0.224424 1.000000
0.109081 0.219765 1.000000
0.230104 0.215364 1.000000
0.374774 0.214790 1.000000
0.528884 0.214790 1.000000
0.680972 0.214790 1.000000
0.820192 0.214790 1.000000
0.935694 0.214790 1.000000
0.014811 0.367980 1.000000
0.016898 0.363683 1.000000
0.109081 0.359554 1.000000
0.230104 0.355640 1.000000
0.371350 0.351915 1.000000
0.525819 0.351428 1.000000
0.678978 0.351428 1.000000
0.819254 0.351428 1.000000
0.935595 0.351428 1.000000
0.014811 0.486717 1.000000
0.016898 0.511878 1.000000
0.109081 0.508685 1.000000
0.230104 0.505653 1.000000
0.371350 0.502763 1.000000
0.523272 0.499999 1.000000
0.677067 0.499636 1.000000
0.818357 0.499636 1.000000
0.935501 0.499636 1.000000
0.014811 0.606009 1.000000
0.016898 0.659301 1.000000
0.109081 0.657245 1.000000
0.230104 0.655289 1.000000
0.371350 0.653424 1.000000
0.523272 0.651638 1.000000
0.675475 0.649924 1.000000
0.817494 0.649699 1.000000
0.935411 0.649699 1.000000
0.014811 0.720847 1.000000
0.016898 0.796246 1.000000
0.109081 0.795317 1.000000
0.230104 0.794434 1.000000
0.371350 0.793591 1.000000
0.523272 0.792784 1.000000
0.675475 0.792010 1.000000
0.816774 0.791264 1.000000
0.935324 0.791166 1.000000
0.014811 0.826221 1.000000
0.016898 0.913003 1.000000
0.109081 0.912987 1.000000
0.230104 0.912971 1.000000
0.371350 0.912957 1.000000
0.523272 0.912942 1.000000
0.675475 0.912929 1.000000
0.816774 0.912916 1.000000
0.935252 0.912903 1.000000
