assets/luts/seoul_night.cube
TITLE "seoul_night"
LUT_3D_SIZE 5
0.014811 0.000000 0.042591
0.129828 0.000000 0.045312
0.340719 0.000000 0.046237
0.600684 0.000000 0.046818
0.852633 0.000000 0.047251
0.014811 0.115038 0.045396
0.139110 0.123455 0.038162
0.353054 0.132034 0.038162
0.614125 0.140226 0.038162
0.863863 0.147055 0.038162
0.014811 0.318606 0.046283
0.148088 0.330592 0.038162
0.354593 0.330592 0.038162
0.614125 0.350048 0.038162
0.863863 0.367466 0.038162
0.014811 0.573202 0.046851
0.155984 0.586495 0.038162
0.375283 0.586495 0.038162
0.616078 0.586495 0.038162
0.863863 0.611349 0.038162
0.014811 0.825860 0.047277
0.162564 0.837373 0.038162
0.392441 0.837373 0.038162
0.642274 0.837373 0.038162
0.865595 0.837373 0.038162
0.014811 0.000000 0.231552
0.132769 0.000000 0.231552
0.340719 0.000000 0.255455
0.600684 0.000000 0.273820
0.852633 0.000000 0.287671
0.014811 0.116426 0.231552
0.146099 0.132092 0.259413
0.388160 0.127957 0.254345
0.674088 0.119375 0.242255
0.950946 0.082825 0.188199
0.014811 0.318606 0.256905
0.140870 0.365847 0.254345
0.388735 0.366529 0.253096
0.674631 0.367567 0.241357
0.950946 0.351225 0.186317
0.014811 0.573202 0.274861
0.131170 0.646817 0.242255
0.388238 0.653258 0.234189
0.680118 0.653258 0.234189
0.950946 0.664994 0.186317
0.014811 0.825860 0.288495
0.106671 0.915313 0.209417
0.377114 0.915313 0.207389
0.683743 0.915313 0.207389
0.937903 0.915313 0.207389
0.014811 0.000000 0.524378
0.149119 0.000000 0.524378
0.344996 0.000000 0.524378
0.600684 0.000000 0.557591
0.852633 0.000000 0.586548
0.014811 0.133044 0.524378
0.140371 0.127528 0.588539
0.388735 0.127042 0.589050
0.674088 0.119375 0.591411
0.950946 0.082825 0.574279
0.014811 0.320621 0.524378
0.140371 0.366193 0.588539
0.388992 0.367567 0.591324
0.707743 0.335253 0.554778
0.950946 0.329001 0.544507
0.014811 0.573202 0.559785
0.131170 0.646817 0.591411
0.350818 0.684927 0.554778
0.703897 0.681150 0.548995
0.950946 0.653310 0.541981
0.014811 0.825860 0.588256
0.106671 0.915313 0.581373
0.368032 0.915313 0.569069
0.678445 0.915313 0.567343
0.937679 0.915313 0.567343
0.014811 0.000000 0.832381
0.159963 0.000000 0.832381
0.372389 0.000000 0.832381
0.605407 0.000000 0.832381
0.852633 0.000000 0.862057
0.014811 0.144103 0.832381
0.130479 0.118752 0.906799
0.388238 0.113763 0.912534
0.680118 0.113763 0.912534
0.950946 0.082825 0.925091
0.014811 0.348016 0.832381
0.130479 0.367567 0.906799
0.348624 0.333144 0.942260
0.703897 0.330846 0.940607
0.950946 0.329001 0.915652
0.014811 0.575457 0.832381
0.130479 0.647402 0.906799
0.348624 0.683123 0.942260
0.675597 0.653389 0.916493
0.950946 0.626463 0.891502
0.014811 0.825860 0.864052
0.106671 0.915313 0.917986
0.368032 0.915313 0.913864
0.672142 0.915313 0.908248
0.937353 0.915313 0.907124
0.014811 0.000000 1.000000
0.167896 0.000000 1.000000
0.392310 0.000000 1.000000
0.635661 0.000000 1.000000
0.855076 0.000000 1.000000
0.014811 0.152209 1.000000
0.109081 0.099234 1.000000
0.378916 0.098642 1.000000
0.683061 0.098642 1.000000
0.935797 0.098642 1.000000
0.014811 0.367980 1.000000
0.109081 0.359554 1.000000
0.371350 0.351915 1.000000
0.678978 0.351428 1.000000
0.935595 0.351428 1.000000
0.014811 0.606009 1.000000
0.109081 0.657245 1.000000
0.371350 0.653424 1.000000
0.675475 0.649924 1.000000
0.935411 0.649699 1.000000
0.014811 0.826221 1.000000
0.109081 0.912987 1.000000
0.371350 0.912957 1.000000
0.675475 0.912929 1.000000
0.935252 0.912903 1.000000
