assets/luts/seoul_night.cube
TITLE "seoul_night"
LUT_3D_SIZE 33
0.014811 0.000000 0.042591
0.017707 0.000000 0.042591
0.028236 0.000000 0.043580
0.041039 0.000000 0.044092
0.055641 0.000000 0.044446
0.071896 0.000000 0.044721
0.089719 0.000000 0.044948
0.109048 0.000000 0.045142
0.129828 0.000000 0.045312
0.152001 0.000000 0.045464
0.175509 0.000000 0.045602
0.200289 0.000000 0.045728
0.226273 0.000000 0.045844
0.253388 0.000000 0.045952
0.281556 0.000000 0.046053
0.310696 0.000000 0.046148
0.340719 0.000000 0.046237
0.371534 0.000000 0.046322
0.403042 0.000000 0.046403
0.435144 0.000000 0.046479
0.467732 0.000000 0.046553
0.500696 0.000000 0.046623
0.533923 0.000000 0.046691
0.567293 0.000000 0.046755
0.600684 0.000000 0.046818
0.633970 0.000000 0.046878
0.667021 0.000000 0.046937
0.699702 0.000000 0.046993
0.731876 0.000000 0.047048
0.763402 0.000000 0.047101
0.794136 0.000000 0.047152
0.823930 0.000000 0.047203
0.852633 0.000000 0.047251
0.014811 0.007221 0.043226
0.017855 0.008068 0.042944
0.029763 0.008114 0.042579
0.043931 0.007860 0.041551
0.060126 0.007347 0.040300
0.078200 0.006681 0.038910
0.097334 0.006294 0.038162
0.117255 0.006310 0.038162
0.138604 0.006343 0.038162
0.161322 0.006386 0.038162
0.185351 0.006434 0.038162
0.210625 0.006484 0.038162
0.237074 0.006535 0.038162
0.264623 0.006585 0.038162
0.293194 0.006635 0.038162
0.322700 0.006685 0.038162
0.353054 0.006733 0.038162
0.384160 0.006780 0.038162
0.415920 0.006826 0.038162
0.448231 0.006871 0.038162
0.480984 0.006915 0.038162
0.514068 0.006957 0.038162
0.547368 0.006999 0.038162
0.580761 0.007040 0.038162
0.614125 0.007079 0.038162
0.647332 0.007118 0.038162
0.680250 0.007155 0.038162
0.712743 0.007192 0.038162
0.744673 0.007228 0.038162
0.775897 0.007263 0.038162
0.806271 0.007298 0.038162
0.835643 0.007331 0.038162
0.863863 0.007364 0.038162
0.014811 0.017749 0.043883
0.017222 0.019723 0.042095
0.029910 0.019740 0.042063
0.043931 0.019933 0.041551
0.060126 0.020022 0.040300
0.078200 0.019811 0.038910
0.097334 0.019607 0.038162
0.117255 0.019655 0.038162
0.138604 0.019765 0.038162
0.161322 0.019904 0.038162
0.185351 0.020060 0.038162
0.210625 0.020222 0.038162
0.237074 0.020388 0.038162
0.264623 0.020553 0.038162
0.293194 0.020716 0.038162
0.322700 0.020877 0.038162
0.353054 0.021034 0.038162
0.384160 0.021188 0.038162
0.415920 0.021338 0.038162
0.448231 0.021485 0.038162
0.480984 0.021628 0.038162
0.514068 0.021768 0.038162
0.547368 0.021904 0.038162
0.580761 0.022037 0.038162
0.614125 0.022166 0.038162
0.647332 0.022293 0.038162
0.680250 0.022416 0.038162
0.712743 0.022537 0.038162
0.744673 0.022655 0.038162
0.775897 0.022770 0.038162
0.806271 0.022883 0.038162
0.835643 0.022994 0.038162
0.863863 0.023102 0.038162
0.014811 0.030092 0.044295
0.016383 0.033413 0.040938
0.029794 0.033436 0.040899
0.044235 0.033436 0.040899
0.060126 0.033729 0.040300
0.078200 0.034056 0.038910
0.097334 0.034071 0.038162
0.117255 0.034159 0.038162
0.138604 0.034355 0.038162
0.161322 0.034607 0.038162
0.185351 0.034886 0.038162
0.210625 0.035179 0.038162
0.237074 0.035477 0.038162
0.264623 0.035774 0.038162
0.293194 0.036069 0.038162
0.322700 0.036359 0.038162
0.353054 0.036643 0.038162
0.384160 0.036921 0.038162
0.415920 0.037193 0.038162
0.448231 0.037458 0.038162
0.480984 0.037716 0.038162
0.514068 0.037969 0.038162
0.547368 0.038215 0.038162
0.580761 0.038455 0.038162
0.614125 0.038690 0.038162
0.647332 0.038919 0.038162
0.680250 0.039143 0.038162
0.712743 0.039361 0.038162
0.744673 0.039575 0.038162
0.775897 0.039785 0.038162
0.806271 0.039990 0.038162
0.835643 0.040190 0.038162
0.863863 0.040387 0.038162
0.014811 0.044069 0.044601
0.015428 0.048964 0.039609
0.029369 0.048993 0.039567
0.044435 0.048993 0.039567
0.060543 0.048993 0.039567
0.078200 0.049366 0.038910
0.097334 0.049634 0.038162
0.117255 0.049766 0.038162
0.138604 0.050060 0.038162
0.161322 0.050438 0.038162
0.185351 0.050857 0.038162
0.210625 0.051296 0.038162
0.237074 0.051743 0.038162
0.264623 0.052190 0.038162
0.293194 0.052632 0.038162
0.322700 0.053068 0.038162
0.353054 0.053495 0.038162
0.384160 0.053913 0.038162
0.415920 0.054321 0.038162
0.448231 0.054720 0.038162
0.480984 0.055109 0.038162
0.514068 0.055489 0.038162
0.547368 0.055859 0.038162
0.580761 0.056221 0.038162
0.614125 0.056575 0.038162
0.647332 0.056920 0.038162
0.680250 0.057257 0.038162
0.712743 0.057587 0.038162
0.744673 0.057909 0.038162
0.775897 0.058225 0.038162
0.806271 0.058534 0.038162
0.835643 0.058837 0.038162
0.863863 0.059133 0.038162
0.014811 0.059602 0.044848
0.014811 0.065780 0.038748
0.028765 0.066292 0.038162
0.044309 0.066292 0.038162
0.060967 0.066292 0.038162
0.078681 0.066292 0.038162
0.097334 0.066243 0.038162
0.117255 0.066423 0.038162
0.138604 0.066826 0.038162
0.161322 0.067341 0.038162
0.185351 0.067915 0.038162
0.210625 0.068516 0.038162
0.237074 0.069127 0.038162
0.264623 0.069738 0.038162
0.293194 0.070344 0.038162
0.322700 0.070940 0.038162
0.353054 0.071525 0.038162
0.384160 0.072097 0.038162
0.415920 0.072656 0.038162
0.448231 0.073203 0.038162
0.480984 0.073736 0.038162
0.514068 0.074257 0.038162
0.547368 0.074765 0.038162
0.580761 0.075261 0.038162
0.614125 0.075746 0.038162
0.647332 0.076219 0.038162
0.680250 0.076682 0.038162
0.712743 0.077135 0.038162
0.744673 0.077577 0.038162
0.775897 0.078011 0.038162
0.806271 0.078435 0.038162
0.835643 0.078850 0.038162
0.863863 0.079258 0.038162
0.014811 0.076637 0.045056
0.014811 0.083364 0.038749
0.028767 0.083921 0.038162
0.044313 0.083921 0.038162
0.060973 0.083921 0.038162
0.078690 0.083921 0.038162
0.097407 0.083921 0.038162
0.117255 0.084077 0.038162
0.138604 0.084597 0.038162
0.161322 0.085263 0.038162
0.185351 0.086003 0.038162
0.210625 0.086779 0.038162
0.237074 0.087569 0.038162
0.264623 0.088359 0.038162
0.293194 0.089141 0.038162
0.322700 0.089912 0.038162
0.353054 0.090668 0.038162
0.384160 0.091408 0.038162
0.415920 0.092131 0.038162
0.448231 0.092838 0.038162
0.480984 0.093528 0.038162
0.514068 0.094201 0.038162
0.547368 0.094859 0.038162
0.580761 0.095501 0.038162
0.614125 0.096128 0.038162
0.647332 0.096741 0.038162
0.680250 0.097340 0.038162
0.712743 0.097926 0.038162
0.744673 0.098499 0.038162
0.775897 0.099060 0.038162
0.806271 0.099610 0.038162
0.835643 0.100148 0.038162
0.863863 0.100676 0.038162
0.014811 0.095131 0.045236
0.014811 0.102390 0.038753
0.028827 0.102990 0.038162
0.044444 0.102990 0.038162
0.061184 0.102990 0.038162
0.078989 0.102990 0.038162
0.097801 0.102990 0.038162
0.117562 0.102990 0.038162
0.138604 0.103319 0.038162
0.161322 0.104146 0.038162
0.185351 0.105065 0.038162
0.210625 0.106029 0.038162
0.237074 0.107009 0.038162
0.264623 0.107990 0.038162
0.293194 0.108962 0.038162
0.322700 0.109919 0.038162
0.353054 0.110859 0.038162
0.384160 0.111778 0.038162
0.415920 0.112678 0.038162
0.448231 0.113556 0.038162
0.480984 0.114413 0.038162
0.514068 0.115251 0.038162
0.547368 0.116068 0.038162
0.580761 0.116867 0.038162
0.614125 0.117646 0.038162
0.647332 0.118409 0.038162
0.680250 0.119154 0.038162
0.712743 0.119883 0.038162
0.744673 0.120596 0.038162
0.775897 0.121293 0.038162
0.806271 0.121977 0.038162
0.835643 0.122647 0.038162
0.863863 0.123303 0.038162
0.014811 0.115038 0.045396
0.014811 0.122813 0.038757
0.028915 0.123455 0.038162
0.044638 0.123455 0.038162
0.061496 0.123455 0.038162
0.079431 0.123455 0.038162
0.098385 0.123455 0.038162
0.118297 0.123455 0.038162
0.139110 0.123455 0.038162
0.161322 0.123935 0.038162
0.185351 0.125044 0.038162
0.210625 0.126206 0.038162
0.237074 0.127389 0.038162
0.264623 0.128572 0.038162
0.293194 0.129745 0.038162
0.322700 0.130900 0.038162
0.353054 0.132034 0.038162
0.384160 0.133143 0.038162
0.415920 0.134228 0.038162
0.448231 0.135288 0.038162
0.480984 0.136323 0.038162
0.514068 0.137334 0.038162
0.547368 0.138321 0.038162
0.580761 0.139284 0.038162
0.614125 0.140226 0.038162
0.647332 0.141146 0.038162
0.680250 0.142046 0.038162
0.712743 0.142925 0.038162
0.744673 0.143786 0.038162
0.775897 0.144629 0.038162
0.806271 0.145454 0.038162
0.835643 0.146263 0.038162
0.863863 0.147055 0.038162
0.014811 0.136313 0.045540
0.014811 0.144584 0.038762
0.029019 0.145267 0.038162
0.044864 0.145267 0.038162
0.061861 0.145267 0.038162
0.079948 0.145267 0.038162
0.099066 0.145267 0.038162
0.119155 0.145267 0.038162
0.140155 0.145267 0.038162
0.162005 0.145267 0.038162
0.185351 0.145882 0.038162
0.210625 0.147253 0.038162
0.237074 0.148648 0.038162
0.264623 0.150044 0.038162
0.293194 0.151427 0.038162
0.322700 0.152790 0.038162
0.353054 0.154127 0.038162
0.384160 0.155436 0.038162
0.415920 0.156716 0.038162
0.448231 0.157966 0.038162
0.480984 0.159187 0.038162
0.514068 0.160379 0.038162
0.547368 0.161544 0.038162
0.580761 0.162681 0.038162
0.614125 0.163791 0.038162
0.647332 0.164877 0.038162
0.680250 0.165938 0.038162
0.712743 0.166976 0.038162
0.744673 0.167992 0.038162
0.775897 0.168986 0.038162
0.806271 0.169960 0.038162
0.835643 0.170913 0.038162
0.863863 0.171848 0.038162
0.014811 0.158904 0.045671
0.014811 0.167651 0.038767
0.029130 0.168372 0.038162
0.045106 0.168372 0.038162
0.062251 0.168372 0.038162
0.080501 0.168372 0.038162
0.099796 0.168372 0.038162
0.120074 0.168372 0.038162
0.141273 0.168372 0.038162
0.163333 0.168372 0.038162
0.186191 0.168372 0.038162
0.210625 0.169112 0.038162
0.237074 0.170728 0.038162
0.264623 0.172345 0.038162
0.293194 0.173947 0.038162
0.322700 0.175525 0.038162
0.353054 0.177074 0.038162
0.384160 0.178590 0.038162
0.415920 0.180073 0.038162
0.448231 0.181521 0.038162
0.480984 0.182935 0.038162
0.514068 0.184316 0.038162
0.547368 0.185664 0.038162
0.580761 0.186981 0.038162
0.614125 0.188268 0.038162
0.647332 0.189525 0.038162
0.680250 0.190754 0.038162
0.712743 0.191956 0.038162
0.744673 0.193132 0.038162
0.775897 0.194283 0.038162
0.806271 0.195411 0.038162
0.835643 0.196516 0.038162
0.863863 0.197598 0.038162
0.014811 0.182755 0.045791
0.014811 0.191957 0.038772
0.029243 0.192714 0.038162
0.045355 0.192714 0.038162
0.062652 0.192714 0.038162
0.081070 0.192714 0.038162
0.100547 0.192714 0.038162
0.121019 0.192714 0.038162
0.142425 0.192714 0.038162
0.164700 0.192714 0.038162
0.187782 0.192714 0.038162
0.211608 0.192714 0.038162
0.237074 0.193569 0.038162
0.264623 0.195414 0.038162
0.293194 0.197242 0.038162
0.322700 0.199043 0.038162
0.353054 0.200810 0.038162
0.384160 0.202540 0.038162
0.415920 0.204231 0.038162
0.448231 0.205883 0.038162
0.480984 0.207497 0.038162
0.514068 0.209072 0.038162
0.547368 0.210610 0.038162
0.580761 0.212112 0.038162
0.614125 0.213580 0.038162
0.647332 0.215013 0.038162
0.680250 0.216415 0.038162
0.712743 0.217786 0.038162
0.744673 0.219128 0.038162
0.775897 0.220441 0.038162
0.806271 0.221726 0.038162
0.835643 0.222986 0.038162
0.863863 0.224220 0.038162
0.014811 0.207805 0.045903
0.014811 0.217438 0.038777
0.029358 0.218230 0.038162
0.045606 0.218230 0.038162
0.063056 0.218230 0.038162
0.081643 0.218230 0.038162
0.101303 0.218230 0.038162
0.121971 0.218230 0.038162
0.143584 0.218230 0.038162
0.166076 0.218230 0.038162
0.189384 0.218230 0.038162
0.213443 0.218230 0.038162
0.238188 0.218230 0.038162
0.264623 0.219190 0.038162
0.293194 0.221250 0.038162
0.322700 0.223279 0.038162
0.353054 0.225270 0.038162
0.384160 0.227219 0.038162
0.415920 0.229124 0.038162
0.448231 0.230985 0.038162
0.480984 0.232802 0.038162
0.514068 0.234576 0.038162
0.547368 0.236308 0.038162
0.580761 0.238000 0.038162
0.614125 0.239652 0.038162
0.647332 0.241267 0.038162
0.680250 0.242845 0.038162
0.712743 0.244388 0.038162
0.744673 0.245898 0.038162
0.775897 0.247376 0.038162
0.806271 0.248823 0.038162
0.835643 0.250241 0.038162
0.863863 0.251630 0.038162
0.014811 0.233989 0.046007
0.014811 0.244026 0.038781
0.029471 0.244851 0.038162
0.045855 0.244851 0.038162
0.063457 0.244851 0.038162
0.082212 0.244851 0.038162
0.102054 0.244851 0.038162
0.122918 0.244851 0.038162
0.144737 0.244851 0.038162
0.167445 0.244851 0.038162
0.190977 0.244851 0.038162
0.215267 0.244851 0.038162
0.240249 0.244851 0.038162
0.265858 0.244851 0.038162
0.293194 0.245909 0.038162
0.322700 0.248170 0.038162
0.353054 0.250389 0.038162
0.384160 0.252560 0.038162
0.415920 0.254683 0.038162
0.448231 0.256757 0.038162
0.480984 0.258781 0.038162
0.514068 0.260757 0.038162
0.547368 0.262687 0.038162
0.580761 0.264570 0.038162
0.614125 0.266410 0.038162
0.647332 0.268208 0.038162
0.680250 0.269965 0.038162
0.712743 0.271684 0.038162
0.744673 0.273365 0.038162
0.775897 0.275010 0.038162
0.806271 0.276620 0.038162
0.835643 0.278198 0.038162
0.863863 0.279744 0.038162
0.014811 0.261235 0.046105
0.014811 0.271649 0.038786
0.029583 0.272504 0.038162
0.046100 0.272504 0.038162
0.063853 0.272504 0.038162
0.082774 0.272504 0.038162
0.102796 0.272504 0.038162
0.123852 0.272504 0.038162
0.145874 0.272504 0.038162
0.168796 0.272504 0.038162
0.192550 0.272504 0.038162
0.217068 0.272504 0.038162
0.242284 0.272504 0.038162
0.268130 0.272504 0.038162
0.294539 0.272504 0.038162
0.322700 0.273653 0.038162
0.353054 0.276102 0.038162
0.384160 0.278499 0.038162
0.415920 0.280842 0.038162
0.448231 0.283130 0.038162
0.480984 0.285364 0.038162
0.514068 0.287544 0.038162
0.547368 0.289672 0.038162
0.580761 0.291750 0.038162
0.614125 0.293779 0.038162
0.647332 0.295762 0.038162
0.680250 0.297699 0.038162
0.712743 0.299594 0.038162
0.744673 0.301447 0.038162
0.775897 0.303260 0.038162
0.806271 0.305035 0.038162
0.835643 0.306774 0.038162
0.863863 0.308478 0.038162
0.014811 0.289468 0.046196
0.014811 0.300229 0.038791
0.029693 0.301112 0.038162
0.046341 0.301112 0.038162
0.064242 0.301112 0.038162
0.083326 0.301112 0.038162
0.103525 0.301112 0.038162
0.124770 0.301112 0.038162
0.146993 0.301112 0.038162
0.170124 0.301112 0.038162
0.194095 0.301112 0.038162
0.218838 0.301112 0.038162
0.244283 0.301112 0.038162
0.270362 0.301112 0.038162
0.297006 0.301112 0.038162
0.324147 0.301112 0.038162
0.353054 0.302345 0.038162
0.384160 0.304968 0.038162
0.415920 0.307532 0.038162
0.448231 0.310036 0.038162
0.480984 0.312479 0.038162
0.514068 0.314864 0.038162
0.547368 0.317192 0.038162
0.580761 0.319464 0.038162
0.614125 0.321683 0.038162
0.647332 0.323851 0.038162
0.680250 0.325969 0.038162
0.712743 0.328039 0.038162
0.744673 0.330065 0.038162
0.775897 0.332046 0.038162
0.806271 0.333986 0.038162
0.835643 0.335885 0.038162
0.863863 0.337746 0.038162
0.014811 0.318606 0.046283
0.014811 0.329684 0.038795
0.029800 0.330592 0.038162
0.046577 0.330592 0.038162
0.064622 0.330592 0.038162
0.083866 0.330592 0.038162
0.104238 0.330592 0.038162
0.125669 0.330592 0.038162
0.148088 0.330592 0.038162
0.171425 0.330592 0.038162
0.195609 0.330592 0.038162
0.220572 0.330592 0.038162
0.246241 0.330592 0.038162
0.272549 0.330592 0.038162
0.299423 0.330592 0.038162
0.326794 0.330592 0.038162
0.354593 0.330592 0.038162
0.384160 0.331902 0.038162
0.415920 0.334687 0.038162
0.448231 0.337405 0.038162
0.480984 0.340059 0.038162
0.514068 0.342648 0.038162
0.547368 0.345174 0.038162
0.580761 0.347640 0.038162
0.614125 0.350048 0.038162
0.647332 0.352399 0.038162
0.680250 0.354697 0.038162
0.712743 0.356943 0.038162
0.744673 0.359139 0.038162
0.775897 0.361287 0.038162
0.806271 0.363390 0.038162
0.835643 0.365449 0.038162
0.863863 0.367466 0.038162
0.014811 0.348566 0.046366
0.014811 0.359927 0.038800
0.029905 0.360858 0.038162
0.046807 0.360858 0.038162
0.064994 0.360858 0.038162
0.084394 0.360858 0.038162
0.104936 0.360858 0.038162
0.126548 0.360858 0.038162
0.149159 0.360858 0.038162
0.172697 0.360858 0.038162
0.197090 0.360858 0.038162
0.222267 0.360858 0.038162
0.248156 0.360858 0.038162
0.274686 0.360858 0.038162
0.301786 0.360858 0.038162
0.329382 0.360858 0.038162
0.357405 0.360858 0.038162
0.385782 0.360858 0.038162
0.415920 0.362238 0.038162
0.448231 0.365170 0.038162
0.480984 0.368031 0.038162
0.514068 0.370822 0.038162
0.547368 0.373545 0.038162
0.580761 0.376203 0.038162
0.614125 0.378797 0.038162
0.647332 0.381331 0.038162
0.680250 0.383806 0.038162
0.712743 0.386224 0.038162
0.744673 0.388589 0.038162
0.775897 0.390902 0.038162
0.806271 0.393166 0.038162
0.835643 0.395382 0.038162
0.863863 0.397553 0.038162
0.014811 0.379257 0.046444
0.014811 0.390867 0.038804
0.030007 0.391817 0.038162
0.047032 0.391817 0.038162
0.065357 0.391817 0.038162
0.084910 0.391817 0.038162
0.105618 0.391817 0.038162
0.127407 0.391817 0.038162
0.150206 0.391817 0.038162
0.173940 0.391817 0.038162
0.198537 0.391817 0.038162
0.223923 0.391817 0.038162
0.250027 0.391817 0.038162
0.276775 0.391817 0.038162
0.304093 0.391817 0.038162
0.331910 0.391817 0.038162
0.360151 0.391817 0.038162
0.388745 0.391817 0.038162
0.417617 0.391817 0.038162
0.448231 0.393260 0.038162
0.480984 0.396326 0.038162
0.514068 0.399316 0.038162
0.547368 0.402233 0.038162
0.580761 0.405079 0.038162
0.614125 0.407857 0.038162
0.647332 0.410569 0.038162
0.680250 0.413218 0.038162
0.712743 0.415806 0.038162
0.744673 0.418336 0.038162
0.775897 0.420810 0.038162
0.806271 0.423231 0.038162
0.835643 0.425601 0.038162
0.863863 0.427922 0.038162
0.014811 0.410585 0.046519
0.014811 0.422407 0.038808
0.030107 0.423374 0.038162
0.047251 0.423374 0.038162
0.065711 0.423374 0.038162
0.085413 0.423374 0.038162
0.106283 0.423374 0.038162
0.128246 0.423374 0.038162
0.151227 0.423374 0.038162
0.175153 0.423374 0.038162
0.199949 0.423374 0.038162
0.225541 0.423374 0.038162
0.251854 0.423374 0.038162
0.278813 0.423374 0.038162
0.306346 0.423374 0.038162
0.334376 0.423374 0.038162
0.362831 0.423374 0.038162
0.391635 0.423374 0.038162
0.420714 0.423374 0.038162
0.449993 0.423374 0.038162
0.480984 0.424874 0.038162
0.514068 0.428059 0.038162
0.547368 0.431165 0.038162
0.580761 0.434195 0.038162
0.614125 0.437152 0.038162
0.647332 0.440038 0.038162
0.680250 0.442856 0.038162
0.712743 0.445609 0.038162
0.744673 0.448300 0.038162
0.775897 0.450931 0.038162
0.806271 0.453504 0.038162
0.835643 0.456023 0.038162
0.863863 0.458489 0.038162
0.014811 0.442452 0.046591
0.014811 0.454449 0.038812
0.030204 0.455430 0.038162
0.047465 0.455430 0.038162
0.066057 0.455430 0.038162
0.085905 0.455430 0.038162
0.106933 0.455430 0.038162
0.129064 0.455430 0.038162
0.152225 0.455430 0.038162
0.176338 0.455430 0.038162
0.201328 0.455430 0.038162
0.227119 0.455430 0.038162
0.253636 0.455430 0.038162
0.280803 0.455430 0.038162
0.308544 0.455430 0.038162
0.336783 0.455430 0.038162
0.365445 0.455430 0.038162
0.394453 0.455430 0.038162
0.423733 0.455430 0.038162
0.453208 0.455430 0.038162
0.482803 0.455430 0.038162
0.514068 0.456979 0.038162
0.547368 0.460269 0.038162
0.580761 0.463477 0.038162
0.614125 0.466607 0.038162
0.647332 0.469661 0.038162
0.680250 0.472643 0.038162
0.712743 0.475555 0.038162
0.744673 0.478400 0.038162
0.775897 0.481182 0.038162
0.806271 0.483903 0.038162
0.835643 0.486564 0.038162
0.863863 0.489170 0.038162
0.014811 0.474755 0.046660
0.014811 0.486888 0.038816
0.030299 0.487879 0.038162
0.047674 0.487879 0.038162
0.066394 0.487879 0.038162
0.086384 0.487879 0.038162
0.107566 0.487879 0.038162
0.129863 0.487879 0.038162
0.153198 0.487879 0.038162
0.177494 0.487879 0.038162
0.202674 0.487879 0.038162
0.228660 0.487879 0.038162
0.255376 0.487879 0.038162
0.282745 0.487879 0.038162
0.310689 0.487879 0.038162
0.339131 0.487879 0.038162
0.367995 0.487879 0.038162
0.397203 0.487879 0.038162
0.426678 0.487879 0.038162
0.456343 0.487879 0.038162
0.486121 0.487879 0.038162
0.515935 0.487879 0.038162
0.547368 0.489471 0.038162
0.580761 0.492851 0.038162
0.614125 0.496146 0.038162
0.647332 0.499362 0.038162
0.680250 0.502500 0.038162
0.712743 0.505565 0.038162
0.744673 0.508558 0.038162
0.775897 0.511484 0.038162
0.806271 0.514344 0.038162
0.835643 0.517142 0.038162
0.863863 0.519881 0.038162
0.014811 0.507389 0.046726
0.014811 0.519617 0.038820
0.030392 0.520615 0.038162
0.047877 0.520615 0.038162
0.066724 0.520615 0.038162
0.086852 0.520615 0.038162
0.108185 0.520615 0.038162
0.130644 0.520615 0.038162
0.154149 0.520615 0.038162
0.178624 0.520615 0.038162
0.203988 0.520615 0.038162
0.230165 0.520615 0.038162
0.257075 0.520615 0.038162
0.284641 0.520615 0.038162
0.312783 0.520615 0.038162
0.341423 0.520615 0.038162
0.370484 0.520615 0.038162
0.399885 0.520615 0.038162
0.429550 0.520615 0.038162
0.459400 0.520615 0.038162
0.489356 0.520615 0.038162
0.519339 0.520615 0.038162
0.549272 0.520615 0.038162
0.580761 0.522242 0.038162
0.614125 0.525696 0.038162
0.647332 0.529065 0.038162
0.680250 0.532351 0.038162
0.712743 0.535560 0.038162
0.744673 0.538693 0.038162
0.775897 0.541755 0.038162
0.806271 0.544747 0.038162
0.835643 0.547674 0.038162
0.863863 0.550537 0.038162
0.014811 0.540243 0.046789
0.014811 0.552524 0.038824
0.030482 0.553526 0.038162
0.048076 0.553526 0.038162
0.067045 0.553526 0.038162
0.087309 0.553526 0.038162
0.108789 0.553526 0.038162
0.131405 0.553526 0.038162
0.155078 0.553526 0.038162
0.179726 0.553526 0.038162
0.205272 0.553526 0.038162
0.231634 0.553526 0.038162
0.258734 0.553526 0.038162
0.286492 0.553526 0.038162
0.314827 0.553526 0.038162
0.343660 0.553526 0.038162
0.372912 0.553526 0.038162
0.402503 0.553526 0.038162
0.432352 0.553526 0.038162
0.462381 0.553526 0.038162
0.492510 0.553526 0.038162
0.522658 0.553526 0.038162
0.552746 0.553526 0.038162
0.582695 0.553526 0.038162
0.614125 0.555180 0.038162
0.647332 0.558693 0.038162
0.680250 0.562119 0.038162
0.712743 0.565462 0.038162
0.744673 0.568726 0.038162
0.775897 0.571914 0.038162
0.806271 0.575030 0.038162
0.835643 0.578076 0.038162
0.863863 0.581055 0.038162
0.014811 0.573202 0.046851
0.014811 0.585493 0.038828
0.030570 0.586495 0.038162
0.048270 0.586495 0.038162
0.067359 0.586495 0.038162
0.087755 0.586495 0.038162
0.109379 0.586495 0.038162
0.132149 0.586495 0.038162
0.155984 0.586495 0.038162
0.180803 0.586495 0.038162
0.206526 0.586495 0.038162
0.233070 0.586495 0.038162
0.260354 0.586495 0.038162
0.288299 0.586495 0.038162
0.316823 0.586495 0.038162
0.345845 0.586495 0.038162
0.375283 0.586495 0.038162
0.405058 0.586495 0.038162
0.435087 0.586495 0.038162
0.465290 0.586495 0.038162
0.495586 0.586495 0.038162
0.525894 0.586495 0.038162
0.556133 0.586495 0.038162
0.586221 0.586495 0.038162
0.616078 0.586495 0.038162
0.647332 0.588170 0.038162
0.680250 0.591724 0.038162
0.712743 0.595192 0.038162
0.744673 0.598577 0.038162
0.775897 0.601881 0.038162
0.806271 0.605109 0.038162
0.835643 0.608264 0.038162
0.863863 0.611349 0.038162
0.014811 0.606151 0.046910
0.014811 0.618407 0.038831
0.030656 0.619405 0.038162
0.048459 0.619405 0.038162
0.067665 0.619405 0.038162
0.088191 0.619405 0.038162
0.109956 0.619405 0.038162
0.132877 0.619405 0.038162
0.156871 0.619405 0.038162
0.181856 0.619405 0.038162
0.207751 0.619405 0.038162
0.234472 0.619405 0.038162
0.261938 0.619405 0.038162
0.290066 0.619405 0.038162
0.318773 0.619405 0.038162
0.347979 0.619405 0.038162
0.377599 0.619405 0.038162
0.407553 0.619405 0.038162
0.437757 0.619405 0.038162
0.468130 0.619405 0.038162
0.498589 0.619405 0.038162
0.529051 0.619405 0.038162
0.559435 0.619405 0.038162
0.589659 0.619405 0.038162
0.619639 0.619405 0.038162
0.649294 0.619405 0.038162
0.680250 0.621091 0.038162
0.712743 0.624672 0.038162
0.744673 0.628165 0.038162
0.775897 0.631575 0.038162
0.806271 0.634904 0.038162
0.835643 0.638157 0.038162
0.863863 0.641336 0.038162
0.014811 0.638966 0.046967
0.014811 0.651141 0.038835
0.030740 0.652132 0.038162
0.048644 0.652132 0.038162
0.067964 0.652132 0.038162
0.088618 0.652132 0.038162
0.110520 0.652132 0.038162
0.133588 0.652132 0.038162
0.157737 0.652132 0.038162
0.182886 0.652132 0.038162
0.208949 0.652132 0.038162
0.235843 0.652132 0.038162
0.263486 0.652132 0.038162
0.291792 0.652132 0.038162
0.320680 0.652132 0.038162
0.350064 0.652132 0.038162
0.379862 0.652132 0.038162
0.409990 0.652132 0.038162
0.440365 0.652132 0.038162
0.470903 0.652132 0.038162
0.501520 0.652132 0.038162
0.532133 0.652132 0.038162
0.562658 0.652132 0.038162
0.593012 0.652132 0.038162
0.623111 0.652132 0.038162
0.652872 0.652132 0.038162
0.682211 0.652132 0.038162
0.712743 0.653822 0.038162
0.744673 0.657412 0.038162
