assets/luts/sky.cube
TITLE "sky"
LUT_3D_SIZE 33
0.000000 0.000000 0.080947
0.000000 0.000000 0.080947
0.073902 0.000000 0.067113
0.104708 0.000000 0.045687
0.135060 0.000000 0.038782
0.165073 0.000000 0.035323
0.194813 0.000000 0.033222
0.224327 0.000000 0.031798
0.253647 0.000000 0.030763
0.282799 0.000000 0.029970
0.311801 0.000000 0.029341
0.340668 0.000000 0.028828
0.369414 0.000000 0.028399
0.398047 0.000000 0.028034
0.426579 0.000000 0.027719
0.455015 0.000000 0.027443
0.483362 0.000000 0.027200
0.511627 0.000000 0.026982
0.539813 0.000000 0.026787
0.567926 0.000000 0.026610
0.595970 0.000000 0.026448
0.623948 0.000000 0.026300
0.651863 0.000000 0.026163
0.679718 0.000000 0.026037
0.707517 0.000000 0.025920
0.735261 0.000000 0.025810
0.762953 0.000000 0.025708
0.790595 0.000000 0.025612
0.818188 0.000000 0.025521
0.845735 0.000000 0.025436
0.873237 0.000000 0.025355
0.901749 0.000000 0.025308
0.930000 0.000457 0.025762
0.000000 0.076841 0.070909
0.000000 0.076841 0.070909
0.054923 0.053790 0.049000
0.094287 0.042310 0.038203
0.128936 0.036549 0.032685
0.161757 0.032812 0.029038
0.193612 0.030030 0.026273
0.224862 0.027777 0.023998
0.255687 0.025851 0.022025
0.286192 0.024141 0.020253
0.316442 0.022582 0.018621
0.346482 0.021134 0.017092
0.376344 0.019769 0.015642
0.406050 0.018470 0.014251
0.435618 0.017222 0.012910
0.465064 0.016016 0.011608
0.494399 0.014845 0.010338
0.523631 0.013703 0.009096
0.552770 0.012586 0.007877
0.581822 0.011490 0.006677
0.610792 0.010412 0.005496
0.639686 0.009351 0.004329
0.668509 0.008303 0.003176
0.697264 0.007268 0.002035
0.725955 0.006244 0.000905
0.754407 0.005419 0.000000
0.782064 0.005386 0.000000
0.809672 0.005355 0.000000
0.837233 0.005326 0.000000
0.864749 0.005299 0.000000
0.892884 0.005278 0.000000
0.921575 0.005261 0.000000
0.930000 0.026764 0.024569
0.000000 0.110012 0.046537
0.000000 0.110012 0.046537
0.043951 0.098321 0.038778
0.094287 0.097089 0.038203
0.128936 0.085669 0.032685
0.161757 0.078654 0.029038
0.193612 0.073712 0.026273
0.224862 0.069919 0.023998
0.255687 0.066829 0.022025
0.286192 0.064205 0.020253
0.316442 0.061906 0.018621
0.346482 0.059844 0.017092
0.376344 0.057960 0.015642
0.406050 0.056214 0.014251
0.435618 0.054577 0.012910
0.465064 0.053028 0.011608
0.494399 0.051552 0.010338
0.523631 0.050136 0.009096
0.552770 0.048771 0.007877
0.581822 0.047449 0.006677
0.610792 0.046165 0.005496
0.639686 0.044913 0.004329
0.668509 0.043690 0.003176
0.697264 0.042492 0.002035
0.725955 0.041317 0.000905
0.754407 0.040333 0.000000
0.782064 0.040087 0.000000
0.809672 0.039857 0.000000
0.837233 0.039643 0.000000
0.864749 0.039442 0.000000
0.892884 0.039283 0.000000
0.921575 0.039158 0.000000
0.930000 0.059121 0.024569
0.000000 0.142682 0.039152
0.000000 0.142682 0.039152
0.037928 0.135810 0.033030
0.083918 0.135810 0.033030
0.128936 0.134790 0.032685
0.161757 0.124496 0.029038
0.193612 0.117395 0.026273
0.224862 0.112060 0.023998
0.255687 0.107807 0.022025
0.286192 0.104270 0.020253
0.316442 0.101231 0.018621
0.346482 0.098554 0.017092
0.376344 0.096151 0.015642
0.406050 0.093958 0.014251
0.435618 0.091931 0.012910
0.465064 0.090040 0.011608
0.494399 0.088258 0.010338
0.523631 0.086568 0.009096
0.552770 0.084955 0.007877
0.581822 0.083408 0.006677
0.610792 0.081918 0.005496
0.639686 0.080476 0.004329
0.668509 0.079078 0.003176
0.697264 0.077717 0.002035
0.725955 0.076390 0.000905
0.754407 0.075248 0.000000
0.782064 0.074787 0.000000
0.809672 0.074359 0.000000
0.837233 0.073959 0.000000
0.864749 0.073585 0.000000
0.892884 0.073288 0.000000
0.921575 0.073055 0.000000
0.930000 0.091477 0.024569
0.000000 0.174979 0.035531
0.000000 0.174979 0.035531
0.034105 0.171210 0.029284
0.076931 0.171210 0.029284
0.119757 0.171210 0.029284
0.161757 0.170338 0.029038
0.193612 0.161078 0.026273
0.224862 0.154201 0.023998
0.255687 0.148785 0.022025
0.286192 0.144334 0.020253
0.316442 0.140555 0.018621
0.346482 0.137265 0.017092
0.376344 0.134341 0.015642
0.406050 0.131702 0.014251
0.435618 0.129286 0.012910
0.465064 0.127051 0.011608
0.494399 0.124964 0.010338
0.523631 0.123000 0.009096
0.552770 0.121140 0.007877
0.581822 0.119368 0.006677
0.610792 0.117671 0.005496
0.639686 0.116039 0.004329
0.668509 0.114465 0.003176
0.697264 0.112942 0.002035
0.725955 0.111462 0.000905
0.754407 0.110162 0.000000
0.782064 0.109488 0.000000
0.809672 0.108861 0.000000
0.837233 0.108276 0.000000
0.864749 0.107728 0.000000
0.892884 0.107293 0.000000
0.921575 0.106953 0.000000
0.930000 0.123834 0.024569
0.000000 0.206978 0.033357
0.000000 0.206978 0.033357
0.031305 0.205526 0.026469
0.072062 0.205526 0.026469
0.112820 0.205526 0.026469
0.153577 0.205526 0.026469
0.193612 0.204760 0.026273
0.224862 0.196342 0.023998
0.255687 0.189763 0.022025
0.286192 0.184399 0.020253
0.316442 0.179880 0.018621
0.346482 0.175975 0.017092
0.376344 0.172532 0.015642
0.406050 0.169446 0.014251
0.435618 0.166641 0.012910
0.465064 0.164063 0.011608
0.494399 0.161671 0.010338
0.523631 0.159433 0.009096
0.552770 0.157325 0.007877
0.581822 0.155327 0.006677
0.610792 0.153423 0.005496
0.639686 0.151602 0.004329
0.668509 0.149853 0.003176
0.697264 0.148166 0.002035
0.725955 0.146535 0.000905
0.754407 0.145077 0.000000
0.782064 0.144189 0.000000
0.809672 0.143364 0.000000
0.837233 0.142593 0.000000
0.864749 0.141871 0.000000
0.892884 0.141299 0.000000
0.921575 0.140850 0.000000
0.930000 0.156191 0.024569
0.000000 0.238731 0.031894
0.000000 0.238731 0.031894
0.029065 0.239171 0.024164
0.068354 0.239171 0.024164
0.107642 0.239171 0.024164
0.146931 0.239171 0.024164
0.186220 0.239171 0.024164
0.224862 0.238483 0.023998
0.255687 0.230741 0.022025
0.286192 0.224463 0.020253
0.316442 0.219204 0.018621
0.346482 0.214685 0.017092
0.376344 0.210723 0.015642
0.406050 0.207190 0.014251
0.435618 0.203996 0.012910
0.465064 0.201075 0.011608
0.494399 0.198377 0.010338
0.523631 0.195865 0.009096
0.552770 0.193509 0.007877
0.581822 0.191286 0.006677
0.610792 0.189176 0.005496
0.639686 0.187165 0.004329
0.668509 0.185240 0.003176
0.697264 0.183391 0.002035
0.725955 0.181608 0.000905
0.754407 0.179991 0.000000
0.782064 0.178890 0.000000
0.809672 0.177866 0.000000
0.837233 0.176909 0.000000
0.864749 0.176014 0.000000
0.892884 0.175304 0.000000
0.921575 0.174747 0.000000
0.930000 0.188547 0.024569
0.000000 0.270274 0.030834
0.000000 0.270274 0.030834
0.027167 0.272347 0.022172
0.065352 0.272347 0.022172
0.103537 0.272347 0.022172
0.141722 0.272347 0.022172
0.179907 0.272347 0.022172
0.218092 0.272347 0.022172
0.255687 0.271719 0.022025
0.286192 0.264528 0.020253
0.316442 0.258528 0.018621
0.346482 0.253396 0.017092
0.376344 0.248913 0.015642
0.406050 0.244934 0.014251
0.435618 0.241350 0.012910
0.465064 0.238086 0.011608
0.494399 0.235083 0.010338
0.523631 0.232297 0.009096
0.552770 0.229694 0.007877
0.581822 0.227245 0.006677
0.610792 0.224929 0.005496
0.639686 0.222728 0.004329
0.668509 0.220628 0.003176
0.697264 0.218615 0.002035
0.725955 0.216681 0.000905
0.754407 0.214906 0.000000
0.782064 0.213591 0.000000
0.809672 0.212368 0.000000
0.837233 0.211226 0.000000
0.864749 0.210157 0.000000
0.892884 0.209309 0.000000
0.921575 0.208645 0.000000
0.930000 0.220904 0.024569
0.000000 0.301633 0.030026
0.000000 0.301633 0.030026
0.025496 0.305172 0.020386
0.062816 0.305172 0.020386
0.100136 0.305172 0.020386
0.137456 0.305172 0.020386
0.174776 0.305172 0.020386
0.212096 0.305172 0.020386
0.249416 0.305172 0.020386
0.286192 0.304592 0.020253
0.316442 0.297853 0.018621
0.346482 0.292106 0.017092
0.376344 0.287104 0.015642
0.406050 0.282678 0.014251
0.435618 0.278705 0.012910
0.465064 0.275098 0.011608
0.494399 0.271790 0.010338
0.523631 0.268730 0.009096
0.552770 0.265878 0.007877
0.581822 0.263204 0.006677
0.610792 0.260682 0.005496
0.639686 0.258291 0.004329
0.668509 0.256015 0.003176
0.697264 0.253840 0.002035
0.725955 0.251754 0.000905
0.754407 0.249821 0.000000
0.782064 0.248292 0.000000
0.809672 0.246870 0.000000
0.837233 0.245543 0.000000
0.864749 0.244300 0.000000
0.892884 0.243314 0.000000
0.921575 0.242542 0.000000
0.930000 0.253261 0.024569
0.000000 0.332830 0.029386
0.000000 0.332830 0.029386
0.023982 0.337719 0.018745
0.060603 0.337719 0.018745
0.097224 0.337719 0.018745
0.133845 0.337719 0.018745
0.170466 0.337719 0.018745
0.207087 0.337719 0.018745
0.243708 0.337719 0.018745
0.280329 0.337719 0.018745
0.316442 0.337177 0.018621
0.346482 0.330816 0.017092
0.376344 0.325295 0.015642
0.406050 0.320421 0.014251
0.435618 0.316060 0.012910
0.465064 0.312109 0.011608
0.494399 0.308496 0.010338
0.523631 0.305162 0.009096
0.552770 0.302063 0.007877
0.581822 0.299163 0.006677
0.610792 0.296435 0.005496
0.639686 0.293854 0.004329
0.668509 0.291403 0.003176
0.697264 0.289065 0.002035
0.725955 0.286827 0.000905
0.754407 0.284735 0.000000
0.782064 0.282993 0.000000
0.809672 0.281372 0.000000
0.837233 0.279860 0.000000
0.864749 0.278443 0.000000
0.892884 0.277320 0.000000
0.921575 0.276439 0.000000
0.930000 0.285617 0.024569
0.000000 0.363881 0.028865
0.000000 0.363881 0.028865
0.022583 0.370036 0.017209
0.058624 0.370036 0.017209
0.094666 0.370036 0.017209
0.130708 0.370036 0.017209
0.166750 0.370036 0.017209
0.202792 0.370036 0.017209
0.238834 0.370036 0.017209
0.274876 0.370036 0.017209
0.310918 0.370036 0.017209
0.346482 0.369527 0.017092
0.376344 0.363486 0.015642
0.406050 0.358165 0.014251
0.435618 0.353414 0.012910
0.465064 0.349121 0.011608
0.494399 0.345202 0.010338
0.523631 0.341594 0.009096
0.552770 0.338247 0.007877
0.581822 0.335122 0.006677
0.610792 0.332187 0.005496
0.639686 0.329417 0.004329
0.668509 0.326790 0.003176
0.697264 0.324289 0.002035
0.725955 0.321900 0.000905
0.754407 0.319650 0.000000
0.782064 0.317694 0.000000
0.809672 0.315875 0.000000
0.837233 0.314176 0.000000
0.864749 0.312586 0.000000
0.892884 0.311325 0.000000
0.921575 0.310337 0.000000
0.930000 0.317974 0.024569
0.000000 0.394800 0.028430
0.000000 0.394800 0.028430
0.021270 0.402159 0.015753
0.056822 0.402159 0.015753
0.092375 0.402159 0.015753
0.127928 0.402159 0.015753
0.163480 0.402159 0.015753
0.199033 0.402159 0.015753
0.234585 0.402159 0.015753
0.270138 0.402159 0.015753
0.305690 0.402159 0.015753
0.341243 0.402159 0.015753
0.376344 0.401676 0.015642
0.406050 0.395909 0.014251
0.435618 0.390769 0.012910
0.465064 0.386133 0.011608
0.494399 0.381909 0.010338
0.523631 0.378027 0.009096
0.552770 0.374432 0.007877
0.581822 0.371081 0.006677
0.610792 0.367940 0.005496
0.639686 0.364980 0.004329
0.668509 0.362178 0.003176
0.697264 0.359514 0.002035
0.725955 0.356973 0.000905
0.754407 0.354564 0.000000
0.782064 0.352395 0.000000
0.809672 0.350377 0.000000
0.837233 0.348493 0.000000
0.864749 0.346729 0.000000
0.892884 0.345330 0.000000
0.921575 0.344234 0.000000
0.930000 0.350330 0.024569
0.000000 0.425598 0.028061
0.000000 0.425598 0.028061
0.020024 0.434114 0.014359
0.055156 0.434114 0.014359
0.090289 0.434114 0.014359
0.125421 0.434114 0.014359
0.160554 0.434114 0.014359
0.195686 0.434114 0.014359
0.230818 0.434114 0.014359
0.265951 0.434114 0.014359
0.301083 0.434114 0.014359
0.336215 0.434114 0.014359
0.371348 0.434114 0.014359
0.406050 0.433653 0.014251
0.435618 0.428124 0.012910
0.465064 0.423144 0.011608
0.494399 0.418615 0.010338
0.523631 0.414459 0.009096
0.552770 0.410617 0.007877
0.581822 0.407041 0.006677
0.610792 0.403693 0.005496
0.639686 0.400543 0.004329
0.668509 0.397565 0.003176
0.697264 0.394738 0.002035
0.725955 0.392045 0.000905
0.754407 0.389479 0.000000
0.782064 0.387096 0.000000
0.809672 0.384879 0.000000
0.837233 0.382810 0.000000
0.864749 0.380872 0.000000
0.892884 0.379335 0.000000
0.921575 0.378131 0.000000
0.930000 0.382687 0.024569
0.000000 0.456285 0.027742
0.000000 0.456285 0.027742
0.018832 0.465919 0.013013
0.053598 0.465919 0.013013
0.088365 0.465919 0.013013
0.123131 0.465919 0.013013
0.157898 0.465919 0.013013
0.192665 0.465919 0.013013
0.227431 0.465919 0.013013
0.262198 0.465919 0.013013
0.296964 0.465919 0.013013
0.331731 0.465919 0.013013
0.366497 0.465919 0.013013
0.401264 0.465919 0.013013
0.435618 0.465478 0.012910
0.465064 0.460156 0.011608
0.494399 0.455321 0.010338
0.523631 0.450891 0.009096
0.552770 0.446801 0.007877
0.581822 0.443000 0.006677
0.610792 0.439446 0.005496
0.639686 0.436106 0.004329
0.668509 0.432953 0.003176
0.697264 0.429963 0.002035
0.725955 0.427118 0.000905
0.754407 0.424393 0.000000
0.782064 0.421797 0.000000
0.809672 0.419381 0.000000
0.837233 0.417126 0.000000
0.864749 0.415015 0.000000
0.892884 0.413341 0.000000
0.921575 0.412029 0.000000
0.930000 0.415044 0.024569
0.000000 0.486869 0.027464
0.000000 0.486869 0.027464
0.017682 0.497591 0.011708
0.052127 0.497591 0.011708
0.086571 0.497591 0.011708
0.121016 0.497591 0.011708
0.155460 0.497591 0.011708
0.189905 0.497591 0.011708
0.224349 0.497591 0.011708
0.258794 0.497591 0.011708
0.293238 0.497591 0.011708
0.327683 0.497591 0.011708
0.362127 0.497591 0.011708
0.396571 0.497591 0.011708
0.431016 0.497591 0.011708
0.465064 0.497167 0.011608
0.494399 0.492028 0.010338
0.523631 0.487324 0.009096
0.552770 0.482986 0.007877
0.581822 0.478959 0.006677
0.610792 0.475199 0.005496
0.639686 0.471669 0.004329
0.668509 0.468340 0.003176
0.697264 0.465188 0.002035
0.725955 0.462191 0.000905
0.754407 0.459308 0.000000
0.782064 0.456498 0.000000
0.809672 0.453884 0.000000
0.837233 0.451443 0.000000
0.864749 0.449158 0.000000
0.892884 0.447346 0.000000
0.921575 0.445926 0.000000
0.930000 0.447400 0.024569
0.000000 0.517358 0.027218
0.000000 0.517358 0.027218
0.016569 0.529143 0.010436
0.050727 0.529143 0.010436
0.084885 0.529143 0.010436
0.119043 0.529143 0.010436
0.153201 0.529143 0.010436
0.187359 0.529143 0.010436
0.221517 0.529143 0.010436
0.255675 0.529143 0.010436
0.289833 0.529143 0.010436
0.323991 0.529143 0.010436
0.358149 0.529143 0.010436
0.392307 0.529143 0.010436
0.426465 0.529143 0.010436
0.460623 0.529143 0.010436
0.494399 0.528734 0.010338
0.523631 0.523756 0.009096
0.552770 0.519170 0.007877
0.581822 0.514918 0.006677
0.610792 0.510951 0.005496
0.639686 0.507232 0.004329
0.668509 0.503728 0.003176
0.697264 0.500412 0.002035
0.725955 0.497264 0.000905
0.754407 0.494222 0.000000
0.782064 0.491199 0.000000
0.809672 0.488386 0.000000
0.837233 0.485760 0.000000
0.864749 0.483301 0.000000
0.892884 0.481351 0.000000
0.921575 0.479823 0.000000
0.930000 0.479757 0.024569
0.000000 0.547756 0.026998
0.000000 0.547756 0.026998
0.015484 0.560584 0.009192
0.049386 0.560584 0.009192
0.083287 0.560584 0.009192
0.117188 0.560584 0.009192
0.151089 0.560584 0.009192
0.184990 0.560584 0.009192
0.218891 0.560584 0.009192
0.252792 0.560584 0.009192
0.286693 0.560584 0.009192
0.320594 0.560584 0.009192
0.354495 0.560584 0.009192
0.388396 0.560584 0.009192
0.422298 0.560584 0.009192
0.456199 0.560584 0.009192
0.490100 0.560584 0.009192
0.523631 0.560188 0.009096
0.552770 0.555355 0.007877
0.581822 0.550877 0.006677
0.610792 0.546704 0.005496
0.639686 0.542795 0.004329
0.668509 0.539115 0.003176
0.697264 0.535637 0.002035
0.725955 0.532337 0.000905
0.754407 0.529137 0.000000
0.782064 0.525900 0.000000
0.809672 0.522888 0.000000
0.837233 0.520077 0.000000
0.864749 0.517444 0.000000
0.892884 0.515356 0.000000
0.921575 0.513721 0.000000
0.930000 0.512114 0.024569
0.000000 0.578071 0.026801
0.000000 0.578071 0.026801
0.014426 0.591923 0.007971
0.048094 0.591923 0.007971
0.081763 0.591923 0.007971
0.115432 0.591923 0.007971
0.149101 0.591923 0.007971
0.182770 0.591923 0.007971
0.216439 0.591923 0.007971
0.250108 0.591923 0.007971
0.283777 0.591923 0.007971
0.317446 0.591923 0.007971
0.351115 0.591923 0.007971
0.384784 0.591923 0.007971
0.418453 0.591923 0.007971
0.452122 0.591923 0.007971
0.485791 0.591923 0.007971
0.519459 0.591923 0.007971
0.552770 0.591539 0.007877
0.581822 0.586836 0.006677
0.610792 0.582457 0.005496
0.639686 0.578358 0.004329
0.668509 0.574503 0.003176
0.697264 0.570862 0.002035
0.725955 0.567410 0.000905
0.754407 0.564051 0.000000
0.782064 0.560601 0.000000
0.809672 0.557390 0.000000
0.837233 0.554393 0.000000
0.864749 0.551587 0.000000
0.892884 0.549362 0.000000
0.921575 0.547618 0.000000
0.930000 0.544470 0.024569
0.000000 0.608306 0.026623
0.000000 0.608306 0.026623
0.013388 0.623169 0.006771
0.046846 0.623169 0.006771
0.080304 0.623169 0.006771
0.113761 0.623169 0.006771
0.147219 0.623169 0.006771
0.180677 0.623169 0.006771
0.214135 0.623169 0.006771
0.247592 0.623169 0.006771
0.281050 0.623169 0.006771
0.314508 0.623169 0.006771
0.347966 0.623169 0.006771
0.381423 0.623169 0.006771
0.414881 0.623169 0.006771
0.448339 0.623169 0.006771
0.481797 0.623169 0.006771
0.515255 0.623169 0.006771
0.548712 0.623169 0.006771
0.581822 0.622795 0.006677
0.610792 0.618210 0.005496
0.639686 0.613921 0.004329
0.668509 0.609890 0.003176
0.697264 0.606086 0.002035
0.725955 0.602483 0.000905
0.754407 0.598966 0.000000
0.782064 0.595302 0.000000
0.809672 0.591892 0.000000
0.837233 0.588710 0.000000
0.864749 0.585731 0.000000
0.892884 0.583367 0.000000
0.921575 0.581515 0.000000
0.930000 0.576827 0.024569
0.000000 0.638466 0.026460
0.000000 0.638466 0.026460
0.012369 0.654326 0.005588
0.045634 0.654326 0.005588
0.078899 0.654326 0.005588
0.112163 0.654326 0.005588
0.145428 0.654326 0.005588
0.178692 0.654326 0.005588
0.211957 0.654326 0.005588
0.245221 0.654326 0.005588
0.278486 0.654326 0.005588
0.311750 0.654326 0.005588
0.345015 0.654326 0.005588
0.378280 0.654326 0.005588
0.411544 0.654326 0.005588
0.444809 0.654326 0.005588
0.478073 0.654326 0.005588
0.511338 0.654326 0.005588
0.544602 0.654326 0.005588
0.577867 0.654326 0.005588
0.610792 0.653963 0.005496
0.639686 0.649484 0.004329
0.668509 0.645277 0.003176
0.697264 0.641311 0.002035
0.725955 0.637556 0.000905
0.754407 0.633880 0.000000
0.782064 0.630003 0.000000
0.809672 0.626395 0.000000
0.837233 0.623027 0.000000
0.864749 0.619874 0.000000
0.892884 0.617372 0.000000
0.921575 0.615413 0.000000
0.930000 0.609184 0.024569
0.000000 0.668555 0.026311
0.000000 0.668555 0.026311
0.011367 0.685402 0.004420
0.044454 0.685402 0.004420
0.077541 0.685402 0.004420
0.110628 0.685402 0.004420
0.143714 0.685402 0.004420
0.176801 0.685402 0.004420
0.209888 0.685402 0.004420
0.242975 0.685402 0.004420
0.276062 0.685402 0.004420
0.309149 0.685402 0.004420
0.342236 0.685402 0.004420
0.375323 0.685402 0.004420
0.408409 0.685402 0.004420
0.441496 0.685402 0.004420
0.474583 0.685402 0.004420
0.507670 0.685402 0.004420
0.540757 0.685402 0.004420
0.573844 0.685402 0.004420
0.606931 0.685402 0.004420
0.639686 0.685047 0.004329
0.668509 0.680665 0.003176
0.697264 0.676535 0.002035
0.725955 0.672628 0.000905
0.754407 0.668795 0.000000
0.782064 0.664704 0.000000
0.809672 0.660897 0.000000
0.837233 0.657343 0.000000
0.864749 0.654017 0.000000
0.892884 0.651377 0.000000
0.921575 0.649310 0.000000
0.930000 0.641540 0.024569
0.000000 0.698577 0.026174
0.000000 0.698577 0.026174
0.010379 0.716400 0.003266
0.043301 0.716400 0.003266
0.076224 0.716400 0.003266
0.109147 0.716400 0.003266
0.142070 0.716400 0.003266
0.174992 0.716400 0.003266
0.207915 0.716400 0.003266
0.240838 0.716400 0.003266
0.273760 0.716400 0.003266
0.306683 0.716400 0.003266
0.339606 0.716400 0.003266
0.372528 0.716400 0.003266
0.405451 0.716400 0.003266
0.438374 0.716400 0.003266
0.471297 0.716400 0.003266
0.504219 0.716400 0.003266
0.537142 0.716400 0.003266
0.570065 0.716400 0.003266
0.602987 0.716400 0.003266
0.635910 0.716400 0.003266
0.668509 0.716052 0.003176
0.697264 0.711760 0.002035
0.725955 0.707701 0.000905
0.754407 0.703710 0.000000
0.782064 0.699405 0.000000
0.809672 0.695399 0.000000
0.837233 0.691660 0.000000
0.864749 0.688160 0.000000
0.892884 0.685383 0.000000
0.921575 0.683207 0.000000
0.930000 0.673897 0.024569
0.000000 0.728534 0.026047
0.000000 0.728534 0.026047
0.009403 0.747325 0.002124
0.042174 0.747325 0.002124
0.074944 0.747325 0.002124
0.107714 0.747325 0.002124
0.140485 0.747325 0.002124
0.173255 0.747325 0.002124
0.206026 0.747325 0.002124
0.238796 0.747325 0.002124
0.271566 0.747325 0.002124
0.304337 0.747325 0.002124
0.337107 0.747325 0.002124
0.369877 0.747325 0.002124
0.402648 0.747325 0.002124
0.435418 0.747325 0.002124
0.468189 0.747325 0.002124
0.500959 0.747325 0.002124
0.533729 0.747325 0.002124
0.566500 0.747325 0.002124
0.599270 0.747325 0.002124
0.632040 0.747325 0.002124
0.664811 0.747325 0.002124
0.697264 0.746985 0.002035
0.725955 0.742774 0.000905
0.754407 0.738624 0.000000
0.782064 0.734106 0.000000
0.809672 0.729901 0.000000
0.837233 0.725977 0.000000
0.864749 0.722303 0.000000
0.892884 0.719388 0.000000
0.921575 0.717104 0.000000
0.930000 0.706253 0.024569
0.000000 0.758430 0.025929
0.000000 0.758430 0.025929
0.008439 0.778180 0.000993
0.041068 0.778180 0.000993
0.073696 0.778180 0.000993
0.106325 0.778180 0.000993
0.138953 0.778180 0.000993
0.171582 0.778180 0.000993
0.204210 0.778180 0.000993
0.236839 0.778180 0.000993
0.269467 0.778180 0.000993
0.302096 0.778180 0.000993
0.334724 0.778180 0.000993
0.367353 0.778180 0.000993
0.399981 0.778180 0.000993
0.432609 0.778180 0.000993
0.465238 0.778180 0.000993
0.497866 0.778180 0.000993
0.530495 0.778180 0.000993
0.563123 0.778180 0.000993
0.595752 0.778180 0.000993
0.628380 0.778180 0.000993
0.661009 0.778180 0.000993
0.693637 0.778180 0.000993
0.725955 0.777847 0.000905
0.754407 0.773539 0.000000
0.782064 0.768807 0.000000
0.809672 0.764404 0.000000
0.837233 0.760293 0.000000
0.864749 0.756446 0.000000
0.892884 0.753393 0.000000
0.921575 0.751002 0.000000
0.930000 0.738610 0.024569
0.000000 0.788267 0.025819
0.000000 0.788267 0.025819
0.007589 0.808857 0.000000
0.040076 0.808857 0.000000
0.072562 0.808857 0.000000
0.105049 0.808857 0.000000
0.137536 0.808857 0.000000
0.170023 0.808857 0.000000
0.202509 0.808857 0.000000
0.234996 0.808857 0.000000
0.267483 0.808857 0.000000
0.299969 0.808857 0.000000
0.332456 0.808857 0.000000
0.364943 0.808857 0.000000
0.397430 0.808857 0.000000
0.429916 0.808857 0.000000
0.462403 0.808857 0.000000
0.494890 0.808857 0.000000
0.527377 0.808857 0.000000
0.559863 0.808857 0.000000
0.592350 0.808857 0.000000
0.624837 0.808857 0.000000
0.657323 0.808857 0.000000
0.689810 0.808857 0.000000
0.722297 0.808857 0.000000
0.754407 0.808453 0.000000
0.782064 0.803508 0.000000
0.809672 0.798906 0.000000
0.837233 0.794610 0.000000
0.864749 0.790589 0.000000
0.892884 0.787399 0.000000
0.921575 0.784899 0.000000
0.930000 0.770967 0.024569
0.000000 0.818047 0.025716
0.000000 0.818047 0.025716
0.007542 0.838599 0.000000
0.039829 0.838599 0.000000
0.072116 0.838599 0.000000
0.104403 0.838599 0.000000
0.136690 0.838599 0.000000
0.168977 0.838599 0.000000
0.201264 0.838599 0.000000
0.233551 0.838599 0.000000
0.265838 0.838599 0.000000
0.298125 0.838599 0.000000
0.330412 0.838599 0.000000
0.362699 0.838599 0.000000
0.394986 0.838599 0.000000
0.427272 0.838599 0.000000
0.459559 0.838599 0.000000
0.491846 0.838599 0.000000
0.524133 0.838599 0.000000
0.556420 0.838599 0.000000
0.588707 0.838599 0.000000
0.620994 0.838599 0.000000
0.653281 0.838599 0.000000
0.685568 0.838599 0.000000
0.717855 0.838599 0.000000
0.750142 0.838599 0.000000
0.782064 0.838209 0.000000
0.809672 0.833408 0.000000
0.837233 0.828927 0.000000
0.864749 0.824732 0.000000
0.892884 0.821404 0.000000
0.921575 0.818796 0.000000
0.930000 0.803323 0.024569
0.000000 0.847773 0.025619
0.000000 0.847773 0.025619
0.007499 0.868290 0.000000
0.039600 0.868290 0.000000
0.071701 0.868290 0.000000
0.103802 0.868290 0.000000
0.135903 0.868290 0.000000
0.168004 0.868290 0.000000
0.200105 0.868290 0.000000
0.232206 0.868290 0.000000
0.264308 0.868290 0.000000
0.296409 0.868290 0.000000
0.328510 0.868290 0.000000
0.360611 0.868290 0.000000
0.392712 0.868290 0.000000
0.424813 0.868290 0.000000
0.456914 0.868290 0.000000
0.489015 0.868290 0.000000
0.521116 0.868290 0.000000
0.553217 0.868290 0.000000
0.585318 0.868290 0.000000
0.617420 0.868290 0.000000
0.649521 0.868290 0.000000
0.681622 0.868290 0.000000
0.713723 0.868290 0.000000
0.745824 0.868290 0.000000
0.777925 0.868290 0.000000
0.809672 0.867910 0.000000
0.837233 0.863244 0.000000
