assets/luts/sky.cube
TITLE "sky"
LUT_3D_SIZE 5
0.000000 0.000000 0.080947
0.253647 0.000000 0.030763
0.483362 0.000000 0.027200
0.707517 0.000000 0.025920
0.930000 0.000457 0.025762
0.000000 0.301633 0.030026
0.249416 0.305172 0.020386
0.494399 0.271790 0.010338
0.725955 0.251754 0.000905
0.930000 0.253261 0.024569
0.000000 0.547756 0.026998
0.218891 0.560584 0.009192
0.490100 0.560584 0.009192
0.725955 0.532337 0.000905
0.930000 0.512114 0.024569
0.000000 0.788267 0.025819
0.202509 0.808857 0.000000
0.462403 0.808857 0.000000
0.722297 0.808857 0.000000
0.930000 0.770967 0.024569
0.026814 1.000000 0.056399
0.223338 1.000000 0.056600
0.450181 1.000000 0.056600
0.677024 1.000000 0.056600
0.903868 1.000000 0.056600
0.000000 0.000000 0.370638
0.243042 0.000000 0.370638
0.483362 0.000000 0.342010
0.707517 0.000000 0.325917
0.930000 0.000457 0.317950
0.000000 0.296116 0.370638
0.221304 0.271790 0.342163
0.467486 0.253511 0.320070
0.703508 0.239264 0.303112
0.919286 0.252385 0.315643
0.000000 0.547756 0.339481
0.205595 0.535114 0.320070
0.462427 0.529436 0.315745
0.692190 0.512131 0.313520
0.918582 0.506999 0.315133
0.000000 0.788267 0.324645
0.193117 0.788072 0.303112
0.448289 0.767554 0.319264
0.686395 0.767554 0.319264
0.918582 0.762052 0.315133
0.026814 1.000000 0.332077
0.224004 1.000000 0.332978
0.450618 1.000000 0.332953
0.677255 1.000000 0.332953
0.903891 1.000000 0.332953
0.000000 0.000000 0.647910
0.221227 0.000000 0.647910
0.476804 0.000000 0.647910
0.707517 0.000000 0.625914
0.930000 0.000457 0.610138
0.000000 0.269537 0.647910
0.204071 0.251754 0.635022
0.462427 0.249902 0.631619
0.703508 0.239264 0.613189
0.919286 0.252385 0.603978
0.000000 0.544351 0.647910
0.204071 0.532337 0.635022
0.448170 0.512131 0.610018
0.681985 0.507548 0.603978
0.912638 0.502260 0.597885
0.000000 0.788267 0.623471
0.193117 0.788072 0.613189
0.444683 0.762712 0.603978
0.680725 0.761331 0.602649
0.911938 0.755770 0.597231
0.026814 1.000000 0.607755
0.224004 1.000000 0.608345
0.449740 1.000000 0.607373
0.676468 1.000000 0.606704
0.903810 1.000000 0.606704
0.000000 0.000000 0.919174
0.212162 0.000000 0.919174
0.457266 0.000000 0.919174
0.702370 0.000000 0.919174
0.930000 0.000457 0.902327
0.000000 0.258492 0.919174
0.204151 0.249744 0.906515
0.448289 0.255498 0.897887
0.686395 0.255498 0.897887
0.919286 0.252385 0.892312
0.000000 0.522045 0.919174
0.204151 0.512131 0.906515
0.444183 0.506999 0.891553
0.680725 0.506397 0.890725
0.912638 0.502260 0.885103
0.000000 0.785598 0.919174
0.204151 0.774518 0.906515
0.444183 0.762052 0.891553
0.675646 0.755770 0.884339
0.906031 0.750112 0.877852
0.026814 1.000000 0.883434
0.224004 1.000000 0.883712
0.449740 1.000000 0.883253
0.673635 1.000000 0.880177
0.903319 1.000000 0.878305
0.031209 0.033558 1.000000
0.225707 0.033558 1.000000
0.450405 0.033558 1.000000
0.675103 0.033558 1.000000
0.899801 0.033558 1.000000
0.031209 0.270529 1.000000
0.228358 0.273275 1.000000
0.452435 0.273617 1.000000
0.676182 0.273617 1.000000
0.899928 0.273617 1.000000
0.031209 0.512140 1.000000
0.228358 0.513976 1.000000
0.454055 0.515853 1.000000
0.677148 0.516055 1.000000
0.900043 0.516055 1.000000
0.031209 0.753751 1.000000
0.228358 0.754677 1.000000
0.454055 0.755625 1.000000
0.677918 0.756470 1.000000
0.900145 0.756562 1.000000
0.031209 0.995361 1.000000
0.228358 0.995379 1.000000
0.454055 0.995396 1.000000
0.677918 0.995412 1.000000
0.900228 0.995427 1.000000
