assets/luts/sky.cube
TITLE "sky"
LUT_3D_SIZE 9
0.000000 0.000000 0.080947
0.135060 0.000000 0.038782
0.253647 0.000000 0.030763
0.369414 0.000000 0.028399
0.483362 0.000000 0.027200
0.595970 0.000000 0.026448
0.707517 0.000000 0.025920
0.818188 0.000000 0.025521
0.930000 0.000457 0.025762
0.000000 0.174979 0.035531
0.119757 0.171210 0.029284
0.255687 0.148785 0.022025
0.376344 0.134341 0.015642
0.494399 0.124964 0.010338
0.610792 0.117671 0.005496
0.725955 0.111462 0.000905
0.837233 0.108276 0.000000
0.930000 0.123834 0.024569
0.000000 0.301633 0.030026
0.100136 0.305172 0.020386
0.249416 0.305172 0.020386
0.376344 0.287104 0.015642
0.494399 0.271790 0.010338
0.610792 0.260682 0.005496
0.725955 0.251754 0.000905
0.837233 0.245543 0.000000
0.930000 0.253261 0.024569
0.000000 0.425598 0.028061
0.090289 0.434114 0.014359
0.230818 0.434114 0.014359
0.371348 0.434114 0.014359
0.494399 0.418615 0.010338
0.610792 0.403693 0.005496
0.725955 0.392045 0.000905
0.837233 0.382810 0.000000
0.930000 0.382687 0.024569
0.000000 0.547756 0.026998
0.083287 0.560584 0.009192
0.218891 0.560584 0.009192
0.354495 0.560584 0.009192
0.490100 0.560584 0.009192
0.610792 0.546704 0.005496
0.725955 0.532337 0.000905
0.837233 0.520077 0.000000
0.930000 0.512114 0.024569
0.000000 0.668555 0.026311
0.077541 0.685402 0.004420
0.209888 0.685402 0.004420
0.342236 0.685402 0.004420
0.474583 0.685402 0.004420
0.606931 0.685402 0.004420
0.725955 0.672628 0.000905
0.837233 0.657343 0.000000
0.930000 0.641540 0.024569
0.000000 0.788267 0.025819
0.072562 0.808857 0.000000
0.202509 0.808857 0.000000
0.332456 0.808857 0.000000
0.462403 0.808857 0.000000
0.592350 0.808857 0.000000
0.722297 0.808857 0.000000
0.837233 0.794610 0.000000
0.930000 0.770967 0.024569
0.000000 0.907072 0.025442
0.070951 0.927520 0.000000
0.198012 0.927520 0.000000
0.325073 0.927520 0.000000
0.452135 0.927520 0.000000
0.579196 0.927520 0.000000
0.706257 0.927520 0.000000
0.833318 0.927520 0.000000
0.930000 0.900393 0.024569
0.026814 1.000000 0.056399
0.109917 1.000000 0.056600
0.223338 1.000000 0.056600
0.336760 1.000000 0.056600
0.450181 1.000000 0.056600
0.563603 1.000000 0.056600
0.677024 1.000000 0.056600
0.790446 1.000000 0.056600
0.903868 1.000000 0.056600
0.000000 0.000000 0.228293
0.117141 0.000000 0.228293
0.253647 0.000000 0.208786
0.369414 0.000000 0.192743
0.483362 0.000000 0.184605
0.595970 0.000000 0.179503
0.707517 0.000000 0.175918
0.818188 0.000000 0.173213
0.930000 0.000457 0.171856
0.000000 0.165647 0.228293
0.103248 0.148785 0.207246
0.237792 0.136789 0.191444
0.361165 0.126718 0.178477
0.480904 0.119099 0.168878
0.598431 0.112709 0.160965
0.714408 0.107037 0.154033
0.831106 0.102062 0.148074
0.922629 0.126557 0.173522
0.000000 0.301633 0.203785
0.094110 0.291286 0.191444
0.230818 0.283007 0.185109
0.357851 0.271790 0.176250
0.477792 0.260682 0.167098
0.595484 0.251754 0.159434
0.711594 0.244123 0.152659
0.814200 0.249744 0.165272
0.921922 0.253991 0.173101
0.000000 0.425598 0.190448
0.086168 0.422414 0.178477
0.218891 0.414773 0.173959
0.354495 0.414773 0.173959
0.477792 0.403693 0.167098
0.595484 0.392045 0.159434
0.711594 0.382343 0.152659
0.814200 0.380937 0.165272
0.921922 0.381785 0.173101
0.000000 0.547756 0.183240
0.079971 0.550211 0.168878
0.209888 0.543093 0.165229
0.342236 0.543093 0.165229
0.474583 0.543093 0.165229
0.595484 0.532337 0.159434
0.711594 0.520562 0.152659
0.814200 0.512131 0.165272
0.921922 0.509580 0.173101
0.000000 0.668555 0.178574
0.074650 0.675915 0.160965
0.202460 0.669203 0.157808
0.332444 0.669203 0.157808
0.462427 0.669203 0.157808
0.592411 0.669203 0.157808
0.711594 0.658781 0.152659
0.814200 0.643324 0.165272
0.921922 0.637374 0.173101
0.000000 0.788267 0.175232
0.069843 0.800118 0.154033
0.195994 0.793725 0.151188
0.324154 0.793725 0.151188
0.452315 0.793725 0.151188
0.580476 0.793725 0.151188
0.708636 0.793725 0.151188
0.814200 0.774518 0.165272
0.921922 0.765169 0.173101
0.000000 0.907072 0.172677
0.065519 0.925274 0.148074
0.210183 0.895568 0.174608
0.329236 0.895568 0.174608
0.448289 0.895568 0.174608
0.567342 0.895568 0.174608
0.686395 0.895568 0.174608
0.805448 0.895568 0.174608
0.921922 0.892963 0.173101
0.026814 1.000000 0.194238
0.110327 1.000000 0.194881
0.223885 1.000000 0.195137
0.337219 1.000000 0.195137
0.450553 1.000000 0.195137
0.563887 1.000000 0.195137
0.677220 1.000000 0.195137
0.790554 1.000000 0.195137
0.903888 1.000000 0.195137
0.000000 0.000000 0.370638
0.102653 0.000000 0.370638
0.243042 0.000000 0.370638
0.369414 0.000000 0.357087
0.483362 0.000000 0.342010
0.595970 0.000000 0.332559
0.707517 0.000000 0.325917
0.818188 0.000000 0.320905
0.930000 0.000457 0.317950
0.000000 0.145160 0.370638
0.092205 0.134341 0.360886
0.230818 0.131900 0.355860
0.361165 0.126718 0.345545
0.480904 0.119099 0.331263
0.598431 0.112709 0.320070
0.714408 0.107037 0.310670
0.831106 0.102062 0.303112
0.922629 0.126557 0.317997
0.000000 0.296116 0.370638
0.092205 0.287104 0.360886
0.221304 0.271790 0.342163
0.347260 0.262803 0.331263
0.467486 0.253511 0.320070
0.585495 0.245653 0.310670
0.703508 0.239264 0.303112
0.803725 0.254410 0.317997
0.919286 0.252385 0.315643
0.000000 0.425598 0.352835
0.086168 0.422414 0.345545
0.213615 0.406507 0.331263
0.342236 0.400783 0.326039
0.465013 0.392045 0.317963
0.583050 0.382343 0.308846
0.692190 0.380937 0.313520
0.803073 0.381785 0.317508
0.918582 0.379472 0.315133
0.000000 0.547756 0.339481
0.079971 0.550211 0.331263
0.205595 0.535114 0.320070
0.332444 0.529436 0.315745
0.462427 0.529436 0.315745
0.583050 0.520562 0.308846
0.692190 0.512131 0.313520
0.803073 0.509580 0.317508
0.918582 0.506999 0.315133
0.000000 0.668555 0.330837
0.074650 0.675915 0.320070
0.198756 0.661502 0.310670
0.324154 0.655918 0.306910
0.452315 0.655918 0.306910
0.580476 0.655918 0.306910
0.692190 0.643324 0.313520
0.803073 0.637374 0.317508
0.918582 0.634525 0.315133
0.000000 0.788267 0.324645
0.069843 0.800118 0.310670
0.193117 0.788072 0.303112
0.329236 0.767554 0.319264
0.448289 0.767554 0.319264
0.567342 0.767554 0.319264
0.686395 0.767554 0.319264
0.803073 0.765169 0.317508
0.918582 0.762052 0.315133
0.000000 0.907072 0.319912
0.065519 0.925274 0.303112
0.209206 0.893678 0.317997
0.327201 0.892183 0.316970
0.445991 0.892183 0.316970
0.564781 0.892183 0.316970
0.683571 0.892183 0.316970
0.802361 0.892183 0.316970
0.918582 0.889578 0.315133
0.026814 1.000000 0.332077
0.110327 1.000000 0.332625
0.224004 1.000000 0.332978
0.337300 1.000000 0.332953
0.450618 1.000000 0.332953
0.563937 1.000000 0.332953
0.677255 1.000000 0.332953
0.790573 1.000000 0.332953
0.903891 1.000000 0.332953
0.000000 0.000000 0.510228
0.096775 0.000000 0.510228
0.229126 0.000000 0.510228
0.361476 0.000000 0.510228
0.483362 0.000000 0.499416
0.595970 0.000000 0.485614
0.707517 0.000000 0.475915
0.818188 0.000000 0.468596
0.930000 0.000457 0.464044
0.000000 0.136848 0.510228
0.084756 0.124964 0.508076
0.218891 0.123150 0.503492
0.354495 0.123150 0.503492
0.480904 0.119099 0.493649
0.598431 0.112709 0.479176
0.714408 0.107037 0.467306
0.831106 0.102062 0.458150
0.922629 0.126557 0.462471
0.000000 0.279161 0.510228
0.084756 0.271790 0.508076
0.211791 0.260682 0.490304
0.342236 0.258474 0.486848
0.467486 0.253511 0.479176
0.585495 0.245653 0.467306
0.703508 0.239264 0.458150
0.803725 0.254410 0.462471
0.919286 0.252385 0.459810
0.000000 0.421473 0.510228
0.084756 0.418615 0.508076
0.211791 0.403693 0.490304
0.334542 0.392045 0.476493
0.456582 0.384269 0.467306
0.575910 0.376466 0.458150
0.684821 0.382264 0.462471
0.800636 0.379967 0.459810
0.915957 0.377599 0.457075
0.000000 0.547756 0.495722
0.079971 0.550211 0.493649
0.205595 0.535114 0.479176
0.327669 0.522886 0.467306
0.452315 0.518111 0.462632
0.570180 0.512131 0.461769
0.684224 0.509580 0.461916
0.799982 0.506999 0.459238
0.915255 0.504367 0.456488
0.000000 0.668555 0.483100
0.074650 0.675915 0.479176
0.198756 0.661502 0.467306
0.320715 0.650870 0.458150
0.448289 0.639540 0.463920
0.567342 0.639540 0.463920
0.684224 0.637374 0.461916
0.799982 0.634525 0.459238
0.915255 0.631643 0.456488
0.000000 0.788267 0.474058
0.069843 0.800118 0.467306
0.193117 0.788072 0.458150
0.328110 0.765824 0.462471
0.445991 0.764452 0.461306
0.564781 0.764452 0.461306
0.683571 0.764452 0.461306
0.799982 0.762052 0.459238
0.915255 0.758918 0.456488
0.000000 0.907072 0.467147
0.065519 0.925274 0.458150
0.209206 0.893678 0.462471
0.326032 0.890293 0.459810
0.443636 0.888798 0.458611
0.562181 0.888798 0.458611
0.680725 0.888798 0.458611
0.799270 0.888798 0.458611
0.915255 0.886194 0.456488
0.026814 1.000000 0.469916
0.110327 1.000000 0.470370
0.224004 1.000000 0.470662
0.337124 1.000000 0.470445
0.450241 1.000000 0.470122
0.563649 1.000000 0.470122
0.677056 1.000000 0.470122
0.790463 1.000000 0.470122
0.903871 1.000000 0.470122
0.000000 0.000000 0.647910
0.093439 0.000000 0.647910
0.221227 0.000000 0.647910
0.349016 0.000000 0.647910
0.476804 0.000000 0.647910
0.595970 0.000000 0.638669
0.707517 0.000000 0.625914
0.818188 0.000000 0.616288
0.930000 0.000457 0.610138
0.000000 0.132130 0.647910
0.078790 0.117671 0.651906
0.209888 0.116165 0.647657
0.342236 0.116165 0.647657
0.474583 0.116165 0.647657
0.598431 0.112709 0.638282
0.714408 0.107037 0.623942
0.831106 0.102062 0.613189
0.922629 0.126557 0.606946
0.000000 0.269537 0.647910
0.078790 0.260682 0.651906
0.204071 0.251754 0.635022
0.332444 0.249902 0.631619
0.462427 0.249902 0.631619
0.585495 0.245653 0.623942
0.703508 0.239264 0.613189
0.803725 0.254410 0.606946
0.919286 0.252385 0.603978
0.000000 0.406944 0.647910
0.078790 0.403693 0.651906
0.204071 0.392045 0.635022
0.325962 0.382343 0.621222
0.452315 0.380304 0.618354
0.575910 0.376466 0.613189
0.684821 0.382264 0.606946
0.800636 0.379967 0.603978
0.915957 0.377599 0.600955
0.000000 0.544351 0.647910
0.078790 0.546704 0.651906
0.204071 0.532337 0.635022
0.325962 0.520562 0.621222
0.448170 0.512131 0.610018
0.565918 0.510117 0.606946
0.681985 0.507548 0.603978
0.797542 0.504927 0.600955
0.912638 0.502260 0.597885
0.000000 0.668555 0.635363
0.074650 0.675915 0.638282
0.198756 0.661502 0.623942
0.320715 0.650870 0.613189
0.447014 0.637971 0.606946
0.564781 0.636721 0.605642
0.681383 0.634525 0.603343
0.796888 0.631643 0.600310
0.911938 0.628731 0.597231
0.000000 0.788267 0.623471
0.069843 0.800118 0.623942
0.193117 0.788072 0.613189
0.328110 0.765824 0.606946
0.444683 0.762712 0.603978
0.562181 0.761331 0.602649
0.680725 0.761331 0.602649
0.796888 0.758918 0.600310
0.911938 0.755770 0.597231
0.000000 0.907072 0.614382
0.065519 0.925274 0.613189
0.209206 0.893678 0.606946
0.326032 0.890293 0.603978
0.442299 0.886908 0.600955
0.559546 0.885414 0.599604
0.677861 0.885414 0.599604
0.796175 0.885414 0.599604
0.911938 0.882810 0.597231
0.026814 1.000000 0.607755
0.110327 1.000000 0.608114
0.224004 1.000000 0.608345
0.337124 1.000000 0.608173
0.449740 1.000000 0.607373
0.562797 1.000000 0.606704
0.676468 1.000000 0.606704
0.790139 1.000000 0.606704
0.903810 1.000000 0.606704
0.000000 0.000000 0.784132
0.091223 0.000000 0.784132
0.215981 0.000000 0.784132
0.340739 0.000000 0.784132
0.465496 0.000000 0.784132
0.590254 0.000000 0.784132
0.707517 0.000000 0.775912
0.818188 0.000000 0.763980
0.930000 0.000457 0.756233
0.000000 0.128997 0.784132
0.073599 0.111462 0.793552
0.202460 0.110134 0.789556
0.332444 0.110134 0.789556
0.462427 0.110134 0.789556
0.592411 0.110134 0.789556
0.714408 0.107037 0.780579
0.831106 0.102062 0.768227
0.922629 0.126557 0.751420
0.000000 0.263145 0.784132
0.073599 0.251754 0.793552
0.197418 0.244123 0.777410
0.324154 0.242497 0.774076
0.452315 0.242497 0.774076
0.580476 0.242497 0.774076
0.703508 0.239264 0.768227
0.803725 0.254410 0.751420
0.919286 0.252385 0.748145
0.000000 0.397293 0.784132
0.073599 0.392045 0.793552
0.197418 0.382343 0.777410
0.326160 0.380937 0.758266
0.448289 0.383512 0.753231
0.567342 0.383512 0.753231
0.684821 0.382264 0.751420
0.800636 0.379967 0.748145
0.915957 0.377599 0.744834
0.000000 0.531442 0.784132
0.073599 0.532337 0.793552
0.197418 0.520562 0.777410
0.326160 0.512131 0.758266
0.446526 0.509580 0.750732
0.564781 0.508990 0.749979
0.681985 0.507548 0.748145
0.797542 0.504927 0.744834
0.912638 0.502260 0.741494
0.000000 0.665590 0.784132
0.073599 0.672628 0.793552
0.197418 0.658781 0.777410
0.326160 0.643324 0.758266
0.446526 0.637374 0.750732
0.562783 0.634525 0.747448
0.679128 0.632254 0.744834
0.794446 0.629348 0.741494
0.909330 0.626417 0.738128
0.000000 0.788267 0.772884
0.069843 0.800118 0.780579
0.193117 0.788072 0.768227
0.328110 0.765824 0.751420
0.444683 0.762712 0.748145
0.560713 0.759581 0.744834
0.677861 0.758194 0.743363
0.793792 0.755770 0.740785
0.908632 0.752611 0.737414
0.000000 0.907072 0.761617
0.065519 0.925274 0.768227
0.209206 0.893678 0.751420
0.326032 0.890293 0.748145
0.442299 0.886908 0.744834
0.558063 0.883524 0.741494
0.674981 0.882030 0.740010
0.793078 0.882030 0.740010
0.908632 0.879427 0.737414
0.026814 1.000000 0.745594
0.110327 1.000000 0.745858
0.224004 1.000000 0.746029
0.337124 1.000000 0.745902
0.449740 1.000000 0.745313
0.561898 1.000000 0.743878
0.675106 1.000000 0.742751
0.789388 1.000000 0.742751
0.903669 1.000000 0.742751
0.000000 0.000000 0.919174
0.089610 0.000000 0.919174
0.212162 0.000000 0.919174
0.334714 0.000000 0.919174
0.457266 0.000000 0.919174
0.579818 0.000000 0.919174
0.702370 0.000000 0.919174
0.818188 0.000000 0.911671
0.930000 0.000457 0.902327
0.000000 0.126716 0.919174
0.068874 0.105904 0.933597
0.195994 0.104690 0.929798
0.324154 0.104690 0.929798
0.452315 0.104690 0.929798
0.580476 0.104690 0.929798
0.708636 0.104690 0.929798
0.831106 0.102062 0.923265
0.922629 0.126557 0.895895
0.000000 0.258492 0.919174
0.068874 0.244123 0.933597
0.204151 0.249744 0.906515
0.329236 0.255498 0.897887
0.448289 0.255498 0.897887
0.567342 0.255498 0.897887
0.686395 0.255498 0.897887
0.803725 0.254410 0.895895
0.919286 0.252385 0.892312
0.000000 0.390269 0.919174
0.068874 0.382343 0.933597
0.204151 0.380937 0.906515
0.327677 0.381785 0.895140
0.445991 0.381259 0.894315
0.564781 0.381259 0.894315
0.683571 0.381259 0.894315
0.800636 0.379967 0.892312
0.915957 0.377599 0.888714
0.000000 0.522045 0.919174
0.068874 0.520562 0.933597
0.204151 0.512131 0.906515
0.327677 0.509580 0.895140
0.444183 0.506999 0.891553
0.562181 0.506397 0.890725
0.680725 0.506397 0.890725
0.797542 0.504927 0.888714
0.912638 0.502260 0.885103
0.000000 0.653821 0.919174
0.068874 0.658781 0.933597
0.204151 0.643324 0.906515
0.327677 0.637374 0.895140
0.444183 0.634525 0.891553
0.560156 0.631643 0.887952
0.677861 0.630974 0.887121
0.794446 0.629348 0.885103
0.909330 0.626417 0.881482
0.000000 0.785598 0.919174
0.068874 0.797000 0.933597
0.204151 0.774518 0.906515
0.327677 0.765169 0.895140
0.444183 0.762052 0.891553
0.560156 0.758918 0.887952
0.675646 0.755770 0.884339
0.791348 0.753279 0.881482
0.906031 0.750112 0.877852
0.000000 0.907072 0.908852
0.065519 0.925274 0.923265
0.209206 0.893678 0.895895
0.326032 0.890293 0.892312
0.442299 0.886908 0.888714
0.558063 0.883524 0.885103
0.673367 0.880141 0.881482
0.789980 0.878647 0.879880
0.905336 0.876045 0.877084
0.026814 1.000000 0.883434
0.110327 1.000000 0.883603
0.224004 1.000000 0.883712
0.337124 1.000000 0.883631
0.449740 1.000000 0.883253
0.561898 1.000000 0.882332
0.673635 1.000000 0.880177
0.787517 1.000000 0.878305
0.903319 1.000000 0.878305
0.000000 0.000000 1.000000
0.088364 0.000000 1.000000
0.209212 0.000000 1.000000
0.330059 0.000000 1.000000
0.450907 0.000000 1.000000
0.571755 0.000000 1.000000
0.692602 0.000000 1.000000
0.813450 0.000000 1.000000
0.930000 0.000457 1.000000
0.000000 0.124954 1.000000
0.082141 0.118550 1.000000
0.210183 0.127484 1.000000
0.329236 0.127484 1.000000
0.448289 0.127484 1.000000
0.567342 0.127484 1.000000
0.686395 0.127484 1.000000
0.805448 0.127484 1.000000
0.922629 0.126557 1.000000
0.000000 0.254898 1.000000
0.082141 0.249744 1.000000
0.208829 0.253991 1.000000
0.327201 0.253528 1.000000
0.445991 0.253528 1.000000
0.564781 0.253528 1.000000
0.683571 0.253528 1.000000
0.802361 0.253528 1.000000
0.919286 0.252385 1.000000
0.000000 0.384841 1.000000
0.082141 0.380937 1.000000
0.208829 0.381785 1.000000
0.325584 0.379472 1.000000
0.443636 0.378929 1.000000
0.562181 0.378929 1.000000
0.680725 0.378929 1.000000
0.799270 0.378929 1.000000
0.915957 0.377599 1.000000
0.000000 0.514785 1.000000
0.082141 0.512131 1.000000
0.208829 0.509580 1.000000
0.325584 0.506999 1.000000
0.441790 0.504367 1.000000
0.559546 0.503754 1.000000
0.677861 0.503754 1.000000
0.796175 0.503754 1.000000
0.912638 0.502260 1.000000
0.000000 0.644729 1.000000
0.082141 0.643324 1.000000
0.208829 0.637374 1.000000
0.325584 0.634525 1.000000
0.441790 0.631643 1.000000
0.557499 0.628731 1.000000
0.674981 0.628057 1.000000
0.793078 0.628057 1.000000
0.909330 0.626417 1.000000
0.000000 0.774673 1.000000
0.082141 0.774518 1.000000
0.208829 0.765169 1.000000
0.325584 0.762052 1.000000
0.441790 0.758918 1.000000
0.557499 0.755770 1.000000
0.672755 0.752611 1.000000
0.789980 0.751882 1.000000
0.906031 0.750112 1.000000
0.000000 0.904616 1.000000
0.082141 0.905711 1.000000
0.208829 0.892963 1.000000
0.325584 0.889578 1.000000
0.441790 0.886194 1.000000
0.557499 0.882810 1.000000
0.672755 0.879427 1.000000
0.787595 0.876045 1.000000
0.902742 0.873379 1.000000
0.026814 1.000000 1.000000
0.110327 1.000000 1.000000
0.224004 1.000000 1.000000
0.337124 1.000000 1.000000
0.449740 1.000000 1.000000
0.561898 1.000000 1.000000
0.673635 1.000000 1.000000
0.785149 0.999823 1.000000
0.901292 0.998243 1.000000
0.031209 0.033558 1.000000
0.113358 0.033558 1.000000
0.225707 0.033558 1.000000
0.338056 0.033558 1.000000
0.450405 0.033558 1.000000
0.562754 0.033558 1.000000
0.675103 0.033558 1.000000
0.787452 0.033558 1.000000
0.899801 0.033558 1.000000
0.031209 0.149724 1.000000
0.114703 0.151124 1.000000
0.227220 0.151550 1.000000
0.339327 0.151550 1.000000
0.451435 0.151550 1.000000
0.563543 0.151550 1.000000
0.675650 0.151550 1.000000
0.787758 0.151550 1.000000
0.899865 0.151550 1.000000
0.031209 0.270529 1.000000
0.114703 0.271731 1.000000
0.228358 0.273275 1.000000
0.340561 0.273617 1.000000
0.452435 0.273617 1.000000
0.564308 0.273617 1.000000
0.676182 0.273617 1.000000
0.788055 0.273617 1.000000
0.899928 0.273617 1.000000
0.031209 0.391335 1.000000
0.114703 0.392337 1.000000
0.228358 0.393626 1.000000
0.341457 0.394832 1.000000
0.453371 0.395100 1.000000
0.565025 0.395100 1.000000
0.676679 0.395100 1.000000
0.788333 0.395100 1.000000
0.899987 0.395100 1.000000
0.031209 0.512140 1.000000
0.114703 0.512943 1.000000
0.228358 0.513976 1.000000
0.341457 0.514943 1.000000
0.454055 0.515853 1.000000
0.565701 0.516055 1.000000
0.677148 0.516055 1.000000
0.788596 0.516055 1.000000
0.900043 0.516055 1.000000
0.031209 0.632945 1.000000
0.114703 0.633550 1.000000
0.228358 0.634327 1.000000
0.341457 0.635054 1.000000
0.454055 0.635739 1.000000
0.566196 0.636386 1.000000
0.677592 0.636530 1.000000
0.788844 0.636530 1.000000
0.900096 0.636530 1.000000
0.031209 0.753751 1.000000
0.114703 0.754156 1.000000
0.228358 0.754677 1.000000
0.341457 0.755165 1.000000
0.454055 0.755625 1.000000
0.566196 0.756059 1.000000
0.677918 0.756470 1.000000
0.789079 0.756562 1.000000
0.900145 0.756562 1.000000
0.031209 0.874556 1.000000
0.114703 0.874762 1.000000
0.228358 0.875028 1.000000
0.341457 0.875277 1.000000
0.454055 0.875511 1.000000
0.566196 0.875732 1.000000
0.677918 0.875941 1.000000
0.789253 0.876141 1.000000
0.900193 0.876185 1.000000
0.031209 0.995361 1.000000
0.114703 0.995369 1.000000
0.228358 0.995379 1.000000
0.341457 0.995388 1.000000
0.454055 0.995396 1.000000
0.566196 0.995405 1.000000
0.677918 0.995412 1.000000
0.789253 0.995420 1.000000
0.900228 0.995427 1.000000
