assets/luts/soft_pink.cube
# MoodFilm Filter — soft_pink
TITLE "soft_pink"
LUT_3D_SIZE 9
0.203848 0.144641 0.150855
0.275934 0.149880 0.155405
0.348817 0.155176 0.160014
0.422214 0.160509 0.164664
0.495991 0.165871 0.169343
0.570071 0.171255 0.174047
0.644404 0.176657 0.178773
0.718953 0.182075 0.183518
0.738576 0.183498 0.184664
0.208451 0.176178 0.156429
0.280506 0.181414 0.160979
0.353373 0.186709 0.165590
0.426757 0.192042 0.170241
0.500525 0.197403 0.174923
0.574597 0.202786 0.179631
0.648924 0.208188 0.184363
0.723468 0.213606 0.189117
0.745186 0.215182 0.190422
0.221065 0.261273 0.171582
0.293039 0.266503 0.176134
0.365860 0.271795 0.180752
0.439212 0.277126 0.185415
0.512955 0.282486 0.190116
0.587017 0.287876 0.195159
0.661344 0.293295 0.200577
0.735890 0.298729 0.206012
0.763071 0.300711 0.207993
0.233980 0.347755 0.187064
0.305867 0.352979 0.191636
0.378655 0.358283 0.196827
0.451992 0.363629 0.202173
0.525728 0.369005 0.207549
0.599778 0.374403 0.212947
0.674088 0.379820 0.218364
0.749514 0.385319 0.223863
0.781254 0.387633 0.226177
0.247103 0.435033 0.204241
0.318915 0.440268 0.209476
0.391656 0.445571 0.214779
0.464960 0.450915 0.220123
0.540140 0.456395 0.225603
0.615786 0.461910 0.231118
0.691705 0.467445 0.236653
0.767856 0.472996 0.242204
0.799595 0.475310 0.244518
0.260800 0.522891 0.222346
0.334091 0.528234 0.227689
0.408388 0.533650 0.233105
0.483278 0.539110 0.238565
0.558592 0.544600 0.244055
0.634238 0.550115 0.249570
0.710156 0.555649 0.255104
0.786307 0.561201 0.260656
0.818047 0.563514 0.262969
0.279337 0.611502 0.240882
0.352628 0.616845 0.246225
0.426925 0.622262 0.251642
0.501814 0.627721 0.257101
0.577271 0.633222 0.262602
0.654126 0.638825 0.268205
0.731262 0.644448 0.273828
0.808636 0.650089 0.279469
0.836583 0.652126 0.281506
0.297943 0.700446 0.259488
0.371803 0.705830 0.264873
0.447295 0.711334 0.270376
0.523394 0.716881 0.275924
0.599927 0.722460 0.281503
0.676798 0.728064 0.287107
0.753947 0.733689 0.292731
0.831333 0.739330 0.298373
0.855189 0.741069 0.300112
0.319898 0.789909 0.278393
0.394433 0.795343 0.283827
0.469965 0.800849 0.289333
0.546090 0.806399 0.294882
0.622642 0.811979 0.300463
0.699529 0.817584 0.306068
0.776692 0.823210 0.311694
0.854089 0.828852 0.317336
0.873854 0.830293 0.318777
0.205133 0.146388 0.219360
0.277210 0.151624 0.223873
0.350088 0.156919 0.228446
0.423481 0.162252 0.233055
0.497254 0.167612 0.237693
0.571332 0.172995 0.242353
0.645662 0.178395 0.247032
0.720208 0.183812 0.251727
0.740350 0.185273 0.252887
0.209735 0.177923 0.224887
0.281782 0.183158 0.229399
0.354643 0.188451 0.233970
0.428023 0.193783 0.238579
0.501787 0.199142 0.243217
0.575857 0.204524 0.247876
0.650180 0.209925 0.252555
0.724721 0.215341 0.257249
0.746958 0.216954 0.258562
0.222347 0.263015 0.239905
0.294311 0.268243 0.244411
0.367126 0.273534 0.248979
0.440474 0.278863 0.253587
0.514213 0.284221 0.258223
0.588262 0.289601 0.262881
0.662568 0.295000 0.267559
0.737094 0.300415 0.272253
0.764787 0.302427 0.273964
0.235258 0.349492 0.255215
0.307135 0.354714 0.259715
0.379902 0.360001 0.264280
0.453216 0.365328 0.268886
0.526930 0.370684 0.273520
0.600959 0.376063 0.278178
0.675248 0.381461 0.282855
0.751190 0.386995 0.288297
0.782930 0.389309 0.290611
0.248337 0.436726 0.270685
0.320121 0.441941 0.275179
0.392838 0.447224 0.279741
0.466502 0.452581 0.284547
0.541816 0.458071 0.290038
0.617462 0.463586 0.295553
0.693381 0.469120 0.301087
0.769532 0.474672 0.306638
0.801271 0.476986 0.308952
0.262476 0.524567 0.286780
0.335767 0.529910 0.292123
0.410064 0.535326 0.297540
0.484953 0.540786 0.302999
0.560267 0.546276 0.308489
0.635913 0.551791 0.314004
0.711832 0.557325 0.319539
0.788075 0.562884 0.325124
0.819727 0.565195 0.327586
0.281012 0.613178 0.305317
0.354304 0.618521 0.310660
0.428601 0.623938 0.316076
0.503490 0.629397 0.321536
0.579337 0.634930 0.327227
0.656203 0.640543 0.333200
0.733350 0.646176 0.339194
0.810735 0.651826 0.345204
0.838296 0.653839 0.347367
0.299618 0.702122 0.323923
0.373864 0.707541 0.329632
0.449370 0.713055 0.335506
0.525481 0.718612 0.341424
0.602025 0.724201 0.347374
0.678908 0.729815 0.353348
0.756068 0.735449 0.359342
0.833464 0.741100 0.365354
0.856935 0.742815 0.367219
0.321975 0.791642 0.344027
0.396527 0.797086 0.349831
0.472072 0.802602 0.355708
0.548209 0.808162 0.361628
0.624773 0.813752 0.367579
0.701672 0.819367 0.373555
0.778845 0.825002 0.379550
0.856253 0.830654 0.385563
0.875632 0.832071 0.387130
0.206428 0.148172 0.289398
0.278497 0.153408 0.293902
0.351371 0.158702 0.298464
0.424760 0.164034 0.303064
0.498530 0.169394 0.307691
0.572605 0.174776 0.312341
0.646933 0.180176 0.317010
0.721478 0.185593 0.321694
0.742171 0.187094 0.322890
0.211030 0.179707 0.294913
0.283069 0.184941 0.299415
0.355925 0.190234 0.303976
0.429301 0.195565 0.308575
0.503063 0.200924 0.313202
0.577130 0.206305 0.317851
0.651452 0.211705 0.322519
0.725991 0.217121 0.327203
0.748778 0.218775 0.328553
0.223642 0.264798 0.309898
0.295598 0.270026 0.314393
0.368407 0.275315 0.318951
0.441752 0.280644 0.323548
0.515488 0.286001 0.328174
0.589535 0.291381 0.332822
0.663839 0.296780 0.337489
0.738363 0.302195 0.342172
0.766606 0.304246 0.343919
0.236553 0.351275 0.325174
0.308421 0.356496 0.329663
0.381182 0.361782 0.334217
0.454494 0.367108 0.338812
0.528205 0.372464 0.343436
0.602231 0.377842 0.348083
0.676865 0.383269 0.352934
0.753016 0.388820 0.358485
0.784756 0.391134 0.360799
0.249633 0.438507 0.340609
0.321406 0.443722 0.345092
0.394118 0.449004 0.349643
0.468327 0.454406 0.354735
0.543642 0.459897 0.360226
0.619288 0.465411 0.365740
0.695206 0.470946 0.371275
0.771357 0.476497 0.376826
0.803097 0.478811 0.379140
0.264301 0.526392 0.356968
0.337593 0.531735 0.362311
0.411890 0.537152 0.367727
0.486779 0.542611 0.373187
0.562093 0.548102 0.378677
0.637739 0.553616 0.384192
0.713658 0.559151 0.389726
0.790317 0.564743 0.395470
0.821556 0.567024 0.397904
0.282838 0.615004 0.375505
0.356129 0.620347 0.380848
0.430426 0.625763 0.386264
0.505316 0.631223 0.391724
0.581575 0.636789 0.397575
0.658443 0.642402 0.403553
0.735591 0.648035 0.409552
0.812977 0.653686 0.415568
0.840126 0.655668 0.417703
0.301610 0.703961 0.394176
0.376093 0.709399 0.399981
0.451603 0.714913 0.405860
0.527717 0.720471 0.411784
0.604264 0.726060 0.417739
0.681148 0.731674 0.423719
0.758310 0.737309 0.429719
0.835707 0.742960 0.435736
0.858765 0.744645 0.437573
0.324197 0.793500 0.414388
0.398757 0.798945 0.420198
0.474306 0.804462 0.426080
0.550446 0.810021 0.432006
0.627012 0.815612 0.437962
0.703912 0.821227 0.443943
0.781087 0.826862 0.449944
0.858497 0.832515 0.455962
0.877462 0.833901 0.457501
0.207741 0.149975 0.360136
0.279803 0.155210 0.364633
0.352671 0.160503 0.369189
0.426057 0.165835 0.373782
0.499825 0.171195 0.378404
0.573898 0.176576 0.383048
0.648224 0.181976 0.387710
0.722767 0.187392 0.392388
0.744011 0.188933 0.393622
0.212344 0.181509 0.365643
0.284374 0.186742 0.370138
0.357225 0.192035 0.374693
0.430599 0.197365 0.379286
0.504357 0.202724 0.383906
0.578422 0.208105 0.388550
0.652742 0.213505 0.393212
0.727279 0.218921 0.397889
0.750618 0.220614 0.399276
0.224956 0.266600 0.380608
0.296903 0.271827 0.385097
0.369708 0.277116 0.389648
0.443048 0.282444 0.394239
0.516782 0.287801 0.398858
0.590827 0.293181 0.403500
0.665129 0.298579 0.408161
0.739652 0.303994 0.412838
0.768445 0.306085 0.414622
0.237868 0.353076 0.395863
0.309726 0.358296 0.400346
0.382483 0.363582 0.404894
0.455790 0.368908 0.409482
0.529498 0.374263 0.414100
0.603522 0.379641 0.418741
0.678711 0.385114 0.423883
0.754861 0.390666 0.429435
0.786601 0.392979 0.431748
0.250948 0.440308 0.411278
0.322711 0.445522 0.415754
0.395418 0.450804 0.420299
0.470173 0.456252 0.425685
0.545487 0.461742 0.431175
0.621133 0.467257 0.436690
0.697052 0.472791 0.442224
0.773202 0.478343 0.447776
0.804942 0.480657 0.450090
0.266147 0.528238 0.427918
0.339438 0.533581 0.433261
0.413735 0.538997 0.438677
0.488624 0.544456 0.444136
0.563938 0.549947 0.449627
0.639584 0.555462 0.455141
0.715503 0.560996 0.460676
0.792579 0.566622 0.466580
0.823405 0.568873 0.468984
0.284683 0.616849 0.446454
0.357975 0.622192 0.451797
0.432272 0.627609 0.457214
0.507304 0.633080 0.462728
0.583832 0.638668 0.468685
0.660702 0.644281 0.474667
0.737852 0.649914 0.480669
0.815239 0.655565 0.486688
0.841975 0.657518 0.488794
0.303851 0.705838 0.465283
0.378342 0.711277 0.471092
0.453857 0.716792 0.476975
0.529973 0.722350 0.482901
0.606522 0.727939 0.488860
0.683407 0.733553 0.494843
0.760571 0.739188 0.500846
0.837970 0.744839 0.506866
0.860614 0.746494 0.508674
0.326440 0.795378 0.485505
0.401007 0.800823 0.491319
0.476560 0.806340 0.497205
0.552702 0.811900 0.503134
0.629270 0.817491 0.509094
0.706172 0.823106 0.515078
0.783349 0.828742 0.521082
0.860759 0.834394 0.527103
0.879312 0.835750 0.528613
0.209067 0.151789 0.431340
0.281120 0.157023 0.435832
0.353984 0.162317 0.440383
0.427367 0.167648 0.444972
0.501132 0.173007 0.449589
0.575203 0.178389 0.454229
0.649527 0.183789 0.458887
0.724069 0.189204 0.463560
0.745863 0.190786 0.464833
0.213670 0.183324 0.436842
0.285692 0.188556 0.441332
0.358538 0.193848 0.445882
0.431908 0.199178 0.450470
0.505664 0.204537 0.455087
0.579727 0.209918 0.459725
0.654045 0.215317 0.464383
0.728581 0.220732 0.469056
0.752470 0.222466 0.470481
0.226283 0.268414 0.451792
0.298221 0.273640 0.456276
0.371021 0.278929 0.460823
0.444358 0.284257 0.465409
0.518089 0.289613 0.470024
0.592131 0.294993 0.474661
0.666432 0.300391 0.479317
0.740953 0.305805 0.483990
0.770297 0.307937 0.485813
0.239195 0.354890 0.467033
0.311044 0.360109 0.471511
0.383795 0.365395 0.476054
0.457099 0.370720 0.480638
0.530805 0.376075 0.485251
0.604827 0.381453 0.489887
0.680569 0.386972 0.495326
0.756720 0.392524 0.500877
0.788459 0.394838 0.503191
0.252276 0.442122 0.482433
0.324029 0.447334 0.486904
0.397142 0.452651 0.491668
0.472031 0.458110 0.497128
0.547345 0.463600 0.502618
0.622991 0.469115 0.508133
0.698910 0.474650 0.513667
0.775061 0.480201 0.519219
0.806800 0.482515 0.521532
0.268005 0.530096 0.499360
0.341296 0.535439 0.504703
0.415593 0.540855 0.510120
0.490483 0.546315 0.515579
0.565797 0.551805 0.521070
0.641443 0.557320 0.526584
0.717476 0.562863 0.532163
0.794853 0.568513 0.538184
0.825267 0.570734 0.540559
0.286542 0.618707 0.517897
0.359833 0.624050 0.523240
0.434130 0.629467 0.528656
0.509572 0.634971 0.534330
0.586103 0.640559 0.540289
0.662974 0.646172 0.546273
0.740125 0.651806 0.552278
0.817514 0.657457 0.558300
0.843837 0.659379 0.560377
0.306105 0.707728 0.536885
0.380604 0.713168 0.542696
0.456123 0.718683 0.548582
0.532242 0.724241 0.554511
0.608792 0.729831 0.560472
0.685680 0.735445 0.566457
0.762844 0.741080 0.572462
0.840245 0.746731 0.578485
0.862476 0.748356 0.580264
0.328694 0.797269 0.557115
0.403269 0.802714 0.562931
0.478826 0.808232 0.568819
0.554971 0.813792 0.574751
0.631541 0.819383 0.580713
0.708445 0.824998 0.586699
0.785623 0.830634 0.592706
0.863035 0.836286 0.598729
0.881174 0.837613 0.600210
0.210402 0.153613 0.502896
0.282447 0.158846 0.507384
0.355306 0.164139 0.511932
0.428685 0.169470 0.516517
0.502448 0.174829 0.521131
0.576517 0.180210 0.525767
0.650840 0.185610 0.530421
0.725379 0.191026 0.535091
0.747724 0.192647 0.536403
0.215005 0.185147 0.508394
0.287019 0.190379 0.512880
0.359860 0.195671 0.517426
0.433227 0.201001 0.522011
0.506981 0.206359 0.526624
0.581041 0.211739 0.531259
0.655357 0.217139 0.535913
0.729891 0.222554 0.540583
0.754331 0.224328 0.542047
0.227619 0.270237 0.523333
0.299548 0.275463 0.527813
0.372343 0.280751 0.532356
0.445677 0.286079 0.536938
0.519405 0.291435 0.541549
0.593445 0.296814 0.546183
0.667744 0.302212 0.550836
0.742263 0.307626 0.555505
0.772158 0.309798 0.557366
0.240532 0.356713 0.538562
0.312371 0.361932 0.543036
0.385117 0.367217 0.547576
0.458418 0.372542 0.552156
0.532121 0.377896 0.556765
0.606518 0.383306 0.561601
0.682437 0.388840 0.567136
0.758587 0.394392 0.572687
0.790327 0.396705 0.575001
0.253614 0.443945 0.553951
0.325357 0.449156 0.558418
0.399009 0.454518 0.563478
0.473899 0.459978 0.568938
0.549213 0.465468 0.574428
0.624859 0.470983 0.579943
0.700778 0.476517 0.585477
0.776928 0.482069 0.591029
0.808668 0.484383 0.593342
0.269873 0.531964 0.571170
0.343164 0.537307 0.576513
0.417461 0.542723 0.581930
0.492350 0.548182 0.587389
0.567664 0.553673 0.592880
0.643310 0.559187 0.598394
0.719759 0.564765 0.604133
0.797137 0.570415 0.610155
0.827138 0.572606 0.612501
0.288409 0.620575 0.589707
0.361701 0.625918 0.595050
0.435998 0.631334 0.600466
0.511850 0.636872 0.606300
0.588383 0.642460 0.612261
0.665256 0.648073 0.618247
0.742408 0.653707 0.624254
0.819798 0.659358 0.630277
0.845708 0.661251 0.632325
0.308369 0.709628 0.608855
0.382876 0.715069 0.614669
0.458398 0.720583 0.620556
0.534520 0.726142 0.626487
0.611073 0.731732 0.632450
0.687962 0.737346 0.638437
0.765128 0.742981 0.644444
0.842529 0.748633 0.650468
0.864348 0.750227 0.652218
0.330959 0.799168 0.629090
0.405541 0.804615 0.634909
0.481102 0.810132 0.640799
0.557250 0.815693 0.646733
0.633822 0.821284 0.652697
0.710727 0.826900 0.658685
0.787906 0.832536 0.664693
0.865319 0.838188 0.670718
0.883046 0.839484 0.672170
0.211745 0.155444 0.574736
0.283781 0.160677 0.579220
0.356636 0.165970 0.583765
0.430012 0.171300 0.588347
0.503772 0.176659 0.592958
0.577839 0.182040 0.597591
0.652159 0.187439 0.602242
0.726698 0.192855 0.606910
0.749593 0.194516 0.608260
0.216348 0.186978 0.580230
0.288353 0.192209 0.584712
0.361190 0.197500 0.589256
0.434553 0.202830 0.593837
0.508304 0.208188 0.598447
0.582363 0.213569 0.603080
0.656677 0.218968 0.607731
0.731210 0.224383 0.612398
0.756200 0.226197 0.613901
0.228962 0.272068 0.595160
0.300882 0.277293 0.599636
0.373672 0.282581 0.604176
0.447003 0.287908 0.608755
0.520729 0.293264 0.613363
0.594767 0.298643 0.617994
0.669064 0.304041 0.622644
0.743581 0.309455 0.627310
0.774027 0.311666 0.629211
0.241876 0.358544 0.610380
0.313706 0.363762 0.614850
0.386447 0.369046 0.619386
0.459744 0.374371 0.623963
0.533444 0.379725 0.628570
0.608393 0.385181 0.633704
0.684312 0.390716 0.639239
0.760463 0.396267 0.644790
0.792202 0.398581 0.647104
0.254959 0.445775 0.625759
0.326692 0.450986 0.630222
0.400885 0.456394 0.635581
0.475774 0.461853 0.641041
0.551088 0.467344 0.646531
0.626734 0.472858 0.652046
0.702653 0.478393 0.657580
0.778804 0.483944 0.663132
0.810543 0.486258 0.665445
0.271748 0.533839 0.643273
0.345039 0.539182 0.648616
0.419336 0.544598 0.654033
0.494226 0.550058 0.659492
0.569540 0.555548 0.664983
0.645186 0.561063 0.670497
0.722050 0.566673 0.676397
0.799429 0.572324 0.682421
0.829017 0.574484 0.684737
0.290285 0.622451 0.661810
0.363576 0.627794 0.667153
0.438037 0.633223 0.672634
0.514136 0.638780 0.678565
0.590670 0.644369 0.684527
0.667545 0.649982 0.690515
0.744699 0.655616 0.696522
0.822090 0.661267 0.702547
0.847587 0.663130 0.704566
0.310640 0.711535 0.681119
0.385155 0.716977 0.686934
0.460681 0.722492 0.692823
0.536806 0.728051 0.698756
0.613360 0.733641 0.704720
0.690251 0.739255 0.710709
0.767419 0.744890 0.716718
0.844821 0.750542 0.722743
0.866227 0.752106 0.724463
0.333231 0.801076 0.701359
0.407821 0.806523 0.707180
0.483385 0.812041 0.713072
0.559536 0.817602 0.719006
0.636110 0.823193 0.724972
0.713017 0.828809 0.730962
0.790198 0.834445 0.736971
0.867612 0.840098 0.742998
0.884925 0.841363 0.744420
0.213093 0.157281 0.646812
0.285122 0.162514 0.651294
0.357972 0.167806 0.655836
0.431344 0.173136 0.660416
0.505102 0.178494 0.665024
0.579167 0.183875 0.669654
0.653485 0.189274 0.674303
0.728022 0.194690 0.678968
0.751469 0.196391 0.680357
0.217697 0.188816 0.652303
0.289694 0.194046 0.656783
0.362526 0.199337 0.661324
0.435886 0.204666 0.665903
0.509634 0.210024 0.670510
0.583691 0.215404 0.675140
0.658003 0.220803 0.679788
0.732534 0.226218 0.684453
0.758075 0.228072 0.685995
0.230312 0.273905 0.667225
0.302223 0.279129 0.671699
0.375008 0.284417 0.676236
0.448335 0.289744 0.680813
0.522059 0.295100 0.685418
0.596095 0.300478 0.690047
0.670390 0.305876 0.694694
0.744906 0.311289 0.699358
0.775901 0.313541 0.701297
0.243227 0.360381 0.682438
0.315047 0.365598 0.686905
0.387783 0.370882 0.691438
0.461077 0.376206 0.696013
0.534774 0.381560 0.700617
0.610275 0.387063 0.706052
0.686194 0.392597 0.711586
0.762344 0.398149 0.717138
0.794084 0.400462 0.719451
0.256310 0.447612 0.697809
0.328470 0.452859 0.702512
0.402766 0.458275 0.707928
0.477656 0.463735 0.713388
0.552970 0.469225 0.718878
0.628616 0.474740 0.724393
0.704535 0.480274 0.729927
0.780686 0.485826 0.735479
0.812425 0.488140 0.737793
0.273630 0.535721 0.715621
0.346921 0.541064 0.720964
0.421218 0.546480 0.726380
0.496107 0.551940 0.731839
0.571421 0.557430 0.737330
0.647205 0.562956 0.742898
0.724347 0.568589 0.748906
0.801727 0.574239 0.754931
0.830902 0.576370 0.757218
0.292166 0.624332 0.734157
0.365458 0.629675 0.739500
0.440327 0.635138 0.745141
0.516428 0.640695 0.751074
0.592964 0.646284 0.757038
0.669841 0.651897 0.763026
0.746996 0.657531 0.769035
0.824388 0.663182 0.775062
0.849472 0.665015 0.777050
0.312918 0.713449 0.753627
0.387441 0.718891 0.759444
0.462971 0.724407 0.765335
0.539098 0.729966 0.771269
0.615655 0.735556 0.777235
0.692547 0.741171 0.783224
0.769716 0.746806 0.789234
0.847120 0.752458 0.795262
0.868112 0.753992 0.796952
0.335510 0.802990 0.773871
0.410107 0.808437 0.779694
0.485675 0.813956 0.785587
0.561828 0.819517 0.791523
0.638405 0.825108 0.797490
0.715313 0.830724 0.803481
0.792495 0.836360 0.809492
0.869910 0.842013 0.815520
0.886810 0.843249 0.816912
0.214317 0.158993 0.714071
0.286357 0.164245 0.719322
0.359223 0.169557 0.724634
0.432612 0.174907 0.729984
0.506387 0.180285 0.735363
0.580470 0.185686 0.740763
0.654807 0.191105 0.746182
0.729352 0.196530 0.751233
0.753349 0.198272 0.752661
0.218946 0.190554 0.720557
0.290955 0.195803 0.725807
0.363803 0.201114 0.731117
0.437179 0.206463 0.736466
0.510945 0.211840 0.741844
0.585020 0.217240 0.747244
0.659335 0.222643 0.752053
0.733864 0.228058 0.756715
0.759956 0.229952 0.758296
0.231630 0.275711 0.738071
0.303552 0.280954 0.743314
0.376350 0.286258 0.748502
0.449673 0.291585 0.753077
0.523394 0.296940 0.757680
0.597428 0.302319 0.762306
0.671721 0.307716 0.766951
0.746236 0.313130 0.771613
0.777788 0.315428 0.773825
0.244583 0.362223 0.754702
0.316393 0.367439 0.759166
0.389125 0.372723 0.763698
0.462415 0.378047 0.768270
0.536516 0.383435 0.773094
0.612162 0.388950 0.778608
0.688081 0.394484 0.784143
0.764232 0.400036 0.789694
0.795971 0.402350 0.792008
0.257668 0.449454 0.770067
0.330357 0.454746 0.775069
0.404654 0.460163 0.780485
0.479543 0.465622 0.785944
0.554857 0.471112 0.791435
0.630503 0.476627 0.796949
0.706422 0.482162 0.802484
0.782573 0.487713 0.808035
0.814312 0.490027 0.810349
0.275517 0.537608 0.788177
0.348808 0.542951 0.793520
0.423105 0.548367 0.798936
0.497995 0.553827 0.804396
0.573309 0.559317 0.809886
0.649506 0.564876 0.815615
0.726649 0.570509 0.821625
0.804031 0.576160 0.827651
0.832793 0.578260 0.829908
0.294054 0.626219 0.806714
0.367345 0.631562 0.812057
0.442621 0.637058 0.817859
0.518725 0.642615 0.823793
0.595264 0.648204 0.829758
0.672142 0.653818 0.835748
0.749299 0.659452 0.841758
0.826692 0.665103 0.847785
0.851363 0.666906 0.849744
0.315202 0.715368 0.826346
0.389732 0.720811 0.832164
0.465266 0.726327 0.838056
0.541396 0.731886 0.843992
0.617954 0.737476 0.849958
0.694849 0.743091 0.855949
0.772019 0.748726 0.861960
0.849424 0.754379 0.867989
0.870003 0.755883 0.869649
0.337794 0.804909 0.846593
0.412398 0.810357 0.852417
0.487970 0.815876 0.858312
0.564126 0.821437 0.864249
0.640704 0.827029 0.870217
0.717614 0.832645 0.876206
0.794788 0.838271 0.881832
0.872194 0.843914 0.887475
0.888677 0.845116 0.888677
