assets/luts/soft_pink.cube
# MoodFilm Filter — soft_pink
TITLE "soft_pink"
LUT_3D_SIZE 5
0.203848 0.144641 0.150855
0.348817 0.155176 0.160014
0.495991 0.165871 0.169343
0.644404 0.176657 0.178773
0.738576 0.183498 0.184664
0.221065 0.261273 0.171582
0.365860 0.271795 0.180752
0.512955 0.282486 0.190116
0.661344 0.293295 0.200577
0.763071 0.300711 0.207993
0.247103 0.435033 0.204241
0.391656 0.445571 0.214779
0.540140 0.456395 0.225603
0.691705 0.467445 0.236653
0.799595 0.475310 0.244518
0.279337 0.611502 0.240882
0.426925 0.622262 0.251642
0.577271 0.633222 0.262602
0.731262 0.644448 0.273828
0.836583 0.652126 0.281506
0.319898 0.789909 0.278393
0.469965 0.800849 0.289333
0.622642 0.811979 0.300463
0.776692 0.823210 0.311694
0.873854 0.830293 0.318777
0.206428 0.148172 0.289398
0.351371 0.158702 0.298464
0.498530 0.169394 0.307691
0.646933 0.180176 0.317010
0.742171 0.187094 0.322890
0.223642 0.264798 0.309898
0.368407 0.275315 0.318951
0.515488 0.286001 0.328174
0.663839 0.296780 0.337489
0.766606 0.304246 0.343919
0.249633 0.438507 0.340609
0.394118 0.449004 0.349643
0.543642 0.459897 0.360226
0.695206 0.470946 0.371275
0.803097 0.478811 0.379140
0.282838 0.615004 0.375505
0.430426 0.625763 0.386264
0.581575 0.636789 0.397575
0.735591 0.648035 0.409552
0.840126 0.655668 0.417703
0.324197 0.793500 0.414388
0.474306 0.804462 0.426080
0.627012 0.815612 0.437962
0.781087 0.826862 0.449944
0.877462 0.833901 0.457501
0.209067 0.151789 0.431340
0.353984 0.162317 0.440383
0.501132 0.173007 0.449589
0.649527 0.183789 0.458887
0.745863 0.190786 0.464833
0.226283 0.268414 0.451792
0.371021 0.278929 0.460823
0.518089 0.289613 0.470024
0.666432 0.300391 0.479317
0.770297 0.307937 0.485813
0.252276 0.442122 0.482433
0.397142 0.452651 0.491668
0.547345 0.463600 0.502618
0.698910 0.474650 0.513667
0.806800 0.482515 0.521532
0.286542 0.618707 0.517897
0.434130 0.629467 0.528656
0.586103 0.640559 0.540289
0.740125 0.651806 0.552278
0.843837 0.659379 0.560377
0.328694 0.797269 0.557115
0.478826 0.808232 0.568819
0.631541 0.819383 0.580713
0.785623 0.830634 0.592706
0.881174 0.837613 0.600210
0.211745 0.155444 0.574736
0.356636 0.165970 0.583765
0.503772 0.176659 0.592958
0.652159 0.187439 0.602242
0.749593 0.194516 0.608260
0.228962 0.272068 0.595160
0.373672 0.282581 0.604176
0.520729 0.293264 0.613363
0.669064 0.304041 0.622644
0.774027 0.311666 0.629211
0.254959 0.445775 0.625759
0.400885 0.456394 0.635581
0.551088 0.467344 0.646531
0.702653 0.478393 0.657580
0.810543 0.486258 0.665445
0.290285 0.622451 0.661810
0.438037 0.633223 0.672634
0.590670 0.644369 0.684527
0.744699 0.655616 0.696522
0.847587 0.663130 0.704566
0.333231 0.801076 0.701359
0.483385 0.812041 0.713072
0.636110 0.823193 0.724972
0.790198 0.834445 0.736971
0.884925 0.841363 0.744420
0.214317 0.158993 0.714071
0.359223 0.169557 0.724634
0.506387 0.180285 0.735363
0.654807 0.191105 0.746182
0.753349 0.198272 0.752661
0.231630 0.275711 0.738071
0.376350 0.286258 0.748502
0.523394 0.296940 0.757680
0.671721 0.307716 0.766951
0.777788 0.315428 0.773825
0.257668 0.449454 0.770067
0.404654 0.460163 0.780485
0.554857 0.471112 0.791435
0.706422 0.482162 0.802484
0.814312 0.490027 0.810349
0.294054 0.626219 0.806714
0.442621 0.637058 0.817859
0.595264 0.648204 0.829758
0.749299 0.659452 0.841758
0.851363 0.666906 0.849744
0.337794 0.804909 0.846593
0.487970 0.815876 0.858312
0.640704 0.827029 0.870217
0.794788 0.838271 0.881832
0.888677 0.845116 0.888677
