assets/luts/soft_pink.cube
# MoodFilm Filter — soft_pink
TITLE "soft_pink"
LUT_3D_SIZE 17
0.203848 0.144641 0.150855
0.239760 0.147251 0.153120
0.275934 0.149880 0.155405
0.312299 0.152522 0.157704
0.348817 0.155176 0.160014
0.385461 0.157839 0.162335
0.422214 0.160509 0.164664
0.459060 0.163187 0.167000
0.495991 0.165871 0.169343
0.532996 0.168560 0.171692
0.570071 0.171255 0.174047
0.607208 0.173954 0.176407
0.644404 0.176657 0.178773
0.681653 0.179364 0.181143
0.718953 0.182075 0.183518
0.738576 0.183498 0.184664
0.738576 0.183498 0.184664
0.203848 0.144641 0.150855
0.239760 0.147251 0.153120
0.275934 0.149880 0.155405
0.312299 0.152522 0.157704
0.348817 0.155176 0.160014
0.385461 0.157839 0.162335
0.422214 0.160509 0.164664
0.459060 0.163187 0.167000
0.495991 0.165871 0.169343
0.532996 0.168560 0.171692
0.570071 0.171255 0.174047
0.607208 0.173954 0.176407
0.644404 0.176657 0.178773
0.681653 0.179364 0.181143
0.718953 0.182075 0.183518
0.738576 0.183498 0.184664
0.738576 0.183498 0.184664
0.208451 0.176178 0.156429
0.244345 0.178786 0.158694
0.280506 0.181414 0.160979
0.316863 0.184056 0.163278
0.353373 0.186709 0.165590
0.390010 0.189371 0.167911
0.426757 0.192042 0.170241
0.463599 0.194719 0.172579
0.500525 0.197403 0.174923
0.537527 0.200092 0.177274
0.574597 0.202786 0.179631
0.611732 0.205485 0.181994
0.648924 0.208188 0.184363
0.686170 0.210895 0.186737
0.723468 0.213606 0.189117
0.745186 0.215182 0.190422
0.745186 0.215182 0.190422
0.214703 0.218469 0.163948
0.250574 0.221075 0.166213
0.286719 0.223702 0.168499
0.323062 0.226343 0.170800
0.359562 0.228995 0.173113
0.396191 0.231657 0.175436
0.432930 0.234327 0.177768
0.469766 0.237004 0.180108
0.506686 0.239687 0.182456
0.543683 0.242376 0.184811
0.580749 0.245070 0.187173
0.617879 0.247769 0.189542
0.655067 0.250472 0.191921
0.692315 0.253184 0.194491
0.729617 0.255903 0.197210
0.754070 0.257686 0.198993
0.754070 0.257686 0.198993
0.221065 0.261273 0.171582
0.256911 0.263878 0.173847
0.293039 0.266503 0.176134
0.329370 0.269143 0.178437
0.365860 0.271795 0.180752
0.402480 0.274457 0.183079
0.439212 0.277126 0.185415
0.476041 0.279803 0.187760
0.512955 0.282486 0.190116
0.549947 0.285175 0.192484
0.587017 0.287876 0.195159
0.624151 0.290583 0.197866
0.661344 0.293295 0.200577
0.698591 0.296010 0.203293
0.735890 0.298729 0.206012
0.763071 0.300711 0.207993
0.763071 0.300711 0.207993
0.227497 0.304397 0.179291
0.263317 0.307000 0.181558
0.299428 0.309624 0.183848
0.335746 0.312264 0.186155
0.372225 0.314915 0.188476
0.408837 0.317576 0.190810
0.445564 0.320248 0.193253
0.482395 0.322933 0.195938
0.519312 0.325624 0.198630
0.556307 0.328321 0.201326
0.593373 0.331023 0.204029
0.630502 0.333730 0.206735
0.667691 0.336441 0.209446
0.704935 0.339156 0.212162
0.742230 0.341875 0.214880
0.772138 0.344055 0.217061
0.772138 0.344055 0.217061
0.233980 0.347755 0.187064
0.269774 0.350356 0.189336
0.305867 0.352979 0.191636
0.342178 0.355624 0.194168
0.378655 0.358283 0.196827
0.415267 0.360952 0.199496
0.451992 0.363629 0.202173
0.488817 0.366314 0.204858
0.525728 0.369005 0.207549
0.562718 0.371701 0.210245
0.599778 0.374403 0.212947
0.636903 0.377109 0.215653
0.674088 0.379820 0.218364
0.711412 0.382541 0.221085
0.749514 0.385319 0.223863
0.781254 0.387633 0.226177
0.781254 0.387633 0.226177
0.240514 0.391307 0.195244
0.276289 0.393915 0.197852
0.312373 0.396546 0.200482
0.348673 0.399192 0.203128
0.385139 0.401850 0.205787
0.421742 0.404519 0.208455
0.458460 0.407196 0.211132
0.495277 0.409880 0.213816
0.532183 0.412570 0.216506
0.569167 0.415266 0.219203
0.606599 0.417995 0.221931
0.644528 0.420760 0.224696
0.682518 0.423530 0.227466
0.720567 0.426303 0.230240
0.758669 0.429081 0.233017
0.790409 0.431395 0.235331
0.790409 0.431395 0.235331
0.247103 0.435033 0.204241
0.282849 0.437639 0.206847
0.318915 0.440268 0.209476
0.355201 0.442913 0.212121
0.391656 0.445571 0.214779
0.428250 0.448239 0.217447
0.464960 0.450915 0.220123
0.502437 0.453647 0.222855
0.540140 0.456395 0.225603
0.577926 0.459150 0.228358
0.615786 0.461910 0.231118
0.653714 0.464675 0.233883
0.691705 0.467445 0.236653
0.729753 0.470218 0.239426
0.767856 0.472996 0.242204
0.799595 0.475310 0.244518
0.799595 0.475310 0.244518
0.253722 0.478889 0.213266
0.289439 0.481493 0.215869
0.325485 0.484121 0.218497
0.361912 0.486776 0.221153
0.399150 0.489491 0.223867
0.436534 0.492216 0.226593
0.474040 0.494950 0.229327
0.511651 0.497692 0.232069
0.549354 0.500441 0.234817
0.587140 0.503195 0.237572
0.625000 0.505955 0.240332
0.662928 0.508720 0.243097
0.700919 0.511490 0.245866
0.738967 0.514264 0.248640
0.777070 0.517041 0.251418
0.808809 0.519355 0.253732
0.808809 0.519355 0.253732
0.260800 0.522891 0.222346
0.297270 0.525550 0.225004
0.334091 0.528234 0.227689
0.371150 0.530935 0.230390
0.408388 0.533650 0.233105
0.445772 0.536375 0.235830
0.483278 0.539110 0.238565
0.520888 0.541851 0.241306
0.558592 0.544600 0.244055
0.596377 0.547355 0.246810
0.634238 0.550115 0.249570
0.672166 0.552880 0.252335
0.710156 0.555649 0.255104
0.748205 0.558423 0.257878
0.786307 0.561201 0.260656
0.818047 0.563514 0.262969
0.818047 0.563514 0.262969
0.270059 0.567151 0.231605
0.306529 0.569810 0.234263
0.343350 0.572494 0.236948
0.380409 0.575196 0.239649
0.417647 0.577911 0.242364
0.455031 0.580636 0.245089
0.492536 0.583370 0.247823
0.530147 0.586112 0.250565
0.567850 0.588860 0.253314
0.605636 0.591615 0.256068
0.643496 0.594375 0.258828
0.681425 0.597140 0.261593
0.719944 0.599948 0.264401
0.758601 0.602766 0.267220
0.797313 0.605588 0.270042
0.827306 0.607775 0.272228
0.827306 0.607775 0.272228
0.279337 0.611502 0.240882
0.315807 0.614161 0.243541
0.352628 0.616845 0.246225
0.389686 0.619547 0.248927
0.426925 0.622262 0.251642
0.464309 0.624987 0.254367
0.501814 0.627721 0.257101
0.539425 0.630463 0.259843
0.577271 0.633222 0.262602
0.615660 0.636021 0.265401
0.654126 0.638825 0.268205
0.692662 0.641634 0.271014
0.731262 0.644448 0.273828
0.769921 0.647266 0.276646
0.808636 0.650089 0.279469
0.836583 0.652126 0.281506
0.836583 0.652126 0.281506
0.288632 0.655936 0.250178
0.325102 0.658595 0.252836
0.361923 0.661279 0.255520
0.398981 0.663981 0.258222
0.436220 0.666695 0.260937
0.473963 0.669447 0.263688
0.512068 0.672225 0.266466
0.550282 0.675011 0.269252
0.588591 0.677803 0.272045
0.626984 0.680602 0.274844
0.665454 0.683407 0.277648
0.703993 0.686216 0.280458
0.742597 0.689031 0.283272
0.781259 0.691849 0.286090
0.819976 0.694672 0.288913
0.845878 0.696560 0.290801
0.845878 0.696560 0.290801
0.297943 0.700446 0.259488
0.334413 0.703104 0.262147
0.371803 0.705830 0.264873
0.409457 0.708575 0.267618
0.447295 0.711334 0.270376
0.485282 0.714103 0.273146
0.523394 0.716881 0.275924
0.561613 0.719667 0.278710
0.599927 0.722460 0.281503
0.638324 0.725260 0.284302
0.676798 0.728064 0.287107
0.715341 0.730874 0.289917
0.753947 0.733689 0.292731
0.792613 0.736507 0.295550
0.831333 0.739330 0.298373
0.855189 0.741069 0.300112
0.855189 0.741069 0.300112
0.308614 0.745123 0.268912
0.345685 0.747826 0.271615
0.383111 0.750554 0.274343
0.420776 0.753300 0.277089
0.458623 0.756059 0.279848
0.496617 0.758829 0.282618
0.534735 0.761607 0.285396
0.572959 0.764394 0.288183
0.611278 0.767187 0.290976
0.649679 0.769987 0.293776
0.688157 0.772792 0.296581
0.726703 0.775602 0.299391
0.765313 0.778417 0.302206
0.803981 0.781236 0.305025
0.842704 0.784059 0.307848
0.864515 0.785649 0.309438
0.864515 0.785649 0.309438
0.319898 0.789909 0.278393
0.356993 0.792613 0.281097
0.394433 0.795343 0.283827
0.432109 0.798089 0.286573
0.469965 0.800849 0.289333
0.507966 0.803619 0.292103
0.546090 0.806399 0.294882
0.584319 0.809185 0.297669
0.622642 0.811979 0.300463
0.661048 0.814779 0.303263
0.699529 0.817584 0.306068
0.738079 0.820395 0.308879
0.776692 0.823210 0.311694
0.815364 0.826029 0.314513
0.854089 0.828852 0.317336
0.873854 0.830293 0.318777
0.873854 0.830293 0.318777
0.204496 0.145507 0.184780
0.240406 0.148116 0.187032
0.276578 0.150744 0.189303
0.312942 0.153386 0.191588
0.349459 0.156040 0.193885
0.386102 0.158702 0.196190
0.422853 0.161373 0.198504
0.459699 0.164050 0.200824
0.496628 0.166733 0.203151
0.533633 0.169422 0.205483
0.570707 0.172116 0.207821
0.607843 0.174814 0.210163
0.645038 0.177517 0.212509
0.682286 0.180224 0.214860
0.719585 0.182934 0.217214
0.739452 0.184375 0.218358
0.739452 0.184375 0.218358
0.204496 0.145507 0.184780
0.240406 0.148116 0.187032
0.276578 0.150744 0.189303
0.312942 0.153386 0.191588
0.349459 0.156040 0.193885
0.386102 0.158702 0.196190
0.422853 0.161373 0.198504
0.459699 0.164050 0.200824
0.496628 0.166733 0.203151
0.533633 0.169422 0.205483
0.570707 0.172116 0.207821
0.607843 0.174814 0.210163
0.645038 0.177517 0.212509
0.682286 0.180224 0.214860
0.719585 0.182934 0.217214
0.739452 0.184375 0.218358
0.739452 0.184375 0.218358
0.209099 0.177043 0.190320
0.244991 0.179651 0.192570
0.281150 0.182278 0.194841
0.317505 0.184919 0.197125
0.354013 0.187572 0.199421
0.390650 0.190234 0.201727
0.427395 0.192904 0.204040
0.464236 0.195581 0.206360
0.501161 0.198264 0.208687
0.538162 0.200952 0.211019
0.575232 0.203646 0.213356
0.612365 0.206344 0.215698
0.649557 0.209046 0.218045
0.686802 0.211753 0.220395
0.724098 0.214463 0.222749
0.746060 0.216057 0.224047
0.746060 0.216057 0.224047
0.215350 0.219332 0.197790
0.251218 0.221938 0.200039
0.287361 0.224564 0.202309
0.323703 0.227205 0.204592
0.360201 0.229857 0.206888
0.396829 0.232518 0.209193
0.433567 0.235188 0.211506
0.470401 0.237864 0.213826
0.507321 0.240547 0.216152
0.544316 0.243235 0.218484
0.581381 0.245928 0.220822
0.618510 0.248626 0.223164
0.655697 0.251328 0.225510
0.692939 0.254034 0.227860
0.730232 0.256744 0.230214
0.754921 0.258537 0.231711
0.754921 0.258537 0.231711
0.221711 0.262135 0.205368
0.257554 0.264740 0.207616
0.293680 0.267364 0.209885
0.330009 0.270004 0.212168
0.366497 0.272655 0.214463
0.403116 0.275316 0.216767
0.439847 0.277985 0.219080
0.476675 0.280661 0.221400
0.513588 0.283343 0.223726
0.550578 0.286031 0.226058
0.587638 0.288723 0.228395
0.624763 0.291421 0.230737
0.661946 0.294123 0.233083
0.699184 0.296829 0.235434
0.736473 0.299538 0.237788
0.763890 0.301530 0.239483
0.763890 0.301530 0.239483
0.228141 0.305258 0.213015
0.263959 0.307860 0.215261
0.300067 0.310483 0.217528
0.336383 0.313122 0.219811
0.372861 0.315773 0.222105
0.409471 0.318433 0.224409
0.446194 0.321101 0.226722
0.483015 0.323776 0.229042
0.519922 0.326458 0.231368
0.556907 0.329146 0.233699
0.593963 0.331838 0.236036
0.631082 0.334535 0.238378
0.668261 0.337237 0.240724
0.705495 0.339943 0.243075
0.742781 0.342652 0.245429
0.772925 0.344842 0.247323
0.772925 0.344842 0.247323
0.234622 0.348614 0.220711
0.270413 0.351214 0.222955
0.306504 0.353836 0.225222
0.342807 0.356474 0.227504
0.379274 0.359124 0.229797
0.415875 0.361783 0.232101
0.452590 0.364451 0.234413
0.489405 0.367126 0.236733
0.526306 0.369807 0.239059
0.563286 0.372494 0.241390
0.600336 0.375186 0.243727
0.637451 0.377883 0.246069
0.674626 0.380584 0.248415
0.712189 0.383318 0.250937
0.750291 0.386095 0.253715
0.782030 0.388409 0.256029
0.782030 0.388409 0.256029
0.241145 0.392154 0.228447
0.276908 0.394753 0.230690
0.312981 0.397374 0.232955
0.349270 0.400010 0.235236
0.385726 0.402659 0.237529
0.422319 0.405318 0.239833
0.459026 0.407985 0.242145
0.495833 0.410660 0.244464
0.532729 0.413340 0.246789
0.569703 0.416027 0.249121
0.607376 0.418771 0.251784
0.645304 0.421536 0.254549
0.683295 0.424306 0.257318
0.721343 0.427080 0.260092
0.759446 0.429857 0.262870
0.791185 0.432171 0.265184
0.791185 0.432171 0.265184
0.247702 0.435848 0.236216
0.283437 0.438444 0.238457
0.319491 0.441064 0.240721
0.355766 0.443699 0.243001
0.392211 0.446348 0.245294
0.428794 0.449006 0.247597
0.465602 0.451681 0.249965
0.503213 0.454423 0.252707
0.540917 0.457172 0.255456
0.578702 0.459926 0.258210
0.616562 0.462686 0.260970
0.654491 0.465451 0.263735
0.692481 0.468221 0.266505
0.730530 0.470995 0.269279
0.768632 0.473772 0.272056
0.800372 0.476086 0.274370
0.800372 0.476086 0.274370
0.254290 0.479672 0.244013
0.289994 0.482266 0.246252
0.326029 0.484885 0.248515
0.362689 0.487553 0.251005
0.399927 0.490267 0.253720
0.437311 0.492993 0.256445
0.474816 0.495727 0.259179
0.512427 0.498469 0.261921
0.550130 0.501217 0.264670
0.587916 0.503972 0.267424
0.625776 0.506732 0.270184
0.663705 0.509497 0.272949
0.701695 0.512266 0.275719
0.739744 0.515040 0.278492
0.777846 0.517818 0.281270
0.809586 0.520132 0.283584
0.809586 0.520132 0.283584
0.261576 0.523667 0.252198
0.298047 0.526326 0.254857
0.334868 0.529010 0.257541
0.371926 0.531712 0.260243
0.409165 0.534427 0.262957
0.446548 0.537152 0.265683
0.484054 0.539886 0.268417
0.521665 0.542628 0.271159
0.559368 0.545377 0.273907
0.597154 0.548131 0.276662
0.635014 0.550891 0.279422
0.672942 0.553656 0.282187
0.710933 0.556426 0.284956
0.748981 0.559199 0.287730
0.787084 0.561977 0.290508
0.818826 0.564294 0.292939
0.818826 0.564294 0.292939
0.270835 0.567928 0.261457
0.307305 0.570586 0.264116
0.344127 0.573271 0.266800
0.381185 0.575972 0.269501
0.418423 0.578687 0.272216
0.455807 0.581412 0.274941
0.493313 0.584146 0.277676
0.530924 0.586888 0.280417
0.568627 0.589637 0.283166
0.606413 0.592391 0.285921
0.644273 0.595151 0.288681
0.682308 0.597925 0.291485
0.720909 0.600743 0.294481
0.759571 0.603566 0.297482
0.798288 0.606393 0.300486
0.828101 0.608570 0.302811
0.828101 0.608570 0.302811
0.280113 0.612279 0.270735
0.316583 0.614938 0.273393
0.353404 0.617622 0.276078
0.390463 0.620323 0.278779
0.427701 0.623038 0.281494
0.465085 0.625763 0.284219
0.502591 0.628498 0.286953
0.540201 0.631239 0.289695
0.578231 0.634014 0.292566
0.616626 0.636818 0.295547
0.655097 0.639627 0.298533
0.693638 0.642441 0.301525
0.732243 0.645259 0.304521
0.770907 0.648082 0.307522
0.809627 0.650909 0.310526
0.837395 0.652937 0.312702
0.837395 0.652937 0.312702
0.289408 0.656713 0.280030
0.325878 0.659371 0.282688
0.362699 0.662056 0.285373
0.399758 0.664757 0.288074
0.436996 0.667472 0.290789
0.474923 0.670241 0.293718
0.513034 0.673024 0.296678
0.551253 0.675814 0.299647
0.589567 0.678612 0.302622
0.627966 0.681415 0.305603
0.666441 0.684224 0.308590
0.704985 0.687039 0.311582
0.743593 0.689858 0.314578
0.782261 0.692681 0.317579
0.820983 0.695508 0.320584
0.846706 0.697387 0.322611
0.846706 0.697387 0.322611
0.298719 0.701222 0.289341
0.335346 0.703893 0.292059
0.372763 0.706626 0.294969
0.410423 0.709375 0.297896
0.448267 0.712139 0.300837
0.486259 0.714913 0.303789
0.524376 0.717696 0.306750
0.562601 0.720487 0.309718
0.600919 0.723285 0.312694
0.639322 0.726089 0.315675
0.677801 0.728898 0.318663
0.716349 0.731713 0.321655
0.754960 0.734532 0.324652
0.793631 0.737355 0.327653
0.832356 0.740183 0.330658
0.856033 0.741913 0.332536
0.856033 0.741913 0.332536
0.309577 0.745925 0.299257
0.346656 0.748632 0.302142
0.384087 0.751365 0.305052
0.421758 0.754116 0.307981
0.459610 0.756880 0.310922
0.497610 0.759654 0.313874
0.535733 0.762438 0.316836
0.573963 0.765229 0.319805
0.612286 0.768028 0.322781
0.650693 0.770832 0.325763
0.689176 0.773642 0.328750
0.727727 0.776456 0.331743
0.766342 0.779276 0.334740
0.805015 0.782100 0.337742
0.843743 0.784927 0.340747
0.865374 0.786508 0.342476
0.865374 0.786508 0.342476
0.320877 0.790727 0.309351
0.357979 0.793436 0.312238
0.395425 0.796170 0.315150
0.433107 0.798921 0.318079
0.470968 0.801686 0.321021
0.508975 0.804461 0.323974
0.547104 0.807245 0.326936
0.585339 0.810037 0.329905
0.623667 0.812835 0.332881
0.662078 0.815640 0.335864
0.700564 0.818450 0.338852
0.739119 0.821265 0.341845
0.777737 0.824085 0.344842
0.816413 0.826909 0.347844
0.855144 0.829737 0.350850
0.874729 0.831168 0.352429
0.874729 0.831168 0.352429
0.205133 0.146388 0.219360
0.241040 0.148997 0.221607
0.277210 0.151624 0.223873
0.313573 0.154266 0.226154
0.350088 0.156919 0.228446
0.386730 0.159582 0.230747
0.423481 0.162252 0.233055
0.460326 0.164929 0.235371
0.497254 0.167612 0.237693
0.534259 0.170301 0.240021
0.571332 0.172995 0.242353
0.608468 0.175693 0.244690
0.645662 0.178395 0.247032
0.682910 0.181102 0.249377
0.720208 0.183812 0.251727
0.740350 0.185273 0.252887
0.740350 0.185273 0.252887
0.205133 0.146388 0.219360
0.241040 0.148997 0.221607
0.277210 0.151624 0.223873
0.313573 0.154266 0.226154
0.350088 0.156919 0.228446
0.386730 0.159582 0.230747
0.423481 0.162252 0.233055
0.460326 0.164929 0.235371
0.497254 0.167612 0.237693
0.534259 0.170301 0.240021
0.571332 0.172995 0.242353
0.608468 0.175693 0.244690
0.645662 0.178395 0.247032
0.682910 0.181102 0.249377
0.720208 0.183812 0.251727
0.740350 0.185273 0.252887
0.740350 0.185273 0.252887
0.209735 0.177923 0.224887
0.245624 0.180531 0.227133
0.281782 0.183158 0.229399
0.318135 0.185799 0.231679
0.354643 0.188451 0.233970
0.391278 0.191113 0.236271
0.428023 0.193783 0.238579
0.464863 0.196460 0.240895
0.501787 0.199142 0.243217
0.538787 0.201831 0.245544
0.575857 0.204524 0.247876
0.612989 0.207222 0.250213
0.650180 0.209925 0.252555
0.687425 0.212631 0.254900
0.724721 0.215341 0.257249
0.746958 0.216954 0.258562
0.746958 0.216954 0.258562
0.215986 0.220212 0.232342
0.251851 0.222818 0.234587
0.287992 0.225444 0.236851
0.324333 0.228084 0.239130
0.360830 0.230736 0.241421
0.397457 0.233397 0.243721
0.434194 0.236066 0.246029
0.471028 0.238742 0.248344
0.507946 0.241425 0.250666
0.544941 0.244113 0.252993
0.582006 0.246806 0.255325
0.619134 0.249504 0.257662
0.656320 0.252206 0.260003
0.693562 0.254912 0.262348
0.730854 0.257621 0.264697
0.755819 0.259434 0.266209
0.755819 0.259434 0.266209
0.222347 0.263015 0.239905
0.258187 0.265619 0.242148
0.294311 0.268243 0.244411
0.330639 0.270883 0.246689
0.367126 0.273534 0.248979
0.403744 0.276194 0.251279
0.440474 0.278863 0.253587
0.477300 0.281539 0.255902
0.514213 0.284221 0.258223
0.551203 0.286908 0.260549
0.588262 0.289601 0.262881
0.625386 0.292298 0.265218
0.662568 0.295000 0.267559
0.699806 0.297706 0.269904
0.737094 0.300415 0.272253
0.764787 0.302427 0.273964
0.764787 0.302427 0.273964
0.228776 0.306137 0.247535
0.264591 0.308739 0.249776
0.300698 0.311362 0.252038
0.337012 0.314000 0.254316
0.373489 0.316651 0.256605
0.410098 0.319311 0.258904
0.446820 0.321979 0.261212
0.483640 0.324654 0.263526
0.520547 0.327336 0.265847
0.557531 0.330023 0.268173
0.594586 0.332715 0.270505
0.631705 0.335412 0.272842
0.668884 0.338114 0.275182
0.706117 0.340819 0.277527
0.743402 0.343528 0.279876
0.773822 0.345738 0.281786
0.773822 0.345738 0.281786
0.235258 0.349492 0.255215
0.271046 0.352092 0.257454
0.307135 0.354714 0.259715
0.343436 0.357352 0.261992
0.379902 0.360001 0.264280
0.416502 0.362661 0.266579
0.453216 0.365328 0.268886
0.490030 0.368003 0.271200
0.526930 0.370684 0.273520
0.563909 0.373371 0.275847
0.600959 0.376063 0.278178
0.638073 0.378760 0.280514
0.675248 0.381461 0.282855
0.713088 0.384217 0.285520
0.751190 0.386995 0.288297
0.782930 0.389309 0.290611
0.782930 0.389309 0.290611
0.241780 0.393033 0.262933
0.277540 0.395631 0.265171
0.313611 0.398251 0.267431
0.349899 0.400888 0.269706
0.386354 0.403536 0.271994
0.422945 0.406195 0.274292
0.459651 0.408862 0.276599
0.496458 0.411536 0.278913
0.533353 0.414217 0.281233
0.570415 0.416911 0.283606
0.608275 0.419671 0.286366
0.646204 0.422436 0.289131
0.684194 0.425205 0.291901
0.722243 0.427979 0.294674
0.760345 0.430757 0.297452
0.792085 0.433071 0.299766
0.792085 0.433071 0.299766
0.248337 0.436726 0.270685
0.284069 0.439322 0.272920
0.320121 0.441941 0.275179
0.356394 0.444577 0.277454
0.392838 0.447224 0.279741
0.429420 0.449882 0.282039
0.466502 0.452581 0.284547
0.504113 0.455323 0.287289
0.541816 0.458071 0.290038
0.579602 0.460826 0.292793
0.617462 0.463586 0.295553
0.655390 0.466351 0.298318
0.693381 0.469120 0.301087
0.731429 0.471894 0.303861
0.769532 0.474672 0.306638
0.801271 0.476986 0.308952
0.801271 0.476986 0.308952
0.254925 0.480550 0.278464
0.290626 0.483144 0.280697
0.326659 0.485761 0.282955
0.363588 0.488452 0.285587
0.400826 0.491167 0.288302
0.438210 0.493892 0.291027
0.475716 0.496626 0.293761
0.513327 0.499368 0.296503
0.551030 0.502117 0.299252
0.588816 0.504871 0.302006
0.626676 0.507631 0.304766
0.664604 0.510396 0.307531
0.702595 0.513166 0.310301
0.740643 0.515940 0.313075
0.778745 0.518717 0.315852
0.810485 0.521031 0.318166
0.810485 0.521031 0.318166
0.262476 0.524567 0.286780
0.298946 0.527226 0.289439
0.335767 0.529910 0.292123
0.372826 0.532611 0.294825
0.410064 0.535326 0.297540
0.447448 0.538051 0.300265
0.484953 0.540786 0.302999
0.522564 0.543527 0.305741
0.560267 0.546276 0.308489
0.598053 0.549031 0.311244
0.635913 0.551791 0.314004
0.673842 0.554556 0.316769
0.711832 0.557325 0.319539
0.749881 0.560099 0.322312
0.788075 0.562884 0.325124
0.819727 0.565195 0.327586
0.819727 0.565195 0.327586
0.271735 0.568827 0.296039
0.308205 0.571486 0.298698
0.345026 0.574170 0.301382
0.382084 0.576872 0.304084
0.419323 0.579586 0.306798
0.456707 0.582312 0.309524
0.494212 0.585046 0.312258
0.531823 0.587788 0.315000
0.569526 0.590536 0.317748
0.607312 0.593291 0.320503
0.645172 0.596051 0.323263
0.683414 0.598841 0.326146
0.722016 0.601660 0.329144
0.760678 0.604483 0.332148
0.799395 0.607310 0.335155
0.829002 0.609472 0.337467
0.829002 0.609472 0.337467
0.281012 0.613178 0.305317
0.317483 0.615837 0.307976
0.354304 0.618521 0.310660
0.391362 0.621223 0.313361
0.428601 0.623938 0.316076
0.465984 0.626663 0.318801
0.503490 0.629397 0.321536
0.541101 0.632139 0.324277
0.579337 0.634930 0.327227
0.617732 0.637734 0.330211
0.656203 0.640543 0.333200
0.694745 0.643357 0.336194
0.733350 0.646176 0.339194
0.772015 0.648999 0.342197
0.810735 0.651826 0.345204
0.838296 0.653839 0.347367
0.838296 0.653839 0.347367
0.290308 0.657612 0.314612
0.326778 0.660271 0.317271
0.363599 0.662955 0.319955
0.400657 0.665657 0.322657
0.438041 0.668383 0.325427
0.476027 0.671157 0.328380
0.514139 0.673940 0.331344
0.552359 0.676730 0.334314
0.590673 0.679528 0.337292
0.629072 0.682332 0.340276
0.667547 0.685141 0.343266
0.706092 0.687955 0.346261
0.744701 0.690774 0.349260
0.783369 0.693598 0.352264
0.822092 0.696425 0.355271
0.847608 0.698289 0.357285
0.847608 0.698289 0.357285
0.299618 0.702122 0.323923
0.336446 0.704809 0.326720
0.373864 0.707541 0.329632
0.411525 0.710291 0.332562
0.449370 0.713055 0.335506
0.487363 0.715829 0.338460
0.525481 0.718612 0.341424
0.563706 0.721403 0.344395
0.602025 0.724201 0.347374
0.640429 0.727005 0.350358
0.678908 0.729815 0.353348
0.717456 0.732630 0.356343
0.756068 0.735449 0.359342
0.794739 0.738272 0.362346
0.833464 0.741100 0.365354
0.856935 0.742815 0.367219
0.856935 0.742815 0.367219
0.310675 0.746840 0.333923
0.347756 0.749548 0.336811
0.385189 0.752281 0.339725
0.422861 0.755032 0.342656
0.460714 0.757796 0.345600
0.498715 0.760571 0.348555
0.536838 0.763355 0.351519
0.575069 0.766146 0.354491
0.613392 0.768944 0.357469
0.651800 0.771749 0.360454
0.690283 0.774559 0.363444
0.728835 0.777373 0.366440
0.767450 0.780193 0.369440
0.806124 0.783017 0.372444
0.844852 0.785845 0.375452
0.866277 0.787410 0.377167
0.866277 0.787410 0.377167
0.321975 0.791642 0.344027
0.359080 0.794352 0.346916
0.396527 0.797086 0.349831
0.434210 0.799838 0.352763
0.472072 0.802602 0.355708
0.510080 0.805378 0.358663
0.548209 0.808162 0.361628
0.586445 0.810954 0.364600
0.624773 0.813752 0.367579
0.663185 0.816557 0.370564
0.701672 0.819367 0.373555
0.740227 0.822182 0.376550
0.778845 0.825002 0.379550
0.817522 0.827826 0.382555
0.856253 0.830654 0.385563
0.875632 0.832071 0.387130
0.875632 0.832071 0.387130
0.205777 0.147277 0.254268
0.241682 0.149886 0.256512
0.277851 0.152513 0.258775
0.314212 0.155155 0.261053
0.350727 0.157808 0.263342
0.387368 0.160470 0.265640
0.424117 0.163140 0.267946
0.460961 0.165817 0.270259
0.497889 0.168500 0.272578
0.534893 0.171189 0.274902
0.571966 0.173882 0.277232
0.609101 0.176580 0.279566
0.646295 0.179283 0.281905
0.683542 0.181989 0.284247
0.720840 0.184699 0.286593
0.741258 0.186180 0.287771
0.741258 0.186180 0.287771
0.205777 0.147277 0.254268
0.241682 0.149886 0.256512
