assets/luts/vivid.cube
TITLE "vivid"
LUT_3D_SIZE 33
0.000000 0.000000 0.000000
0.012809 0.000000 0.000000
0.055618 0.000000 0.000000
0.098427 0.000000 0.000000
0.141236 0.000000 0.000000
0.183961 0.000000 0.000000
0.226153 0.000000 0.000000
0.268346 0.000000 0.000000
0.310538 0.000000 0.000000
0.352730 0.000000 0.000000
0.394922 0.000000 0.000000
0.437114 0.000000 0.000000
0.479307 0.000000 0.000000
0.521499 0.000000 0.000000
0.563691 0.000000 0.000000
0.605883 0.000000 0.000000
0.648076 0.000000 0.000000
0.690268 0.000000 0.000000
0.732460 0.000000 0.000000
0.774652 0.000000 0.000000
0.816844 0.000000 0.000000
0.859037 0.000000 0.000000
0.901229 0.000000 0.000000
0.943421 0.000000 0.000000
0.985613 0.000000 0.000000
1.000000 0.000000 0.000000
1.000000 0.000000 0.000000
1.000000 0.000000 0.000000
1.000000 0.000000 0.000000
1.000000 0.000000 0.000000
1.000000 0.000000 0.000000
1.000000 0.000000 0.000000
1.000000 0.000000 0.000000
0.000000 0.009344 0.000000
0.005747 0.005747 0.000000
0.048555 0.002149 0.000000
0.091304 0.000000 0.000000
0.133496 0.000000 0.000000
0.175688 0.000000 0.000000
0.217880 0.000000 0.000000
0.260072 0.000000 0.000000
0.302265 0.000000 0.000000
0.344457 0.000000 0.000000
0.386649 0.000000 0.000000
0.428841 0.000000 0.000000
0.471034 0.000000 0.000000
0.513226 0.000000 0.000000
0.555418 0.000000 0.000000
0.597610 0.000000 0.000000
0.639802 0.000000 0.000000
0.681995 0.000000 0.000000
0.724187 0.000000 0.000000
0.766379 0.000000 0.000000
0.808571 0.000000 0.000000
0.850764 0.000000 0.000000
0.892956 0.000000 0.000000
0.935148 0.000000 0.000000
0.977340 0.000000 0.000000
1.000000 0.000000 0.000000
1.000000 0.000000 0.000000
1.000000 0.000000 0.000000
1.000000 0.000000 0.000000
1.000000 0.000000 0.000000
1.000000 0.000000 0.000000
1.000000 0.000000 0.000000
1.000000 0.000000 0.000000
0.000000 0.048688 0.000000
0.000000 0.045052 0.000000
0.040838 0.040838 0.000000
0.083031 0.036624 0.000000
0.125223 0.032410 0.000000
0.167415 0.028196 0.000000
0.209607 0.023982 0.000000
0.251799 0.019768 0.000000
0.293992 0.015554 0.000000
0.336184 0.011340 0.000000
0.378376 0.007126 0.000000
0.420568 0.002912 0.000000
0.462761 0.000000 0.000000
0.504953 0.000000 0.000000
0.547145 0.000000 0.000000
0.589337 0.000000 0.000000
0.631529 0.000000 0.000000
0.673722 0.000000 0.000000
0.715914 0.000000 0.000000
0.758106 0.000000 0.000000
0.800298 0.000000 0.000000
0.842491 0.000000 0.000000
0.884683 0.000000 0.000000
0.926875 0.000000 0.000000
0.969067 0.000000 0.000000
1.000000 0.000000 0.000000
1.000000 0.000000 0.000000
1.000000 0.000000 0.000000
1.000000 0.000000 0.000000
1.000000 0.000000 0.000000
1.000000 0.000000 0.000000
1.000000 0.000000 0.000000
1.000000 0.000000 0.000000
0.000000 0.087400 0.000000
0.000000 0.083186 0.000000
0.032565 0.078972 0.000000
0.074758 0.074758 0.000000
0.116950 0.070544 0.000000
0.159142 0.066329 0.000000
0.201334 0.062115 0.000000
0.243526 0.057901 0.000000
0.285719 0.053687 0.000000
0.327911 0.049473 0.000000
0.370103 0.045259 0.000000
0.412295 0.041045 0.000000
0.454488 0.036831 0.000000
0.496680 0.032617 0.000000
0.538872 0.028403 0.000000
0.581064 0.024189 0.000000
0.623256 0.019975 0.000000
0.665449 0.015761 0.000000
0.707641 0.011547 0.000000
0.749833 0.007333 0.000000
0.792025 0.003119 0.000000
0.834218 0.000000 0.000000
0.876410 0.000000 0.000000
0.918602 0.000000 0.000000
0.960794 0.000000 0.000000
1.000000 0.000000 0.000000
1.000000 0.000000 0.000000
1.000000 0.000000 0.000000
1.000000 0.000000 0.000000
1.000000 0.000000 0.000000
1.000000 0.000000 0.000000
1.000000 0.000000 0.000000
1.000000 0.000000 0.000000
0.000000 0.125533 0.000000
0.000000 0.121319 0.000000
0.024292 0.117105 0.000000
0.066485 0.112891 0.000000
0.108677 0.108677 0.000000
0.150869 0.104463 0.000000
0.193061 0.100249 0.000000
0.235253 0.096035 0.000000
0.277446 0.091821 0.000000
0.319638 0.087607 0.000000
0.361830 0.083393 0.000000
0.404022 0.079179 0.000000
0.446215 0.074964 0.000000
0.488407 0.070750 0.000000
0.530599 0.066536 0.000000
0.572791 0.062322 0.000000
0.614983 0.058108 0.000000
0.657176 0.053894 0.000000
0.699368 0.049680 0.000000
0.741560 0.045466 0.000000
0.783752 0.041252 0.000000
0.825944 0.037038 0.000000
0.868137 0.032824 0.000000
0.910329 0.028610 0.000000
0.952521 0.024396 0.000000
0.994713 0.020182 0.000000
1.000000 0.015968 0.000000
1.000000 0.011754 0.000000
1.000000 0.007540 0.000000
1.000000 0.003326 0.000000
1.000000 0.000000 0.000000
1.000000 0.000000 0.000000
1.000000 0.000000 0.000000
0.000000 0.163666 0.000000
0.000000 0.159452 0.000000
0.016019 0.155238 0.000000
0.058211 0.151024 0.000000
0.100404 0.146810 0.000000
0.142596 0.142596 0.000000
0.184788 0.138382 0.000000
0.226980 0.134168 0.000000
0.269173 0.129954 0.000000
0.311365 0.125740 0.000000
0.353557 0.121526 0.000000
0.395749 0.117312 0.000000
0.437941 0.113098 0.000000
0.480134 0.108884 0.000000
0.522326 0.104670 0.000000
0.564518 0.100456 0.000000
0.606710 0.096242 0.000000
0.648903 0.092028 0.000000
0.691095 0.087814 0.000000
0.733287 0.083599 0.000000
0.775479 0.079385 0.000000
0.817671 0.075171 0.000000
0.859864 0.070957 0.000000
0.902056 0.066743 0.000000
0.944248 0.062529 0.000000
0.986440 0.058315 0.000000
1.000000 0.054101 0.000000
1.000000 0.049887 0.000000
1.000000 0.045994 0.000000
1.000000 0.042397 0.000000
1.000000 0.038799 0.000000
1.000000 0.035202 0.000000
1.000000 0.031605 0.000000
0.000000 0.201799 0.000000
0.000000 0.197585 0.000000
0.007746 0.193371 0.000000
0.049938 0.189157 0.000000
0.092131 0.184943 0.000000
0.134323 0.180729 0.000000
0.176515 0.176515 0.000000
0.218707 0.172301 0.000000
0.260900 0.168087 0.000000
0.303092 0.163873 0.000000
0.345284 0.159659 0.000000
0.387476 0.155445 0.000000
0.429668 0.151231 0.000000
0.471861 0.147017 0.000000
0.514053 0.142803 0.000000
0.556245 0.138589 0.000000
0.598437 0.134375 0.000000
0.640630 0.130161 0.000000
0.682822 0.125947 0.000000
0.725014 0.121733 0.000000
0.767206 0.117519 0.000000
0.809398 0.113305 0.000000
0.851591 0.109091 0.000000
0.893783 0.104877 0.000000
0.935975 0.100663 0.000000
0.978167 0.096449 0.000000
1.000000 0.092532 0.000000
1.000000 0.088935 0.000000
1.000000 0.085338 0.000000
1.000000 0.081740 0.000000
1.000000 0.078143 0.000000
1.000000 0.074546 0.000000
1.000000 0.070948 0.000000
0.000000 0.239933 0.000000
0.000000 0.235718 0.000000
0.000000 0.231504 0.000000
0.041665 0.227290 0.000000
0.083858 0.223076 0.000000
0.126050 0.218862 0.000000
0.168242 0.214648 0.000000
0.210434 0.210434 0.000000
0.252627 0.206220 0.000000
0.294819 0.202006 0.000000
0.337011 0.197792 0.000000
0.379203 0.193578 0.000000
0.421395 0.189364 0.000000
0.463588 0.185150 0.000000
0.505780 0.180936 0.000000
0.547972 0.176722 0.000000
0.590164 0.172508 0.000000
0.632357 0.168294 0.000000
0.674549 0.164080 0.000000
0.716741 0.159866 0.000000
0.758933 0.155652 0.000000
0.801125 0.151438 0.000000
0.843318 0.147224 0.000000
0.885510 0.143010 0.000000
0.927977 0.139071 0.000000
0.970786 0.135474 0.000000
1.000000 0.131876 0.000000
1.000000 0.128279 0.000000
1.000000 0.124682 0.000000
1.000000 0.121084 0.000000
1.000000 0.117487 0.000000
1.000000 0.113890 0.000000
1.000000 0.110292 0.000000
0.000000 0.278066 0.000000
0.000000 0.273852 0.000000
0.000000 0.269638 0.000000
0.033392 0.265424 0.000000
0.075585 0.261210 0.000000
0.117777 0.256996 0.000000
0.159969 0.252782 0.000000
0.202161 0.248568 0.000000
0.244353 0.244353 0.000000
0.286546 0.240139 0.000000
0.328738 0.235925 0.000000
0.370930 0.231711 0.000000
0.413122 0.227497 0.000000
0.455315 0.223283 0.000000
0.497507 0.219069 0.000000
0.539699 0.214855 0.000000
0.581891 0.210641 0.000000
0.624083 0.206427 0.000000
0.666276 0.202213 0.000000
0.708468 0.197999 0.000000
0.750660 0.193785 0.000000
0.792852 0.189571 0.000000
0.835297 0.185610 0.000000
0.878106 0.182012 0.000000
0.920915 0.178415 0.000000
0.963724 0.174818 0.000000
1.000000 0.171220 0.000000
1.000000 0.167623 0.000000
1.000000 0.164026 0.000000
1.000000 0.160428 0.000000
1.000000 0.156831 0.000000
1.000000 0.153234 0.000000
1.000000 0.149636 0.000000
0.000000 0.316199 0.000000
0.000000 0.311985 0.000000
0.000000 0.307771 0.000000
0.025119 0.303557 0.000000
0.067312 0.299343 0.000000
0.109504 0.295129 0.000000
0.151696 0.290915 0.000000
0.193888 0.286701 0.000000
0.236080 0.282487 0.000000
0.278273 0.278273 0.000000
0.320465 0.274059 0.000000
0.362657 0.269845 0.000000
0.404849 0.265631 0.000000
0.447042 0.261417 0.000000
0.489234 0.257203 0.000000
0.531426 0.252989 0.000000
0.573618 0.248774 0.000000
0.615810 0.244560 0.000000
0.658003 0.240346 0.000000
0.700195 0.236132 0.000000
0.742617 0.232148 0.000000
0.785426 0.228551 0.000000
0.828235 0.224954 0.000000
0.871044 0.221356 0.000000
0.913853 0.217759 0.000000
0.956662 0.214162 0.000000
0.999470 0.210564 0.000000
1.000000 0.206967 0.000000
1.000000 0.203370 0.000000
1.000000 0.199772 0.000000
1.000000 0.196175 0.000000
1.000000 0.192577 0.000000
1.000000 0.188980 0.000000
0.000000 0.354332 0.000000
0.000000 0.350118 0.000000
0.000000 0.345904 0.000000
0.016846 0.341690 0.000000
0.059039 0.337476 0.000000
0.101231 0.333262 0.000000
0.143423 0.329048 0.000000
0.185615 0.324834 0.000000
0.227807 0.320620 0.000000
0.270000 0.316406 0.000000
0.312192 0.312192 0.000000
0.354384 0.307978 0.000000
0.396576 0.303764 0.000000
0.438769 0.299550 0.000000
0.480961 0.295336 0.000000
0.523153 0.291122 0.000000
0.565345 0.286908 0.000000
0.607537 0.282694 0.000000
0.649937 0.278687 0.000000
0.692746 0.275090 0.000000
0.735555 0.271492 0.000000
0.778364 0.267895 0.000000
0.821173 0.264297 0.000000
0.863981 0.260700 0.000000
0.906790 0.257103 0.000000
0.949599 0.253505 0.000000
0.992408 0.249908 0.000000
1.000000 0.246311 0.000000
1.000000 0.242713 0.000000
1.000000 0.239116 0.000000
1.000000 0.235519 0.000000
1.000000 0.231921 0.000000
1.000000 0.228324 0.000000
0.000000 0.392465 0.000000
0.000000 0.388251 0.000000
0.000000 0.384037 0.000000
0.008573 0.379823 0.000000
0.050766 0.375609 0.000000
0.092958 0.371395 0.000000
0.135150 0.367181 0.000000
0.177342 0.362967 0.000000
0.219534 0.358753 0.000000
0.261727 0.354539 0.000000
0.303919 0.350325 0.000000
0.346111 0.346111 0.000000
0.388303 0.341897 0.000000
0.430496 0.337683 0.000000
0.472688 0.333469 0.000000
0.514880 0.329255 0.000000
0.557257 0.325225 0.000000
0.600066 0.321628 0.000000
0.642875 0.318031 0.000000
0.685683 0.314433 0.000000
0.728492 0.310836 0.000000
0.771301 0.307239 0.000000
0.814110 0.303641 0.000000
0.856919 0.300044 0.000000
0.899728 0.296447 0.000000
0.942537 0.292849 0.000000
0.985346 0.289252 0.000000
1.000000 0.285655 0.000000
1.000000 0.282057 0.000000
1.000000 0.278460 0.000000
1.000000 0.274863 0.000000
1.000000 0.271265 0.000000
1.000000 0.267668 0.000000
0.000000 0.430599 0.000000
0.000000 0.426385 0.000000
0.000000 0.422171 0.000000
0.000300 0.417957 0.000000
0.042492 0.413742 0.000000
0.084685 0.409528 0.000000
0.126877 0.405314 0.000000
0.169069 0.401100 0.000000
0.211261 0.396886 0.000000
0.253454 0.392672 0.000000
0.295646 0.388458 0.000000
0.337838 0.384244 0.000000
0.380030 0.380030 0.000000
0.422222 0.375816 0.000000
0.464577 0.371764 0.000000
0.507385 0.368167 0.000000
0.550194 0.364569 0.000000
0.593003 0.360972 0.000000
0.635812 0.357375 0.000000
0.678621 0.353777 0.000000
0.721430 0.350180 0.000000
0.764239 0.346583 0.000000
0.807048 0.342985 0.000000
0.849857 0.339388 0.000000
0.892666 0.335791 0.000000
0.935475 0.332193 0.000000
0.978283 0.328596 0.000000
1.000000 0.324999 0.000000
1.000000 0.321401 0.000000
1.000000 0.317804 0.000000
1.000000 0.314207 0.000000
1.000000 0.310609 0.000000
1.000000 0.307012 0.000000
0.000000 0.468732 0.000000
0.000000 0.464518 0.000000
0.000000 0.460304 0.000000
0.000000 0.456090 0.000000
0.034219 0.451876 0.000000
0.076412 0.447662 0.000000
0.118604 0.443448 0.000000
0.160796 0.439234 0.000000
0.202988 0.435020 0.000000
0.245181 0.430806 0.000000
0.287373 0.426592 0.000000
0.329565 0.422378 0.000000
0.371896 0.418303 0.000000
0.414705 0.414705 0.000000
0.457514 0.411108 0.000000
0.500323 0.407511 0.000000
0.543132 0.403913 0.000000
0.585941 0.400316 0.000000
0.628750 0.396719 0.000000
0.671559 0.393121 0.000000
0.714368 0.389524 0.000000
0.757177 0.385927 0.000000
0.799985 0.382329 0.000000
0.842794 0.378732 0.000000
0.885603 0.375135 0.000000
0.928412 0.371537 0.000000
0.971221 0.367940 0.000000
1.000000 0.364342 0.000000
1.000000 0.360745 0.000000
1.000000 0.357148 0.000000
1.000000 0.353550 0.000000
1.000000 0.349953 0.000000
1.000000 0.346356 0.000000
0.000000 0.506865 0.000000
0.000000 0.502651 0.000000
0.000000 0.498437 0.000000
0.000000 0.494223 0.000000
0.025946 0.490009 0.000000
0.068139 0.485795 0.000000
0.110331 0.481581 0.000000
0.152523 0.477367 0.000000
0.194715 0.473153 0.000000
0.236908 0.468939 0.000000
0.279216 0.464841 0.000000
0.322025 0.461244 0.000000
0.364834 0.457647 0.000000
0.407643 0.454049 0.000000
0.450452 0.450452 0.000000
0.493261 0.446855 0.000000
0.536070 0.443257 0.000000
0.578879 0.439660 0.000000
0.621687 0.436063 0.000000
0.664496 0.432465 0.000000
0.707305 0.428868 0.000000
0.750114 0.425270 0.000000
0.792923 0.421673 0.000000
0.835732 0.418076 0.000000
0.878541 0.414478 0.000000
0.921350 0.410881 0.000000
0.964159 0.407284 0.000000
1.000000 0.403686 0.000000
1.000000 0.400089 0.000000
1.000000 0.396492 0.000000
1.000000 0.392894 0.000000
1.000000 0.389297 0.000000
1.000000 0.385700 0.000000
0.000000 0.544998 0.000000
0.000000 0.540784 0.000000
0.000000 0.536570 0.000000
0.000000 0.532356 0.000000
0.017673 0.528142 0.000000
0.059866 0.523928 0.000000
0.102058 0.519714 0.000000
0.144250 0.515500 0.000000
0.186536 0.511380 0.000000
0.229345 0.507783 0.000000
0.272154 0.504185 0.000000
0.314963 0.500588 0.000000
0.357772 0.496990 0.000000
0.400581 0.493393 0.000000
0.443390 0.489796 0.000000
0.486198 0.486198 0.000000
0.529007 0.482601 0.000000
0.571816 0.479004 0.000000
0.614625 0.475406 0.000000
0.657434 0.471809 0.000000
0.700243 0.468212 0.000000
0.743052 0.464614 0.000000
0.785861 0.461017 0.000000
0.828670 0.457420 0.000000
0.871479 0.453822 0.000000
0.914288 0.450225 0.000000
0.957096 0.446628 0.000000
0.999905 0.443030 0.000000
1.000000 0.439433 0.000000
1.000000 0.435836 0.000000
1.000000 0.432238 0.000000
1.000000 0.428641 0.000000
1.000000 0.425044 0.000000
0.000000 0.583132 0.000000
0.000000 0.578917 0.000000
0.000000 0.574703 0.000000
0.000000 0.570489 0.000000
0.009400 0.566275 0.000000
0.051593 0.562061 0.000000
0.093856 0.557918 0.000000
0.136665 0.554321 0.000000
0.179474 0.550724 0.000000
0.222283 0.547126 0.000000
0.265092 0.543529 0.000000
0.307900 0.539932 0.000000
0.350709 0.536334 0.000000
0.393518 0.532737 0.000000
0.436327 0.529140 0.000000
0.479136 0.525542 0.000000
0.521945 0.521945 0.000000
0.564754 0.518348 0.000000
0.607563 0.514750 0.000000
0.650372 0.511153 0.000000
0.693181 0.507556 0.000000
0.735990 0.503958 0.000000
0.778798 0.500361 0.000000
0.821607 0.496764 0.000000
0.864416 0.493166 0.000000
0.907225 0.489569 0.000000
0.950034 0.485972 0.000000
0.992843 0.482374 0.000000
1.000000 0.478777 0.000000
1.000000 0.475180 0.000000
1.000000 0.471582 0.000000
1.000000 0.467985 0.000000
1.000000 0.464387 0.000000
0.000000 0.621265 0.000000
0.000000 0.617051 0.000000
0.000000 0.612837 0.000000
0.000000 0.608623 0.000000
0.001176 0.604457 0.000000
0.043985 0.600860 0.000000
0.086794 0.597262 0.000000
0.129602 0.593665 0.000000
0.172411 0.590068 0.000000
0.215220 0.586470 0.000000
0.258029 0.582873 0.000000
0.300838 0.579276 0.000000
0.343647 0.575678 0.000000
0.386456 0.572081 0.000000
0.429265 0.568484 0.000000
0.472074 0.564886 0.000000
0.514883 0.561289 0.000000
0.557692 0.557692 0.000000
0.600500 0.554094 0.000000
0.643309 0.550497 0.000000
0.686118 0.546900 0.000000
0.728927 0.543302 0.000000
0.771736 0.539705 0.000000
0.814545 0.536107 0.000000
0.857354 0.532510 0.000000
0.900163 0.528913 0.000000
0.942972 0.525315 0.000000
0.985781 0.521718 0.000000
1.000000 0.518121 0.000000
1.000000 0.514523 0.000000
1.000000 0.510926 0.000000
1.000000 0.507329 0.000000
1.000000 0.503731 0.000000
0.000000 0.659398 0.000000
0.000000 0.655184 0.000000
0.000000 0.650996 0.000000
0.000000 0.647398 0.000000
0.000000 0.643801 0.000000
0.036922 0.640204 0.000000
0.079731 0.636606 0.000000
0.122540 0.633009 0.000000
0.165349 0.629412 0.000000
0.208158 0.625814 0.000000
0.250967 0.622217 0.000000
0.293776 0.618620 0.000000
0.336585 0.615022 0.000000
0.379394 0.611425 0.000000
0.422203 0.607828 0.000000
0.465011 0.604230 0.000000
0.507820 0.600633 0.000000
0.550629 0.597035 0.000000
0.593438 0.593438 0.000000
0.636247 0.589841 0.000000
0.679056 0.586243 0.000000
0.721865 0.582646 0.000000
0.764674 0.579049 0.000000
0.807483 0.575451 0.000000
0.850292 0.571854 0.000000
0.893100 0.568257 0.000000
0.935909 0.564659 0.000000
0.978718 0.561062 0.000000
1.000000 0.557465 0.000000
1.000000 0.553867 0.000000
1.000000 0.550270 0.000000
1.000000 0.546673 0.000000
1.000000 0.543075 0.000000
0.000000 0.697534 0.000000
0.000000 0.693937 0.000000
0.000000 0.690340 0.000000
0.000000 0.686742 0.000000
0.000000 0.683145 0.000000
0.029860 0.679548 0.000000
0.072669 0.675950 0.000000
0.115478 0.672353 0.000000
0.158287 0.668755 0.000000
0.201096 0.665158 0.000000
0.243905 0.661561 0.000000
0.286713 0.657963 0.000000
0.329522 0.654366 0.000000
0.372331 0.650769 0.000000
0.415140 0.647171 0.000000
0.457949 0.643574 0.000000
0.500758 0.639977 0.000000
0.543567 0.636379 0.000000
0.586376 0.632782 0.000000
0.629185 0.629185 0.000000
0.671994 0.625587 0.000000
0.714803 0.621990 0.000000
0.757611 0.618393 0.000000
0.800420 0.614795 0.000000
0.843229 0.611198 0.000000
0.886038 0.607601 0.000000
0.928847 0.604003 0.000000
0.971656 0.600406 0.000000
1.000000 0.596809 0.000000
1.000000 0.593211 0.000000
1.000000 0.589614 0.000000
1.000000 0.586017 0.000000
1.000000 0.582419 0.000000
0.000000 0.736878 0.000000
0.000000 0.733281 0.000000
0.000000 0.729683 0.000000
0.000000 0.726086 0.000000
0.000000 0.722489 0.000000
0.022798 0.718891 0.000000
0.065607 0.715294 0.000000
0.108415 0.711697 0.000000
0.151224 0.708099 0.000000
0.194033 0.704502 0.000000
0.236842 0.700905 0.000000
0.279651 0.697307 0.000000
0.322460 0.693710 0.000000
0.365269 0.690113 0.000000
0.408078 0.686515 0.000000
0.450887 0.682918 0.000000
0.493696 0.679321 0.000000
0.536505 0.675723 0.000000
0.579313 0.672126 0.000000
0.622122 0.668529 0.000000
0.664931 0.664931 0.000000
0.707740 0.661334 0.000000
0.750549 0.657737 0.000000
0.793358 0.654139 0.000000
0.836167 0.650542 0.000000
0.878976 0.646945 0.000000
0.921785 0.643347 0.000000
0.964594 0.639750 0.000000
1.000000 0.636153 0.000000
1.000000 0.632555 0.000000
1.000000 0.628958 0.000000
1.000000 0.625360 0.000000
1.000000 0.621763 0.000000
0.000000 0.776222 0.000000
0.000000 0.772625 0.000000
0.000000 0.769027 0.000000
0.000000 0.765430 0.000000
0.000000 0.761833 0.000000
0.015735 0.758235 0.000000
0.058544 0.754638 0.000000
0.101353 0.751041 0.000000
0.144162 0.747443 0.000000
0.186971 0.743846 0.000000
0.229780 0.740249 0.000000
0.272589 0.736651 0.000000
0.315398 0.733054 0.000000
0.358207 0.729457 0.000000
0.401015 0.725859 0.000000
0.443824 0.722262 0.000000
0.486633 0.718665 0.000000
0.529442 0.715067 0.000000
0.572251 0.711470 0.000000
0.615060 0.707873 0.000000
0.657869 0.704275 0.000000
0.700678 0.700678 0.000000
0.743487 0.697080 0.000000
0.786296 0.693483 0.000000
0.829105 0.689886 0.000000
0.871913 0.686288 0.000000
0.914722 0.682691 0.000000
0.957531 0.679094 0.000000
1.000000 0.675496 0.000000
1.000000 0.671899 0.000000
1.000000 0.668302 0.000000
1.000000 0.664704 0.000000
1.000000 0.660950 0.000000
0.000000 0.815566 0.000000
0.000000 0.811969 0.000000
0.000000 0.808371 0.000000
0.000000 0.804774 0.000000
0.000000 0.801177 0.000000
0.008673 0.797579 0.000000
0.051482 0.793982 0.000000
0.094291 0.790385 0.000000
0.137100 0.786787 0.000000
0.179909 0.783190 0.000000
0.222717 0.779593 0.000000
0.265526 0.775995 0.000000
0.308335 0.772398 0.000000
0.351144 0.768800 0.000000
0.393953 0.765203 0.000000
0.436762 0.761606 0.000000
0.479571 0.758008 0.000000
0.522380 0.754411 0.000000
0.565189 0.750814 0.000000
0.607998 0.747216 0.000000
0.650807 0.743619 0.000000
0.693615 0.740022 0.000000
0.736424 0.736424 0.000000
0.779233 0.732827 0.000000
0.822042 0.729230 0.000000
0.864851 0.725632 0.000000
0.907660 0.722035 0.000000
0.950469 0.718438 0.000000
0.993278 0.714840 0.000000
1.000000 0.711243 0.000000
1.000000 0.707502 0.000000
1.000000 0.703254 0.000000
1.000000 0.699012 0.000000
0.000000 0.854910 0.000000
0.000000 0.851312 0.000000
0.000000 0.847715 0.000000
0.000000 0.844118 0.000000
0.000000 0.840520 0.000000
0.001611 0.836923 0.000000
0.044420 0.833326 0.000000
0.087228 0.829728 0.000000
0.130037 0.826131 0.000000
0.172846 0.822534 0.000000
0.215655 0.818936 0.000000
0.258464 0.815339 0.000000
0.301273 0.811742 0.000000
0.344082 0.808144 0.000000
0.386891 0.804547 0.000000
0.429700 0.800950 0.000000
0.472509 0.797352 0.000000
0.515317 0.793755 0.000000
0.558126 0.790158 0.000000
0.600935 0.786560 0.000000
0.643744 0.782963 0.000000
0.686553 0.779366 0.000000
0.729362 0.775768 0.000000
0.772171 0.772171 0.000000
0.814980 0.768574 0.000000
0.857789 0.764976 0.000000
0.900598 0.761379 0.000000
0.943407 0.757782 0.000000
0.986048 0.754056 0.000000
1.000000 0.749765 0.000000
1.000000 0.745481 0.000000
1.000000 0.741203 0.000000
1.000000 0.736932 0.000000
0.000000 0.894254 0.000000
0.000000 0.890656 0.000000
0.000000 0.887059 0.000000
0.000000 0.883462 0.000000
0.000000 0.879864 0.000000
0.000000 0.876267 0.000000
0.037357 0.872670 0.000000
0.080166 0.869072 0.000000
0.122975 0.865475 0.000000
0.165784 0.861878 0.000000
0.208593 0.858280 0.000000
0.251402 0.854683 0.000000
0.294211 0.851086 0.000000
0.337020 0.847488 0.000000
0.379828 0.843891 0.000000
0.422637 0.840294 0.000000
0.465446 0.836696 0.000000
0.508255 0.833099 0.000000
0.551064 0.829502 0.000000
0.593873 0.825904 0.000000
0.636682 0.822307 0.000000
0.679491 0.818710 0.000000
0.722300 0.815112 0.000000
0.765109 0.811515 0.000000
0.807918 0.807918 0.000000
0.850726 0.804320 0.000000
0.893414 0.800614 0.000000
0.935351 0.796280 0.000000
0.977209 0.791952 0.000000
1.000000 0.787632 0.000000
1.000000 0.783317 0.000000
1.000000 0.779010 0.000000
1.000000 0.774709 0.000000
0.000000 0.933598 0.000000
0.000000 0.930000 0.000000
0.000000 0.926403 0.000000
0.000000 0.922806 0.000000
0.000000 0.919208 0.000000
0.000000 0.915611 0.000000
0.030295 0.912014 0.000000
0.073104 0.908416 0.000000
0.115913 0.904819 0.000000
0.158722 0.901222 0.000000
0.201530 0.897624 0.000000
0.244339 0.894027 0.000000
0.287148 0.890430 0.000000
0.329957 0.886832 0.000000
0.372766 0.883235 0.000000
0.415575 0.879638 0.000000
0.458384 0.876040 0.000000
0.501193 0.872443 0.000000
0.544002 0.868845 0.000000
0.586811 0.865248 0.000000
0.629620 0.861651 0.000000
0.672428 0.858053 0.000000
0.715237 0.854456 0.000000
0.758046 0.850859 0.000000
0.800774 0.847175 0.000000
0.842798 0.842798 0.000000
0.884743 0.838427 0.000000
0.926609 0.834063 0.000000
0.968395 0.829706 0.000000
1.000000 0.825355 0.000000
1.000000 0.821011 0.000000
1.000000 0.816673 0.000000
1.000000 0.812343 0.000000
0.000000 0.972942 0.000000
0.000000 0.969344 0.000000
0.000000 0.965747 0.000000
0.000000 0.962150 0.000000
0.000000 0.958552 0.000000
0.000000 0.954955 0.000000
0.023232 0.951358 0.000000
0.066041 0.947760 0.000000
0.108850 0.944163 0.000000
0.151659 0.940565 0.000000
0.194468 0.936968 0.000000
0.237277 0.933371 0.000000
0.280086 0.929773 0.000000
0.322895 0.926176 0.000000
0.365704 0.922579 0.000000
0.408513 0.918981 0.000000
0.451322 0.915384 0.000000
0.494130 0.911787 0.000000
0.536939 0.908189 0.000000
0.579748 0.904592 0.000000
0.622557 0.900995 0.000000
0.665366 0.897397 0.000000
0.708127 0.893740 0.000000
0.750239 0.889319 0.000000
0.792271 0.884905 0.000000
0.834224 0.880498 0.000000
0.876097 0.876097 0.000000
0.917892 0.871703 0.000000
0.959607 0.867316 0.000000
