assets/luts/vivid.cube
TITLE "vivid"
LUT_3D_SIZE 9
0.000000 0.000000 0.000000
0.141236 0.000000 0.000000
0.310538 0.000000 0.000000
0.479307 0.000000 0.000000
0.648076 0.000000 0.000000
0.816844 0.000000 0.000000
0.985613 0.000000 0.000000
1.000000 0.000000 0.000000
1.000000 0.000000 0.000000
0.000000 0.125533 0.000000
0.108677 0.108677 0.000000
0.277446 0.091821 0.000000
0.446215 0.074964 0.000000
0.614983 0.058108 0.000000
0.783752 0.041252 0.000000
0.952521 0.024396 0.000000
1.000000 0.007540 0.000000
1.000000 0.000000 0.000000
0.000000 0.278066 0.000000
0.075585 0.261210 0.000000
0.244353 0.244353 0.000000
0.413122 0.227497 0.000000
0.581891 0.210641 0.000000
0.750660 0.193785 0.000000
0.920915 0.178415 0.000000
1.000000 0.164026 0.000000
1.000000 0.149636 0.000000
0.000000 0.430599 0.000000
0.042492 0.413742 0.000000
0.211261 0.396886 0.000000
0.380030 0.380030 0.000000
0.550194 0.364569 0.000000
0.721430 0.350180 0.000000
0.892666 0.335791 0.000000
1.000000 0.321401 0.000000
1.000000 0.307012 0.000000
0.000000 0.583132 0.000000
0.009400 0.566275 0.000000
0.179474 0.550724 0.000000
0.350709 0.536334 0.000000
0.521945 0.521945 0.000000
0.693181 0.507556 0.000000
0.864416 0.493166 0.000000
1.000000 0.478777 0.000000
1.000000 0.464387 0.000000
0.000000 0.736878 0.000000
0.000000 0.722489 0.000000
0.151224 0.708099 0.000000
0.322460 0.693710 0.000000
0.493696 0.679321 0.000000
0.664931 0.664931 0.000000
0.836167 0.650542 0.000000
1.000000 0.636153 0.000000
1.000000 0.621763 0.000000
0.000000 0.894254 0.000000
0.000000 0.879864 0.000000
0.122975 0.865475 0.000000
0.294211 0.851086 0.000000
0.465446 0.836696 0.000000
0.636682 0.822307 0.000000
0.807918 0.807918 0.000000
0.977209 0.791952 0.000000
1.000000 0.774709 0.000000
0.000000 1.000000 0.000000
0.000000 1.000000 0.000000
0.094726 1.000000 0.000000
0.265961 1.000000 0.000000
0.437197 0.994072 0.000000
0.607307 0.977871 0.000000
0.775341 0.959936 0.000000
0.942108 0.942108 0.000000
1.000000 0.924387 0.000000
0.000000 1.000000 0.000000
0.000000 1.000000 0.000000
0.066476 1.000000 0.000000
0.237305 1.000000 0.000000
0.406734 1.000000 0.000000
0.574896 1.000000 0.000000
0.741790 1.000000 0.000000
0.907418 1.000000 0.000000
1.000000 1.000000 0.000000
0.000000 0.000000 0.150139
0.135342 0.000000 0.135342
0.304111 0.000000 0.118486
0.472880 0.000000 0.101630
0.641649 0.000000 0.084774
0.810418 0.000000 0.067918
0.979187 0.000000 0.051061
1.000000 0.000000 0.034205
1.000000 0.000000 0.017349
0.000000 0.119106 0.119106
0.102250 0.102250 0.102250
0.271019 0.085394 0.085394
0.439788 0.068538 0.068538
0.608557 0.051682 0.051682
0.777326 0.034825 0.034825
0.946094 0.017969 0.017969
1.000000 0.001164 0.001164
1.000000 0.000000 0.000000
0.000000 0.271639 0.086014
0.069158 0.254783 0.069158
0.237927 0.237927 0.052302
0.406696 0.221071 0.035446
0.575465 0.204214 0.018589
0.744233 0.187358 0.001733
0.915429 0.172929 0.000000
1.000000 0.158539 0.000000
1.000000 0.144150 0.000000
0.000000 0.424172 0.052922
0.036066 0.407316 0.036066
0.204835 0.390460 0.019210
0.373603 0.373603 0.002353
0.544708 0.359083 0.000000
0.715944 0.344694 0.000000
0.887179 0.330304 0.000000
1.000000 0.315915 0.000000
1.000000 0.301526 0.000000
0.000000 0.576705 0.019830
0.002974 0.559849 0.002974
0.173987 0.545238 0.000000
0.345223 0.530848 0.000000
0.516459 0.516459 0.000000
0.687694 0.502069 0.000000
0.858930 0.487680 0.000000
1.000000 0.473291 0.000000
1.000000 0.458901 0.000000
0.000000 0.731392 0.000000
0.000000 0.717003 0.000000
0.145738 0.702613 0.000000
0.316974 0.688224 0.000000
0.488209 0.673834 0.000000
0.659445 0.659445 0.000000
0.830681 0.645056 0.000000
1.000000 0.630666 0.000000
1.000000 0.616277 0.000000
0.000000 0.888768 0.000000
0.000000 0.874378 0.000000
0.117489 0.859989 0.000000
0.288724 0.845599 0.000000
0.459960 0.831210 0.000000
0.631196 0.816821 0.000000
0.802431 0.802431 0.000000
0.970360 0.785365 0.000000
1.000000 0.768162 0.000000
0.000000 1.000000 0.000000
0.000000 1.000000 0.000000
0.089239 1.000000 0.000000
0.260475 1.000000 0.000000
0.431711 0.988586 0.000000
0.600980 0.971020 0.000000
0.768793 0.953126 0.000000
0.935339 0.935339 0.000000
1.000000 0.917658 0.000000
0.000000 1.000000 0.000000
0.000000 1.000000 0.000000
0.060990 1.000000 0.000000
0.231500 1.000000 0.000000
0.400708 1.000000 0.000000
0.568649 1.000000 0.000000
0.735322 1.000000 0.000000
0.900728 1.000000 0.000000
1.000000 1.000000 0.000000
0.000000 0.000000 0.330278
0.128915 0.000000 0.314540
0.297684 0.000000 0.297684
0.466453 0.000000 0.280828
0.635222 0.000000 0.263972
0.803991 0.000000 0.247116
0.972760 0.000000 0.230260
1.000000 0.000000 0.213404
1.000000 0.000000 0.196547
0.000000 0.112679 0.298304
0.095823 0.095823 0.281448
0.264592 0.078967 0.264592
0.433361 0.062111 0.247736
0.602130 0.045255 0.230880
0.770899 0.028399 0.214024
0.939668 0.011543 0.197168
1.000000 0.000000 0.181302
1.000000 0.000000 0.166913
0.000000 0.265212 0.265212
0.062731 0.248356 0.248356
0.231500 0.231500 0.231500
0.400269 0.214644 0.214644
0.569038 0.197788 0.197788
0.738707 0.181832 0.181832
0.909943 0.167442 0.167442
1.000000 0.153053 0.153053
1.000000 0.138664 0.138664
0.000000 0.417745 0.232120
0.029639 0.400889 0.215264
0.198408 0.384033 0.198408
0.367986 0.367986 0.182361
0.539222 0.353597 0.167972
0.710457 0.339207 0.153582
0.881693 0.324818 0.139193
1.000000 0.310429 0.124804
1.000000 0.296039 0.110414
0.000000 0.570278 0.199028
0.000000 0.554141 0.182891
0.168501 0.539751 0.168501
0.339737 0.525362 0.154112
0.510973 0.510973 0.139722
0.682208 0.496583 0.125333
0.853444 0.482194 0.110944
1.000000 0.467804 0.096554
1.000000 0.453415 0.082165
0.000000 0.725906 0.169031
0.000000 0.711516 0.154641
0.140252 0.697127 0.140252
0.311487 0.682738 0.125862
0.482723 0.668348 0.111473
0.653959 0.653959 0.097084
0.825194 0.639569 0.082694
0.996430 0.625180 0.068305
1.000000 0.610031 0.053849
0.000000 0.883281 0.140781
0.000000 0.868892 0.126392
0.112002 0.854503 0.112002
0.283238 0.840113 0.097613
0.454474 0.825724 0.083224
0.625709 0.811334 0.068834
0.796063 0.796063 0.054385
0.963526 0.778794 0.039863
1.000000 0.761631 0.025448
0.000000 1.000000 0.112532
0.000000 1.000000 0.098142
0.083753 1.000000 0.083753
0.254989 0.997489 0.069364
0.425811 0.982145 0.054921
0.594669 0.964185 0.040395
0.762261 0.946332 0.025976
0.928585 0.928585 0.011664
1.000000 0.910945 0.000000
0.000000 1.000000 0.084282
0.000000 1.000000 0.069893
0.055457 1.000000 0.055457
0.225711 1.000000 0.040928
0.394698 1.000000 0.026505
0.562417 1.000000 0.012188
0.728869 1.000000 0.000000
0.894054 1.000000 0.000000
1.000000 1.000000 0.000000
0.000000 0.000000 0.510416
0.122489 0.000000 0.493739
0.291258 0.000000 0.476883
0.460026 0.000000 0.460026
0.628795 0.000000 0.443170
0.797564 0.000000 0.426314
0.966333 0.000000 0.409458
1.000000 0.000000 0.392602
1.000000 0.000000 0.375746
0.000000 0.106253 0.477503
0.089396 0.089396 0.460647
0.258165 0.072540 0.443790
0.426934 0.055684 0.426934
0.595703 0.038828 0.410078
0.764472 0.021972 0.393222
0.933241 0.005116 0.376366
1.000000 0.000000 0.361441
1.000000 0.000000 0.347052
0.000000 0.258786 0.444411
0.056304 0.241929 0.427554
0.225073 0.225073 0.410698
0.393842 0.208217 0.393842
0.562611 0.191361 0.376986
0.733221 0.176346 0.361971
0.904456 0.161956 0.347581
1.000000 0.147567 0.333192
1.000000 0.133177 0.318802
0.000000 0.411318 0.411318
0.023212 0.394462 0.394462
0.191981 0.377606 0.377606
0.362500 0.362500 0.362500
0.533736 0.348111 0.348111
0.704971 0.333721 0.333721
0.876207 0.319332 0.319332
1.000000 0.304943 0.304943
1.000000 0.290553 0.290553
0.000000 0.563851 0.378226
0.000000 0.548654 0.363029
0.163015 0.534265 0.348640
0.334251 0.519876 0.334251
0.505486 0.505486 0.319861
0.676722 0.491097 0.305472
0.847958 0.476708 0.291083
1.000000 0.462318 0.276693
1.000000 0.447929 0.262304
0.000000 0.720419 0.349169
0.000000 0.706030 0.334780
0.134766 0.691641 0.320391
0.306001 0.677251 0.306001
0.477237 0.662862 0.291612
0.648473 0.648473 0.277222
0.819708 0.634083 0.262833
0.990944 0.619694 0.248444
1.000000 0.603698 0.233433
0.000000 0.877795 0.320920
0.000000 0.863406 0.306531
0.106516 0.849016 0.292141
0.277752 0.834627 0.277752
0.448987 0.820238 0.263362
0.620223 0.805848 0.248973
0.789466 0.789466 0.233993
0.956708 0.772238 0.218825
1.000000 0.755116 0.203764
0.000000 1.000000 0.292671
0.000000 1.000000 0.278281
0.078267 1.000000 0.263892
0.249502 0.992003 0.249502
0.419736 0.975285 0.234553
0.588374 0.957366 0.219381
0.755744 0.939553 0.204316
0.921847 0.921847 0.189357
1.000000 0.904247 0.174505
0.000000 1.000000 0.264421
0.000000 1.000000 0.250032
0.049905 1.000000 0.235113
0.219938 1.000000 0.219938
0.388703 1.000000 0.204868
0.556201 1.000000 0.189906
0.722432 1.000000 0.175049
0.887396 1.000000 0.160300
1.000000 1.000000 0.145656
0.000000 0.000000 0.689793
0.116062 0.000000 0.672937
0.284831 0.000000 0.656081
0.453600 0.000000 0.639225
0.622368 0.000000 0.622368
0.791137 0.000000 0.605512
0.959906 0.000000 0.588656
1.000000 0.000000 0.571800
1.000000 0.000000 0.555440
0.000000 0.099826 0.656701
0.082970 0.082970 0.639845
0.251739 0.066114 0.622989
0.420508 0.049257 0.606132
0.589276 0.032401 0.589276
0.758045 0.015545 0.572420
0.927219 0.000000 0.555969
1.000000 0.000000 0.541580
1.000000 0.000000 0.527191
0.000000 0.252359 0.623609
0.049878 0.235503 0.606753
0.218647 0.218647 0.589897
0.387415 0.201790 0.573040
0.556499 0.185249 0.556499
0.727734 0.170859 0.542109
0.898970 0.156470 0.527720
1.000000 0.142081 0.513331
1.000000 0.127691 0.498941
0.000000 0.404892 0.590517
0.016785 0.388035 0.573661
0.185778 0.371403 0.557028
0.357014 0.357014 0.542639
0.528249 0.342624 0.528249
0.699485 0.328235 0.513860
0.870721 0.313846 0.499471
1.000000 0.299456 0.485081
1.000000 0.285067 0.470692
0.000000 0.557557 0.557557
0.000000 0.543168 0.543168
0.157529 0.528779 0.528779
0.328764 0.514389 0.514389
0.500000 0.500000 0.500000
0.671236 0.485611 0.485611
0.842471 0.471221 0.471221
1.000000 0.456832 0.456832
1.000000 0.442442 0.442442
0.000000 0.714933 0.529308
0.000000 0.700544 0.514919
0.129279 0.686154 0.500529
0.300515 0.671765 0.486140
0.471751 0.657376 0.471751
0.642986 0.642986 0.457361
0.814222 0.628597 0.442972
0.985098 0.613984 0.428426
1.000000 0.597380 0.412510
0.000000 0.872309 0.501059
0.000000 0.857919 0.486669
0.101030 0.843530 0.472280
0.272266 0.829141 0.457891
0.443501 0.814751 0.443501
0.614596 0.800179 0.429014
0.782885 0.782885 0.413093
0.949906 0.765697 0.397279
1.000000 0.748616 0.381571
0.000000 1.000000 0.472809
0.000000 1.000000 0.458420
0.072781 1.000000 0.444031
0.243994 0.986425 0.429602
0.413677 0.968440 0.413677
0.582093 0.950562 0.397859
0.749242 0.932790 0.382147
0.915124 0.915124 0.366542
1.000000 0.897565 0.351044
0.000000 1.000000 0.444560
0.000000 1.000000 0.430171
0.044368 1.000000 0.414261
0.214180 1.000000 0.398439
0.382724 1.000000 0.382724
0.550000 1.000000 0.367115
0.716010 1.000000 0.351612
0.880752 1.000000 0.336216
1.000000 1.000000 0.320927
0.000000 0.000000 0.868991
0.109635 0.000000 0.852135
0.278404 0.000000 0.835279
0.447173 0.000000 0.818423
0.615942 0.000000 0.801567
0.784711 0.000000 0.784711
0.953480 0.000000 0.767854
1.000000 0.000000 0.750998
1.000000 0.000000 0.735579
0.000000 0.093399 0.835899
0.076543 0.076543 0.819043
0.245312 0.059687 0.802187
0.414081 0.042831 0.785331
0.582850 0.025975 0.768475
0.751619 0.009118 0.751619
0.921733 0.000000 0.736108
1.000000 0.000000 0.721719
1.000000 0.000000 0.707329
0.000000 0.245932 0.802807
0.043451 0.229076 0.785951
0.212220 0.212220 0.769095
0.380989 0.195364 0.752239
0.551013 0.179762 0.736638
0.722248 0.165373 0.722248
0.893484 0.150984 0.707859
1.000000 0.136594 0.693469
1.000000 0.122205 0.679080
0.000000 0.398465 0.769715
0.010359 0.381609 0.752859
0.180292 0.365917 0.737167
0.351527 0.351527 0.722778
0.522763 0.337138 0.708388
0.693999 0.322749 0.693999
0.865234 0.308359 0.679609
1.000000 0.293970 0.665220
1.000000 0.279581 0.650831
0.000000 0.552071 0.737696
0.000000 0.537682 0.723307
0.152042 0.523292 0.708918
0.323278 0.508903 0.694528
0.494514 0.494514 0.680139
0.665749 0.480124 0.665749
0.836985 0.465735 0.651360
1.000000 0.451346 0.636971
1.000000 0.436956 0.622581
0.000000 0.709447 0.709447
0.000000 0.695058 0.695058
0.123793 0.680668 0.680668
0.295029 0.666279 0.666279
0.466264 0.651889 0.651889
0.637500 0.637500 0.637500
0.808736 0.623111 0.623111
0.978232 0.607641 0.607641
1.000000 0.591078 0.591078
0.000000 0.866823 0.681198
0.000000 0.852433 0.666808
0.095544 0.838044 0.652419
0.266779 0.823654 0.638029
0.438015 0.809265 0.623640
0.608252 0.793573 0.608252
0.776319 0.776319 0.591685
0.943119 0.759172 0.575225
1.000000 0.742131 0.558871
0.000000 1.000000 0.652948
0.000000 1.000000 0.638559
0.067294 0.995419 0.624169
0.238171 0.979556 0.608864
0.407634 0.961611 0.592293
0.575828 0.943773 0.575828
0.742756 0.926042 0.559471
0.908417 0.908417 0.543219
1.000000 0.890898 0.527075
0.000000 1.000000 0.624699
0.000000 1.000000 0.609475
0.038847 1.000000 0.592900
0.208437 1.000000 0.576432
0.376760 1.000000 0.560071
0.543815 1.000000 0.543815
0.709604 1.000000 0.527667
0.874125 1.000000 0.511624
1.000000 1.000000 0.495689
0.000000 0.000000 1.000000
0.103208 0.000000 1.000000
0.271977 0.000000 1.000000
0.440746 0.000000 0.997621
0.609515 0.000000 0.980765
0.778284 0.000000 0.963909
0.947053 0.000000 0.947053
1.000000 0.000000 0.930197
1.000000 0.000000 0.915718
0.000000 0.086972 1.000000
0.070116 0.070116 0.998241
0.238885 0.053260 0.981385
0.407654 0.036404 0.964529
0.576423 0.019548 0.947673
0.745192 0.002692 0.930817
0.916247 0.000000 0.916247
1.000000 0.000000 0.901857
1.000000 0.000000 0.887468
0.000000 0.239505 0.982005
0.037024 0.222649 0.965149
0.205793 0.205793 0.948293
0.374562 0.188937 0.931437
0.545526 0.174276 0.916776
0.716762 0.159887 0.902387
0.887997 0.145497 0.887997
1.000000 0.131108 0.873608
1.000000 0.116719 0.859219
0.000000 0.392038 0.948913
0.003932 0.375182 0.932057
0.174806 0.360431 0.917306
0.346041 0.346041 0.902916
0.517277 0.331652 0.888527
0.688513 0.317263 0.874138
0.859748 0.302873 0.859748
1.000000 0.288484 0.845359
1.000000 0.274094 0.830969
0.000000 0.546585 0.917835
0.000000 0.532196 0.903446
0.146556 0.517806 0.889056
0.317792 0.503417 0.874667
0.489028 0.489028 0.860278
0.660263 0.474638 0.845888
0.831499 0.460249 0.831499
1.000000 0.445859 0.817109
1.000000 0.431470 0.802720
0.000000 0.703961 0.889586
0.000000 0.689571 0.875196
0.118307 0.675182 0.860807
0.289542 0.660792 0.846418
0.460778 0.646403 0.832028
0.632014 0.632014 0.817639
0.803249 0.617624 0.803249
0.971380 0.601313 0.786347
1.000000 0.584791 0.769138
0.000000 0.861336 0.861336
0.000000 0.846947 0.846947
0.090057 0.832557 0.832557
0.261293 0.818168 0.818168
0.432529 0.803779 0.803779
0.601923 0.786982 0.786982
0.769769 0.769769 0.769769
0.936347 0.752662 0.752662
1.000000 0.735662 0.735662
0.000000 1.000000 0.833087
0.000000 1.000000 0.818698
0.061808 0.989933 0.804308
0.232365 0.972701 0.787617
0.401606 0.954797 0.770400
0.569579 0.937000 0.753290
0.736286 0.919309 0.736286
0.901725 0.901725 0.719388
1.000000 0.884247 0.702597
0.000000 1.000000 0.804838
0.000000 1.000000 0.788253
0.033341 1.000000 0.771032
0.202710 1.000000 0.753917
0.370811 1.000000 0.736909
0.537646 1.000000 0.720008
0.703213 1.000000 0.703213
0.867513 1.000000 0.686524
1.000000 1.000000 0.669942
0.000000 0.000000 1.000000
0.096782 0.000000 1.000000
0.265551 0.000000 1.000000
0.434319 0.000000 1.000000
0.603088 0.000000 1.000000
0.771857 0.000000 1.000000
0.940626 0.000000 1.000000
1.000000 0.000000 1.000000
1.000000 0.000000 1.000000
0.000000 0.080546 1.000000
0.063689 0.063689 1.000000
0.232458 0.046833 1.000000
0.401227 0.029977 1.000000
0.569996 0.013121 1.000000
0.739525 0.000000 1.000000
0.910761 0.000000 1.000000
1.000000 0.000000 1.000000
1.000000 0.000000 1.000000
0.000000 0.233078 1.000000
0.030597 0.216222 1.000000
0.199366 0.199366 1.000000
0.368804 0.183179 1.000000
0.540040 0.168790 1.000000
0.711276 0.154401 1.000000
0.882511 0.140011 1.000000
1.000000 0.125622 1.000000
1.000000 0.111232 1.000000
0.000000 0.385611 1.000000
0.000000 0.369334 1.000000
0.169319 0.354944 1.000000
0.340555 0.340555 1.000000
0.511791 0.326166 1.000000
0.683026 0.311776 1.000000
0.854262 0.297387 1.000000
1.000000 0.282997 1.000000
1.000000 0.268608 1.000000
0.000000 0.541099 1.000000
0.000000 0.526709 1.000000
0.141070 0.512320 1.000000
0.312306 0.497931 1.000000
0.483541 0.483541 1.000000
0.654777 0.469152 1.000000
0.826013 0.454763 1.000000
0.997248 0.440373 0.997248
1.000000 0.425544 0.981844
0.000000 0.698474 1.000000
0.000000 0.684085 1.000000
0.112821 0.669696 1.000000
0.284056 0.655306 1.000000
0.455292 0.640917 1.000000
0.626528 0.626528 0.997778
0.797048 0.611589 0.982506
0.964545 0.595001 0.964545
1.000000 0.578519 0.946689
0.000000 0.855850 1.000000
0.000000 0.841461 1.000000
0.084571 0.827071 1.000000
0.255807 0.812682 0.998307
0.426718 0.797685 0.983169
0.595609 0.780406 0.965203
0.763234 0.763234 0.947344
0.929591 0.746168 0.929591
1.000000 0.729208 0.911945
0.000000 1.000000 1.000000
0.000000 0.998836 0.998836
0.056287 0.983832 0.983832
0.226573 0.965862 0.965862
0.395593 0.947999 0.947999
0.563345 0.930242 0.930242
0.729830 0.912592 0.912592
0.895048 0.895048 0.895048
1.000000 0.877611 0.877611
0.000000 1.000000 0.984495
0.000000 1.000000 0.966522
0.027851 1.000000 0.948655
0.196998 1.000000 0.930894
0.364879 1.000000 0.913240
0.531492 1.000000 0.895692
0.696837 1.000000 0.878251
0.860916 1.000000 0.860916
1.000000 1.000000 0.843765
0.000000 0.000000 1.000000
0.090355 0.000000 1.000000
0.259124 0.000000 1.000000
0.427893 0.000000 1.000000
0.596662 0.000000 1.000000
0.765430 0.000000 1.000000
0.934199 0.000000 1.000000
1.000000 0.000000 1.000000
1.000000 0.000000 1.000000
0.000000 0.074119 1.000000
0.057263 0.057263 1.000000
0.226032 0.040407 1.000000
0.394800 0.023550 1.000000
0.563569 0.006694 1.000000
0.734039 0.000000 1.000000
0.905274 0.000000 1.000000
1.000000 0.000000 1.000000
1.000000 0.000000 1.000000
0.000000 0.226652 1.000000
0.024171 0.209796 1.000000
0.192939 0.192939 1.000000
0.363318 0.177693 1.000000
0.534554 0.163304 1.000000
0.705789 0.148914 1.000000
0.877025 0.134525 1.000000
1.000000 0.120136 1.000000
1.000000 0.105746 1.000000
0.000000 0.379185 1.000000
0.000000 0.363847 1.000000
0.163833 0.349458 1.000000
0.335069 0.335069 1.000000
0.506304 0.320679 1.000000
0.677540 0.306290 1.000000
0.848776 0.291901 1.000000
1.000000 0.277511 1.000000
1.000000 0.263122 1.000000
0.000000 0.535613 1.000000
0.000000 0.521223 1.000000
0.135584 0.506834 1.000000
0.306819 0.492444 1.000000
0.478055 0.478055 1.000000
0.649291 0.463666 1.000000
0.820526 0.449276 1.000000
0.991762 0.434887 1.000000
1.000000 0.419470 1.000000
0.000000 0.692988 1.000000
0.000000 0.678599 1.000000
0.107334 0.664209 1.000000
0.278570 0.649820 1.000000
0.449806 0.635431 1.000000
0.621041 0.621041 1.000000
0.790449 0.605252 1.000000
0.957724 0.588704 1.000000
1.000000 0.572263 1.000000
0.000000 0.850364 1.000000
0.000000 0.835974 1.000000
0.079085 0.821585 1.000000
0.250321 0.807196 1.000000
0.420641 0.791085 1.000000
0.589311 0.773846 1.000000
0.756715 0.756715 1.000000
0.922851 0.739689 1.000000
1.000000 0.722770 1.000000
0.000000 1.000000 1.000000
0.000000 0.993350 1.000000
0.050732 0.976968 1.000000
0.220798 0.959039 1.000000
0.389596 0.941217 1.000000
0.557127 0.923500 1.000000
0.723391 0.905891 1.000000
0.888388 0.888388 1.000000
1.000000 0.870991 1.000000
0.000000 1.000000 1.000000
0.000000 1.000000 1.000000
0.022376 1.000000 1.000000
0.191302 1.000000 1.000000
0.358961 1.000000 1.000000
0.525353 1.000000 1.000000
0.690477 1.000000 1.000000
0.854335 1.000000 1.000000
1.000000 1.000000 1.000000
