assets/luts/vivid.cube
TITLE "vivid"
LUT_3D_SIZE 5
0.000000 0.000000 0.000000
0.310538 0.000000 0.000000
0.648076 0.000000 0.000000
0.985613 0.000000 0.000000
1.000000 0.000000 0.000000
0.000000 0.278066 0.000000
0.244353 0.244353 0.000000
0.581891 0.210641 0.000000
0.920915 0.178415 0.000000
1.000000 0.149636 0.000000
0.000000 0.583132 0.000000
0.179474 0.550724 0.000000
0.521945 0.521945 0.000000
0.864416 0.493166 0.000000
1.000000 0.464387 0.000000
0.000000 0.894254 0.000000
0.122975 0.865475 0.000000
0.465446 0.836696 0.000000
0.807918 0.807918 0.000000
1.000000 0.774709 0.000000
0.000000 1.000000 0.000000
0.066476 1.000000 0.000000
0.406734 1.000000 0.000000
0.741790 1.000000 0.000000
1.000000 1.000000 0.000000
0.000000 0.000000 0.330278
0.297684 0.000000 0.297684
0.635222 0.000000 0.263972
0.972760 0.000000 0.230260
1.000000 0.000000 0.196547
0.000000 0.265212 0.265212
0.231500 0.231500 0.231500
0.569038 0.197788 0.197788
0.909943 0.167442 0.167442
1.000000 0.138664 0.138664
0.000000 0.570278 0.199028
0.168501 0.539751 0.168501
0.510973 0.510973 0.139722
0.853444 0.482194 0.110944
1.000000 0.453415 0.082165
0.000000 0.883281 0.140781
0.112002 0.854503 0.112002
0.454474 0.825724 0.083224
0.796063 0.796063 0.054385
1.000000 0.761631 0.025448
0.000000 1.000000 0.084282
0.055457 1.000000 0.055457
0.394698 1.000000 0.026505
0.728869 1.000000 0.000000
1.000000 1.000000 0.000000
0.000000 0.000000 0.689793
0.284831 0.000000 0.656081
0.622368 0.000000 0.622368
0.959906 0.000000 0.588656
1.000000 0.000000 0.555440
0.000000 0.252359 0.623609
0.218647 0.218647 0.589897
0.556499 0.185249 0.556499
0.898970 0.156470 0.527720
1.000000 0.127691 0.498941
0.000000 0.557557 0.557557
0.157529 0.528779 0.528779
0.500000 0.500000 0.500000
0.842471 0.471221 0.471221
1.000000 0.442442 0.442442
0.000000 0.872309 0.501059
0.101030 0.843530 0.472280
0.443501 0.814751 0.443501
0.782885 0.782885 0.413093
1.000000 0.748616 0.381571
0.000000 1.000000 0.444560
0.044368 1.000000 0.414261
0.382724 1.000000 0.382724
0.716010 1.000000 0.351612
1.000000 1.000000 0.320927
0.000000 0.000000 1.000000
0.271977 0.000000 1.000000
0.609515 0.000000 0.980765
0.947053 0.000000 0.947053
1.000000 0.000000 0.915718
0.000000 0.239505 0.982005
0.205793 0.205793 0.948293
0.545526 0.174276 0.916776
0.887997 0.145497 0.887997
1.000000 0.116719 0.859219
0.000000 0.546585 0.917835
0.146556 0.517806 0.889056
0.489028 0.489028 0.860278
0.831499 0.460249 0.831499
1.000000 0.431470 0.802720
0.000000 0.861336 0.861336
0.090057 0.832557 0.832557
0.432529 0.803779 0.803779
0.769769 0.769769 0.769769
1.000000 0.735662 0.735662
0.000000 1.000000 0.804838
0.033341 1.000000 0.771032
0.370811 1.000000 0.736909
0.703213 1.000000 0.703213
1.000000 1.000000 0.669942
0.000000 0.000000 1.000000
0.259124 0.000000 1.000000
0.596662 0.000000 1.000000
0.934199 0.000000 1.000000
1.000000 0.000000 1.000000
0.000000 0.226652 1.000000
0.192939 0.192939 1.000000
0.534554 0.163304 1.000000
0.877025 0.134525 1.000000
1.000000 0.105746 1.000000
0.000000 0.535613 1.000000
0.135584 0.506834 1.000000
0.478055 0.478055 1.000000
0.820526 0.449276 1.000000
1.000000 0.419470 1.000000
0.000000 0.850364 1.000000
0.079085 0.821585 1.000000
0.420641 0.791085 1.000000
0.756715 0.756715 1.000000
1.000000 0.722770 1.000000
0.000000 1.000000 1.000000
0.022376 1.000000 1.000000
0.358961 1.000000 1.000000
0.690477 1.000000 1.000000
1.000000 1.000000 1.000000
