assets/luts/winter.cube
TITLE "winter"
LUT_3D_SIZE 5
0.000000 0.026000 0.078500
0.212786 0.031661 0.084161
0.440620 0.036370 0.088870
0.668454 0.041079 0.093579
0.896289 0.045789 0.098289
0.000000 0.259322 0.088697
0.222031 0.264031 0.093406
0.449865 0.268740 0.098115
0.681807 0.277558 0.106933
0.916706 0.289331 0.118706
0.003442 0.491692 0.097942
0.235124 0.500249 0.106499
0.470023 0.512022 0.118273
0.704921 0.523796 0.130046
0.939819 0.535569 0.141819
0.023339 0.734714 0.117839
0.258238 0.746487 0.129613
0.493136 0.758261 0.141386
0.728034 0.770034 0.153159
0.957243 0.777188 0.163958
0.046453 0.980953 0.140953
0.281351 0.992726 0.152726
0.513333 0.998826 0.163570
0.741599 1.000000 0.174031
0.966546 1.000000 0.184326
0.000000 0.028747 0.304372
0.214581 0.033456 0.309081
0.442416 0.038166 0.313791
0.670250 0.042875 0.318500
0.898084 0.047584 0.323209
0.000000 0.261117 0.313617
0.223827 0.265827 0.318327
0.451661 0.270536 0.323036
0.686296 0.282046 0.334546
0.921194 0.293819 0.346319
0.005238 0.493488 0.322863
0.239613 0.504738 0.334113
0.474511 0.516511 0.345886
0.709409 0.528284 0.357659
0.944307 0.540057 0.369433
0.027828 0.739203 0.345453
0.262726 0.750976 0.357226
0.497624 0.762749 0.368999
0.731397 0.773332 0.380187
0.959100 0.779533 0.389169
0.050941 0.985441 0.368566
0.285474 0.995941 0.379854
0.516394 1.000000 0.388842
0.743995 1.000000 0.397664
0.968278 1.000000 0.406319
0.000000 0.030543 0.529293
0.216377 0.035252 0.534002
0.444211 0.039961 0.538711
0.672045 0.044670 0.543420
0.902570 0.052070 0.550820
0.000000 0.262913 0.538538
0.225622 0.267622 0.543247
0.455887 0.274762 0.550387
0.690785 0.286535 0.562160
0.925683 0.298308 0.573933
0.009204 0.497454 0.549954
0.244102 0.509227 0.561727
0.479000 0.521000 0.573500
0.713898 0.532773 0.585273
0.948796 0.544546 0.597046
0.032317 0.743692 0.573067
0.267215 0.755465 0.584840
0.502113 0.767238 0.596613
0.733894 0.775716 0.605813
0.960933 0.781853 0.613155
0.055430 0.989930 0.596180
0.289175 0.997726 0.605539
0.519431 1.000000 0.612888
0.746368 1.000000 0.620070
0.969986 1.000000 0.627087
0.000000 0.032338 0.754213
0.218172 0.037047 0.758922
0.446007 0.041757 0.763632
0.673841 0.046466 0.768341
0.907059 0.056559 0.778434
0.000000 0.264708 0.763458
0.227418 0.269418 0.768168
0.460376 0.279251 0.778001
0.695274 0.291024 0.789774
0.930172 0.302797 0.801547
0.013692 0.501943 0.777568
0.248591 0.513716 0.789341
0.483489 0.525489 0.801114
0.718387 0.537262 0.812887
0.953171 0.548969 0.824562
0.036806 0.748181 0.800681
0.271704 0.759954 0.812454
0.506602 0.771727 0.824227
0.736366 0.778075 0.830212
0.962741 0.784149 0.835915
0.059919 0.994419 0.823794
0.292852 0.999487 0.829999
0.522443 1.000000 0.835708
0.748716 1.000000 0.841251
0.971670 1.000000 0.846628
0.000000 0.034134 0.979134
0.219968 0.038843 0.983843
0.447802 0.043552 0.988552
0.676649 0.049274 0.994274
0.911547 0.061047 1.000000
0.001379 0.266504 0.988379
0.229966 0.271966 0.993841
0.464864 0.283739 1.000000
0.699763 0.295513 1.000000
0.934661 0.307286 1.000000
0.018181 0.506431 1.000000
0.253079 0.518204 1.000000
0.487977 0.529977 1.000000
0.722876 0.541751 1.000000
0.955080 0.551967 1.000000
0.041294 0.752669 1.000000
0.276193 0.764443 1.000000
0.509786 0.774234 1.000000
0.738815 0.780411 1.000000
0.964525 0.786421 1.000000
0.064260 0.996617 1.000000
0.296505 1.000000 1.000000
0.525432 1.000000 1.000000
0.751040 1.000000 1.000000
0.973880 1.000000 1.000000
