assets/luts/winter.cube
TITLE "winter"
LUT_3D_SIZE 9
0.000000 0.026000 0.078500
0.098869 0.029306 0.081806
0.212786 0.031661 0.084161
0.326703 0.034015 0.086515
0.440620 0.036370 0.088870
0.554537 0.038725 0.091225
0.668454 0.041079 0.093579
0.782371 0.043434 0.095934
0.896289 0.045789 0.098289
0.000000 0.143137 0.084074
0.103491 0.145491 0.086429
0.217408 0.147846 0.088783
0.331326 0.150201 0.091138
0.445243 0.152555 0.093493
0.559160 0.154910 0.095847
0.673077 0.157264 0.098202
0.787700 0.160325 0.101263
0.905149 0.166212 0.107149
0.000000 0.259322 0.088697
0.108114 0.261676 0.091051
0.222031 0.264031 0.093406
0.335948 0.266386 0.095761
0.449865 0.268740 0.098115
0.564358 0.271671 0.101046
0.681807 0.277558 0.106933
0.799257 0.283444 0.112819
0.916706 0.289331 0.118706
0.000000 0.375507 0.093319
0.112737 0.377862 0.095674
0.226654 0.380216 0.098029
0.341017 0.383017 0.100829
0.458466 0.388903 0.106716
0.575915 0.394790 0.112602
0.693364 0.400677 0.118489
0.810813 0.406563 0.124376
0.928262 0.412450 0.130262
0.003442 0.491692 0.097942
0.117675 0.494363 0.100613
0.235124 0.500249 0.106499
0.352573 0.506136 0.112386
0.470023 0.512022 0.118273
0.587472 0.517909 0.124159
0.704921 0.523796 0.130046
0.822370 0.529682 0.135932
0.939819 0.535569 0.141819
0.011783 0.611595 0.106283
0.129232 0.617482 0.112169
0.246681 0.623368 0.118056
0.364130 0.629255 0.123943
0.481579 0.635142 0.129829
0.599028 0.641028 0.135716
0.716477 0.646915 0.141602
0.833926 0.652801 0.147489
0.951375 0.658688 0.153375
0.023339 0.734714 0.117839
0.140788 0.740601 0.123726
0.258238 0.746487 0.129613
0.375687 0.752374 0.135499
0.493136 0.758261 0.141386
0.610585 0.764147 0.147272
0.728034 0.770034 0.153159
0.843474 0.774077 0.158667
0.957243 0.777188 0.163958
0.034896 0.857833 0.129396
0.152345 0.863720 0.135282
0.269794 0.869607 0.141169
0.387243 0.875493 0.147056
0.504692 0.881380 0.152942
0.620744 0.885274 0.158472
0.735317 0.887993 0.163764
0.849061 0.890670 0.169014
0.961975 0.893305 0.174222
0.046453 0.980953 0.140953
0.163902 0.986839 0.146839
0.281351 0.992726 0.152726
0.397956 0.996499 0.158277
0.513333 0.998826 0.163570
0.627881 1.000000 0.168821
0.741599 1.000000 0.174031
0.854487 1.000000 0.179200
0.966546 1.000000 0.184326
0.000000 0.027849 0.191912
0.099766 0.030204 0.194266
0.213684 0.032559 0.196621
0.327601 0.034913 0.198976
0.441518 0.037268 0.201330
0.555435 0.039622 0.203685
0.669352 0.041977 0.206040
0.783269 0.044332 0.208394
0.897186 0.046686 0.210749
0.000000 0.144034 0.196534
0.104389 0.146389 0.198889
0.218306 0.148744 0.201244
0.332223 0.151098 0.203598
0.446140 0.153453 0.205953
0.560058 0.155808 0.208308
0.673975 0.158162 0.210662
0.789944 0.162569 0.215069
0.907393 0.168456 0.220956
0.000000 0.260220 0.201157
0.109012 0.262574 0.203512
0.222929 0.264929 0.205866
0.336846 0.267283 0.208221
0.450763 0.269638 0.210576
0.566603 0.273915 0.214853
0.684052 0.279802 0.220739
0.801501 0.285688 0.226626
0.918950 0.291575 0.232513
0.000000 0.376405 0.205780
0.113634 0.378759 0.208134
0.227551 0.381114 0.210489
0.343261 0.385261 0.214636
0.460710 0.391148 0.220523
0.578159 0.397034 0.226409
0.695608 0.402921 0.232296
0.813057 0.408807 0.238183
0.930507 0.414694 0.244069
0.004340 0.492590 0.210402
0.119920 0.496607 0.214420
0.237369 0.502494 0.220306
0.354818 0.508380 0.226193
0.472267 0.514267 0.232079
0.589716 0.520153 0.237966
0.707165 0.526040 0.243852
0.824614 0.531927 0.249739
0.942063 0.537813 0.255626
0.014027 0.613840 0.220090
0.131476 0.619726 0.225976
0.248925 0.625613 0.231863
0.366374 0.631499 0.237749
0.483823 0.637386 0.243636
0.601272 0.643272 0.249522
0.718722 0.649159 0.255409
0.836171 0.655046 0.261296
0.953314 0.660721 0.267097
0.025584 0.736959 0.231646
0.143033 0.742845 0.237533
0.260482 0.748732 0.243419
0.377931 0.754618 0.249306
0.495380 0.760505 0.255193
0.612829 0.766392 0.261079
0.730139 0.772131 0.266915
0.844572 0.775268 0.271837
0.958175 0.778364 0.276717
0.037140 0.860078 0.243203
0.154589 0.865964 0.249089
0.272038 0.871851 0.254976
0.389488 0.877738 0.260863
0.506906 0.883571 0.266733
0.622143 0.886315 0.271656
0.736550 0.889018 0.276538
0.850127 0.891680 0.281378
0.962875 0.894299 0.286177
0.048697 0.983197 0.254759
0.166146 0.989083 0.260646
0.283595 0.994970 0.266533
0.399656 0.997391 0.271476
0.514867 0.999702 0.276359
0.629248 1.000000 0.281201
0.742800 1.000000 0.286001
0.855522 1.000000 0.290759
0.967415 1.000000 0.295476
0.000000 0.028747 0.304372
0.100664 0.031102 0.306727
0.214581 0.033456 0.309081
0.328498 0.035811 0.311436
0.442416 0.038166 0.313791
0.556333 0.040520 0.316145
0.670250 0.042875 0.318500
0.784167 0.045229 0.320854
0.898084 0.047584 0.323209
0.000000 0.144932 0.308995
0.105287 0.147287 0.311349
0.219204 0.149641 0.313704
0.333121 0.151996 0.316059
0.447038 0.154351 0.318413
0.560955 0.156705 0.320768
0.674872 0.159060 0.323122
0.792189 0.164814 0.328876
0.909638 0.170700 0.334763
0.000000 0.261117 0.313617
0.109909 0.263472 0.315972
0.223827 0.265827 0.318327
0.337744 0.268181 0.320681
0.451661 0.270536 0.323036
0.568847 0.276160 0.328660
0.686296 0.282046 0.334546
0.803745 0.287933 0.340433
0.921194 0.293819 0.346319
0.000615 0.377302 0.318240
0.114532 0.379657 0.320595
0.228449 0.382012 0.322949
0.345506 0.387506 0.328443
0.462955 0.393392 0.334330
0.580404 0.399279 0.340216
0.697853 0.405165 0.346103
0.815302 0.411052 0.351989
0.932751 0.416938 0.357876
0.005238 0.493488 0.322863
0.122164 0.498852 0.328227
0.239613 0.504738 0.334113
0.357062 0.510625 0.340000
0.474511 0.516511 0.345886
0.591960 0.522398 0.351773
0.709409 0.528284 0.357659
0.826858 0.534171 0.363546
0.944307 0.540057 0.369433
0.016272 0.616084 0.333897
0.133721 0.621971 0.339783
0.251170 0.627857 0.345670
0.368619 0.633744 0.351556
0.486068 0.639630 0.357443
0.603517 0.645517 0.363329
0.720966 0.651403 0.369216
0.838415 0.657290 0.375103
0.954271 0.662071 0.380354
0.027828 0.739203 0.345453
0.145277 0.745090 0.351340
0.262726 0.750976 0.357226
0.380175 0.756863 0.363113
0.497624 0.762749 0.368999
0.615073 0.768636 0.374886
0.731397 0.773332 0.380187
0.845663 0.776453 0.384699
0.959100 0.779533 0.389169
0.039385 0.862322 0.357010
0.156834 0.868209 0.362896
0.274283 0.874095 0.368783
0.391732 0.879982 0.374669
0.508465 0.884622 0.380020
0.623535 0.887351 0.384534
0.737776 0.890038 0.389006
0.851187 0.892683 0.393436
0.963769 0.895287 0.397825
0.050941 0.985441 0.368566
0.168390 0.991328 0.374453
0.285474 0.995941 0.379854
0.401349 0.998277 0.384369
0.516394 1.000000 0.388842
0.630609 1.000000 0.393274
0.743995 1.000000 0.397664
0.856551 1.000000 0.402012
0.968278 1.000000 0.406319
0.000000 0.029645 0.416832
0.101562 0.031999 0.419187
0.215479 0.034354 0.421542
0.329396 0.036709 0.423896
0.443313 0.039063 0.426251
0.557230 0.041418 0.428605
0.671148 0.043773 0.430960
0.785065 0.046127 0.433315
0.900326 0.049826 0.437013
0.000000 0.145830 0.421455
0.106185 0.148185 0.423810
0.220102 0.150539 0.426164
0.334019 0.152894 0.428519
0.447936 0.155248 0.430873
0.561853 0.157603 0.433228
0.676984 0.161172 0.436797
0.794433 0.167058 0.442683
0.911882 0.172945 0.448570
0.000000 0.262015 0.426078
0.110807 0.264370 0.428432
0.224724 0.266724 0.430787
0.338641 0.269079 0.433141
0.453642 0.272517 0.436580
0.571092 0.278404 0.442467
0.688541 0.284291 0.448353
0.805990 0.290177 0.454240
0.923439 0.296064 0.460126
0.001513 0.378200 0.430700
0.115430 0.380555 0.433055
0.230301 0.383863 0.436363
0.347750 0.389750 0.442250
0.465199 0.395637 0.448137
0.582648 0.401523 0.454023
0.700097 0.407410 0.459910
0.817546 0.413296 0.465796
0.934995 0.419183 0.471683
0.006959 0.495209 0.436147
0.124408 0.501096 0.442033
0.241858 0.506983 0.447920
0.359307 0.512869 0.453807
0.476756 0.518756 0.459693
0.594205 0.524642 0.465580
0.711654 0.530529 0.471466
0.829103 0.536415 0.477353
0.946552 0.542302 0.483239
0.018516 0.618328 0.447703
0.135965 0.624215 0.453590
0.253414 0.630102 0.459477
0.370863 0.635988 0.465363
0.488312 0.641875 0.471250
0.605761 0.647761 0.477136
0.723210 0.653648 0.483023
0.840659 0.659534 0.488909
0.955221 0.663416 0.493305
0.030073 0.741448 0.459260
0.147522 0.747334 0.465147
0.264971 0.753221 0.471033
0.382420 0.759107 0.476920
0.499869 0.764994 0.482806
0.617318 0.770880 0.488693
0.732648 0.774527 0.493153
0.846749 0.777632 0.497255
0.960019 0.780696 0.501316
0.041629 0.864567 0.470817
0.159078 0.870453 0.476703
0.276527 0.876340 0.482590
0.393976 0.882226 0.488476
0.510017 0.885667 0.493002
0.624922 0.888380 0.497105
0.738996 0.891051 0.501167
0.852242 0.893681 0.505187
0.964657 0.896269 0.509166
0.053186 0.987686 0.482373
0.170635 0.993572 0.488260
0.287328 0.996836 0.492850
0.403037 0.999157 0.496955
0.517915 1.000000 0.501018
0.631965 1.000000 0.505040
0.745184 1.000000 0.509020
0.857574 1.000000 0.512959
0.969135 1.000000 0.516856
0.000000 0.030543 0.529293
0.102460 0.032897 0.531647
0.216377 0.035252 0.534002
0.330294 0.037606 0.536356
0.444211 0.039961 0.538711
0.558128 0.042316 0.541066
0.672045 0.044670 0.543420
0.785962 0.047025 0.545775
0.902570 0.052070 0.550820
0.000000 0.146728 0.533915
0.107082 0.149082 0.536270
0.220999 0.151437 0.538624
0.334917 0.153792 0.540979
0.448834 0.156146 0.543334
0.562751 0.158501 0.545688
0.679228 0.163416 0.550603
0.796677 0.169303 0.556490
0.914127 0.175189 0.562377
0.000000 0.262913 0.538538
0.111705 0.265267 0.540892
0.225622 0.267622 0.543247
0.339539 0.269977 0.545602
0.455887 0.274762 0.550387
0.573336 0.280648 0.556273
0.690785 0.286535 0.562160
0.808234 0.292422 0.568047
0.925683 0.298308 0.573933
0.002410 0.379098 0.543160
0.116328 0.381453 0.545515
0.232545 0.386108 0.550170
0.349994 0.391994 0.556057
0.467443 0.397881 0.561943
0.584893 0.403768 0.567830
0.702342 0.409654 0.573717
0.819791 0.415541 0.579603
0.937240 0.421427 0.585490
0.009204 0.497454 0.549954
0.126653 0.503340 0.555840
0.244102 0.509227 0.561727
0.361551 0.515113 0.567613
0.479000 0.521000 0.573500
0.596449 0.526887 0.579387
0.713898 0.532773 0.585273
0.831347 0.538660 0.591160
0.948796 0.544546 0.597046
0.020760 0.620573 0.561510
0.138209 0.626459 0.567397
0.255658 0.632346 0.573283
0.373107 0.638233 0.579170
0.490557 0.644119 0.585057
0.608006 0.650006 0.590943
0.725455 0.655892 0.596830
0.842206 0.661231 0.602217
0.956166 0.664754 0.605949
0.032317 0.743692 0.573067
0.149766 0.749578 0.578953
0.267215 0.755465 0.584840
0.384664 0.761352 0.590727
0.502113 0.767238 0.596613
0.619130 0.772585 0.602079
0.733894 0.775716 0.605813
0.847828 0.778805 0.609505
0.960933 0.781853 0.613155
0.043873 0.866811 0.584623
0.161322 0.872698 0.590510
0.278772 0.878584 0.596397
0.395995 0.883968 0.601941
0.511564 0.886707 0.605676
0.626302 0.889403 0.609370
0.740211 0.892059 0.613022
0.853290 0.894673 0.616632
0.965539 0.897245 0.620201
0.055430 0.989930 0.596180
0.172803 0.995380 0.601803
0.289175 0.997726 0.605539
0.404718 1.000000 0.609235
0.519431 1.000000 0.612888
0.633314 1.000000 0.616500
0.746368 1.000000 0.620070
0.858592 1.000000 0.623599
0.969986 1.000000 0.627087
0.000000 0.031440 0.641753
0.103357 0.033795 0.644107
0.217275 0.036150 0.646462
0.331192 0.038504 0.648817
0.445109 0.040859 0.651171
0.559026 0.043213 0.653526
0.672943 0.045568 0.655881
0.787365 0.048428 0.658740
0.904814 0.054314 0.664627
0.000000 0.147625 0.646375
0.107980 0.149980 0.648730
0.221897 0.152335 0.651085
0.335814 0.154689 0.653439
0.449731 0.157044 0.655794
0.564024 0.159774 0.658524
0.681473 0.165660 0.664410
0.798922 0.171547 0.670297
0.916371 0.177433 0.676183
0.000000 0.263811 0.650998
0.112603 0.266165 0.653353
0.226520 0.268520 0.655707
0.340682 0.271120 0.658307
0.458131 0.277006 0.664194
0.575580 0.282893 0.670080
0.693029 0.288779 0.675967
0.810478 0.294666 0.681853
0.927928 0.300553 0.687740
0.003308 0.379996 0.655621
0.117341 0.382466 0.658091
0.234790 0.388352 0.663977
0.352239 0.394239 0.669864
0.469688 0.400125 0.675750
0.587137 0.406012 0.681637
0.704586 0.411898 0.687523
0.822035 0.417785 0.693410
0.939484 0.423672 0.699297
0.011448 0.499698 0.663761
0.128897 0.505585 0.669647
0.246346 0.511471 0.675534
0.363795 0.517358 0.681420
0.481244 0.523244 0.687307
0.598693 0.529131 0.693193
0.716143 0.535018 0.699080
0.833592 0.540904 0.704967
0.951041 0.546791 0.710853
0.023005 0.622817 0.675317
0.140454 0.628704 0.681204
0.257903 0.634590 0.687090
0.375352 0.640477 0.692977
0.492801 0.646363 0.698863
0.610250 0.652250 0.704750
0.727699 0.658137 0.710637
0.843310 0.662579 0.714965
0.957104 0.666087 0.718287
0.034561 0.745936 0.686874
0.152010 0.751823 0.692760
0.269459 0.757709 0.698647
0.386908 0.763596 0.704533
0.504358 0.769483 0.710420
0.620535 0.773784 0.714842
0.735133 0.776899 0.718166
0.848901 0.779972 0.721448
0.961840 0.783004 0.724688
0.046118 0.869055 0.698430
0.163567 0.874942 0.704317
0.281016 0.880828 0.710203
0.397702 0.885017 0.714719
0.513104 0.887740 0.718044
0.627676 0.890421 0.721328
0.741419 0.893060 0.724570
0.854332 0.895658 0.727771
0.966415 0.898215 0.730929
0.057674 0.992174 0.709987
0.174811 0.996279 0.714596
0.291017 0.998610 0.717922
0.406393 1.000000 0.721208
0.520940 1.000000 0.724451
0.634657 1.000000 0.727653
0.747545 1.000000 0.730814
0.859603 1.000000 0.733933
0.970831 1.000000 0.737010
0.000000 0.032338 0.754213
0.104255 0.034693 0.756568
0.218172 0.037047 0.758922
0.332089 0.039402 0.761277
0.446007 0.041757 0.763632
0.559924 0.044111 0.765986
0.673841 0.046466 0.768341
0.789610 0.050672 0.772547
0.907059 0.056559 0.778434
0.000000 0.148523 0.758836
0.108878 0.150878 0.761190
0.222795 0.153232 0.763545
0.336712 0.155587 0.765900
0.450629 0.157942 0.768254
0.566268 0.162018 0.772331
0.683717 0.167905 0.778217
0.801166 0.173791 0.784104
0.918615 0.179678 0.789990
0.000000 0.264708 0.763458
0.113500 0.267063 0.765813
0.227418 0.269418 0.768168
0.342927 0.273364 0.772114
0.460376 0.279251 0.778001
0.577825 0.285137 0.783887
0.695274 0.291024 0.789774
0.812723 0.296910 0.795660
0.930172 0.302797 0.801547
0.004206 0.380893 0.768081
0.119585 0.384710 0.771898
0.237034 0.390597 0.777784
0.354483 0.396483 0.783671
0.471932 0.402370 0.789557
0.589381 0.408256 0.795444
0.706830 0.414143 0.801330
0.824279 0.420029 0.807217
0.941728 0.425916 0.813103
0.013692 0.501943 0.777568
0.131142 0.507829 0.783454
0.248591 0.513716 0.789341
0.366040 0.519602 0.795227
0.483489 0.525489 0.801114
0.600938 0.531375 0.807000
0.718387 0.537262 0.812887
0.835836 0.543148 0.818773
0.953171 0.548969 0.824562
0.025249 0.625062 0.789124
0.142698 0.630948 0.795011
0.260147 0.636835 0.800897
0.377596 0.642721 0.806784
0.495045 0.648608 0.812670
0.612494 0.654494 0.818557
0.729943 0.660381 0.824443
0.844408 0.663921 0.827406
0.958036 0.667413 0.830318
0.036806 0.748181 0.800681
0.154255 0.754067 0.806567
0.271704 0.759954 0.812454
0.389153 0.765840 0.818340
0.506602 0.771727 0.824227
0.621934 0.774976 0.827298
0.736366 0.778075 0.830212
0.849968 0.781133 0.833084
0.962741 0.784149 0.835915
0.048362 0.871300 0.812237
0.165811 0.877186 0.818124
0.283260 0.883073 0.824010
0.399402 0.886060 0.827190
0.514638 0.888767 0.830106
0.629045 0.891432 0.832979
0.742621 0.894056 0.835812
0.855368 0.896638 0.838602
0.967285 0.899178 0.841351
0.059919 0.994419 0.823794
0.176812 0.997173 0.827082
0.292852 0.999487 0.829999
0.408063 1.000000 0.832874
0.522443 1.000000 0.835708
0.635994 1.000000 0.838500
0.748716 1.000000 0.841251
0.860608 1.000000 0.843960
0.971670 1.000000 0.846628
0.000000 0.033236 0.866673
0.105153 0.035590 0.869028
0.219070 0.037945 0.871383
0.332987 0.040300 0.873737
0.446904 0.042654 0.876092
0.560821 0.045009 0.878446
0.674739 0.047364 0.880801
0.791854 0.052917 0.886354
0.909303 0.058803 0.892241
0.000000 0.149421 0.871296
0.109776 0.151776 0.873651
0.223693 0.154130 0.876005
0.337610 0.156485 0.878360
0.451527 0.158839 0.880714
0.568512 0.164263 0.886138
0.685962 0.170149 0.892024
0.803411 0.176036 0.897911
0.920860 0.181922 0.903797
0.000481 0.265606 0.875919
0.114398 0.267961 0.878273
0.228315 0.270315 0.880628
0.345171 0.275608 0.885921
0.462620 0.281495 0.891808
0.580069 0.287382 0.897694
0.697518 0.293268 0.903581
0.814967 0.299155 0.909467
0.932416 0.305041 0.915354
0.005104 0.381791 0.880541
0.121829 0.386954 0.885704
0.239278 0.392841 0.891591
0.356728 0.398728 0.897477
0.474177 0.404614 0.903364
0.591626 0.410501 0.909251
0.709075 0.416387 0.915137
0.826524 0.422274 0.921024
0.943973 0.428160 0.926910
0.015937 0.504187 0.891374
0.133386 0.510073 0.897261
0.250835 0.515960 0.903147
0.368284 0.521847 0.909034
0.485733 0.527733 0.914921
0.603182 0.533620 0.920807
0.720631 0.539506 0.926694
0.838080 0.545393 0.932580
0.954129 0.550471 0.937091
0.027493 0.627306 0.902931
0.144943 0.633193 0.908818
0.262392 0.639079 0.914704
0.379841 0.644966 0.920591
0.497290 0.650852 0.926477
0.614739 0.656739 0.932364
0.731210 0.661740 0.936997
0.845501 0.665258 0.939541
0.958962 0.668733 0.942043
0.039050 0.750425 0.914487
0.156499 0.756312 0.920374
0.273948 0.762198 0.926261
0.391397 0.768085 0.932147
0.508232 0.773038 0.936902
0.623328 0.776163 0.939448
0.737594 0.779246 0.941952
0.851030 0.782288 0.944414
0.963636 0.785288 0.946835
0.050607 0.873544 0.926044
0.168056 0.879431 0.931931
0.285197 0.884364 0.936808
0.401097 0.887097 0.939355
0.516167 0.889788 0.941861
0.630407 0.892437 0.944324
0.743817 0.895045 0.946747
0.856398 0.897611 0.949128
0.968149 0.900136 0.951467
0.062104 0.995720 0.936713
0.178808 0.998060 0.939262
0.294682 1.000000 0.941769
0.409726 1.000000 0.944235
0.523941 1.000000 0.946658
0.637326 1.000000 0.949041
0.749881 1.000000 0.951382
0.861607 1.000000 0.953681
0.972503 1.000000 0.955938
0.000000 0.034134 0.979134
0.106051 0.036488 0.981488
0.219968 0.038843 0.983843
0.333885 0.041197 0.986197
0.447802 0.043552 0.988552
0.561719 0.045907 0.990907
0.676649 0.049274 0.994274
0.794098 0.055161 1.000000
0.911547 0.061047 1.000000
0.000000 0.150319 0.983756
0.110673 0.152673 0.986111
0.224590 0.155028 0.988465
0.338508 0.157383 0.990820
0.453308 0.160620 0.994058
0.570757 0.166507 0.999944
0.688206 0.172393 1.000000
0.805655 0.178280 1.000000
0.923104 0.184167 1.000000
0.001379 0.266504 0.988379
0.115296 0.268858 0.990733
0.229966 0.271966 0.993841
0.347415 0.277853 0.999728
0.464864 0.283739 1.000000
0.582313 0.289626 1.000000
0.699763 0.295513 1.000000
0.817212 0.301399 1.000000
0.934661 0.307286 1.000000
0.006625 0.383312 0.993625
0.124074 0.389199 0.999511
0.241523 0.395085 1.000000
0.358972 0.400972 1.000000
0.476421 0.406858 1.000000
0.593870 0.412745 1.000000
0.711319 0.418632 1.000000
0.828768 0.424518 1.000000
0.946217 0.430405 1.000000
0.018181 0.506431 1.000000
0.135630 0.512318 1.000000
0.253079 0.518204 1.000000
0.370528 0.524091 1.000000
0.487977 0.529977 1.000000
0.605427 0.535864 1.000000
0.722876 0.541751 1.000000
0.840325 0.547637 1.000000
0.955080 0.551967 1.000000
0.029738 0.629550 1.000000
0.147187 0.635437 1.000000
0.264636 0.641323 1.000000
0.382085 0.647210 1.000000
0.499534 0.653097 1.000000
0.616983 0.658983 1.000000
0.732462 0.663086 1.000000
0.846587 0.666588 1.000000
0.959883 0.670048 1.000000
0.041294 0.752669 1.000000
0.158743 0.758556 1.000000
0.276193 0.764443 1.000000
0.393642 0.770329 1.000000
0.509786 0.774234 1.000000
0.624715 0.777343 1.000000
0.738815 0.780411 1.000000
0.852085 0.783437 1.000000
0.964525 0.786421 1.000000
0.052851 0.875788 1.000000
0.170300 0.881675 1.000000
0.287052 0.885411 1.000000
0.402785 0.888128 1.000000
0.517689 0.890803 1.000000
0.631763 0.893436 1.000000
0.745007 0.896028 1.000000
0.857422 0.898579 1.000000
0.969007 0.901088 1.000000
0.064260 0.996617 1.000000
0.180797 0.998941 1.000000
0.296505 1.000000 1.000000
0.411383 1.000000 1.000000
0.525432 1.000000 1.000000
0.638651 1.000000 1.000000
0.751040 1.000000 1.000000
0.862599 1.000000 1.000000
0.973880 1.000000 1.000000
