assets/luts/winter.cube
TITLE "winter"
LUT_3D_SIZE 33
0.000000 0.026000 0.078500
0.013362 0.027472 0.079972
0.041910 0.028129 0.080629
0.070389 0.028718 0.081218
0.098869 0.029306 0.081806
0.127348 0.029895 0.082395
0.155827 0.030484 0.082984
0.184307 0.031072 0.083572
0.212786 0.031661 0.084161
0.241265 0.032249 0.084749
0.269744 0.032838 0.085338
0.298224 0.033427 0.085927
0.326703 0.034015 0.086515
0.355182 0.034604 0.087104
0.383662 0.035193 0.087693
0.412141 0.035781 0.088281
0.440620 0.036370 0.088870
0.469099 0.036959 0.089459
0.497579 0.037547 0.090047
0.526058 0.038136 0.090636
0.554537 0.038725 0.091225
0.583016 0.039313 0.091813
0.611496 0.039902 0.092402
0.639975 0.040491 0.092991
0.668454 0.041079 0.093579
0.696934 0.041668 0.094168
0.725413 0.042257 0.094757
0.753892 0.042845 0.095345
0.782371 0.043434 0.095934
0.810851 0.044023 0.096523
0.839330 0.044611 0.097111
0.867809 0.045200 0.097700
0.896289 0.045789 0.098289
0.000000 0.055998 0.080607
0.014587 0.056587 0.081196
0.043066 0.057175 0.081785
0.071545 0.057764 0.082373
0.100024 0.058352 0.082962
0.128504 0.058941 0.083551
0.156983 0.059530 0.084139
0.185462 0.060118 0.084728
0.213941 0.060707 0.085316
0.242421 0.061296 0.085905
0.270900 0.061884 0.086494
0.299379 0.062473 0.087082
0.327859 0.063062 0.087671
0.356338 0.063650 0.088260
0.384817 0.064239 0.088848
0.413296 0.064828 0.089437
0.441776 0.065416 0.090026
0.470255 0.066005 0.090614
0.498734 0.066594 0.091203
0.527214 0.067182 0.091792
0.555693 0.067771 0.092380
0.584172 0.068360 0.092969
0.612651 0.068948 0.093558
0.641131 0.069537 0.094146
0.669610 0.070126 0.094735
0.698089 0.070714 0.095324
0.726569 0.071303 0.095912
0.755048 0.071892 0.096501
0.783527 0.072480 0.097090
0.812006 0.073069 0.097678
0.840486 0.073658 0.098267
0.868965 0.074246 0.098856
0.897444 0.074835 0.099444
0.000000 0.085044 0.081763
0.015742 0.085633 0.082352
0.044221 0.086221 0.082940
0.072701 0.086810 0.083529
0.101180 0.087399 0.084118
0.129659 0.087987 0.084706
0.158139 0.088576 0.085295
0.186618 0.089165 0.085883
0.215097 0.089753 0.086472
0.243576 0.090342 0.087061
0.272056 0.090931 0.087649
0.300535 0.091519 0.088238
0.329014 0.092108 0.088827
0.357494 0.092697 0.089415
0.385973 0.093285 0.090004
0.414452 0.093874 0.090593
0.442931 0.094463 0.091181
0.471411 0.095051 0.091770
0.499890 0.095640 0.092359
0.528369 0.096229 0.092947
0.556849 0.096817 0.093536
0.585328 0.097406 0.094125
0.613807 0.097995 0.094713
0.642286 0.098583 0.095302
0.670766 0.099172 0.095891
0.699245 0.099761 0.096479
0.727724 0.100349 0.097068
0.756203 0.100938 0.097657
0.784683 0.101527 0.098245
0.813162 0.102115 0.098834
0.841641 0.102704 0.099423
0.870121 0.103292 0.100011
0.899371 0.104652 0.101371
0.000000 0.114090 0.082919
0.016898 0.114679 0.083507
0.045377 0.115268 0.084096
0.073856 0.115856 0.084685
0.102336 0.116445 0.085273
0.130815 0.117034 0.085862
0.159294 0.117622 0.086450
0.187774 0.118211 0.087039
0.216253 0.118800 0.087628
0.244732 0.119388 0.088216
0.273211 0.119977 0.088805
0.301691 0.120566 0.089394
0.330170 0.121154 0.089982
0.358649 0.121743 0.090571
0.387128 0.122332 0.091160
0.415608 0.122920 0.091748
0.444087 0.123509 0.092337
0.472566 0.124098 0.092926
0.501046 0.124686 0.093514
0.529525 0.125275 0.094103
0.558004 0.125864 0.094692
0.586483 0.126452 0.095280
0.614963 0.127041 0.095869
0.643442 0.127630 0.096458
0.671921 0.128218 0.097046
0.700401 0.128807 0.097635
0.728880 0.129395 0.098224
0.757359 0.129984 0.098812
0.785838 0.130573 0.099401
0.814318 0.131161 0.099990
0.843535 0.132489 0.101317
0.872898 0.133960 0.102788
0.902260 0.135432 0.104260
0.000000 0.143137 0.084074
0.018053 0.143725 0.084663
0.046533 0.144314 0.085252
0.075012 0.144903 0.085840
0.103491 0.145491 0.086429
0.131971 0.146080 0.087017
0.160450 0.146669 0.087606
0.188929 0.147257 0.088195
0.217408 0.147846 0.088783
0.245888 0.148435 0.089372
0.274367 0.149023 0.089961
0.302846 0.149612 0.090549
0.331326 0.150201 0.091138
0.359805 0.150789 0.091727
0.388284 0.151378 0.092315
0.416763 0.151967 0.092904
0.445243 0.152555 0.093493
0.473722 0.153144 0.094081
0.502201 0.153733 0.094670
0.530681 0.154321 0.095259
0.559160 0.154910 0.095847
0.587639 0.155498 0.096436
0.616118 0.156087 0.097025
0.644598 0.156676 0.097613
0.673077 0.157264 0.098202
0.701556 0.157853 0.098791
0.730036 0.158442 0.099379
0.758515 0.159030 0.099968
0.787700 0.160325 0.101263
0.817062 0.161797 0.102734
0.846425 0.163268 0.104206
0.875787 0.164740 0.105677
0.905149 0.166212 0.107149
0.000000 0.172183 0.085230
0.019209 0.172772 0.085819
0.047688 0.173360 0.086407
0.076168 0.173949 0.086996
0.104647 0.174538 0.087584
0.133126 0.175126 0.088173
0.161606 0.175715 0.088762
0.190085 0.176304 0.089350
0.218564 0.176892 0.089939
0.247043 0.177481 0.090528
0.275523 0.178070 0.091116
0.304002 0.178658 0.091705
0.332481 0.179247 0.092294
0.360961 0.179836 0.092882
0.389440 0.180424 0.093471
0.417919 0.181013 0.094060
0.446398 0.181601 0.094648
0.474878 0.182190 0.095237
0.503357 0.182779 0.095826
0.531836 0.183367 0.096414
0.560315 0.183956 0.097003
0.588795 0.184545 0.097592
0.617274 0.185133 0.098180
0.645753 0.185722 0.098769
0.674233 0.186311 0.099358
0.702712 0.186899 0.099946
0.731865 0.188161 0.101208
0.761227 0.189633 0.102680
0.790589 0.191105 0.104152
0.819951 0.192576 0.105623
0.849314 0.194048 0.107095
0.878676 0.195520 0.108567
0.908038 0.196991 0.110038
0.000000 0.201229 0.086386
0.020365 0.201818 0.086974
0.048844 0.202407 0.087563
0.077323 0.202995 0.088151
0.105803 0.203584 0.088740
0.134282 0.204173 0.089329
0.162761 0.204761 0.089917
0.191240 0.205350 0.090506
0.219720 0.205939 0.091095
0.248199 0.206527 0.091683
0.276678 0.207116 0.092272
0.305158 0.207704 0.092861
0.333637 0.208293 0.093449
0.362116 0.208882 0.094038
0.390595 0.209470 0.094627
0.419075 0.210059 0.095215
0.447554 0.210648 0.095804
0.476033 0.211236 0.096393
0.504513 0.211825 0.096981
0.532992 0.212414 0.097570
0.561471 0.213002 0.098159
0.589950 0.213591 0.098747
0.618430 0.214180 0.099336
0.646909 0.214768 0.099925
0.676029 0.215998 0.101154
0.705391 0.217470 0.102626
0.734754 0.218941 0.104098
0.764116 0.220413 0.105569
0.793478 0.221885 0.107041
0.822841 0.223356 0.108512
0.852203 0.224828 0.109984
0.881565 0.226299 0.111456
0.910927 0.227771 0.112927
0.000000 0.230276 0.087541
0.021520 0.230864 0.088130
0.050000 0.231453 0.088718
0.078479 0.232042 0.089307
0.106958 0.232630 0.089896
0.135438 0.233219 0.090484
0.163917 0.233807 0.091073
0.192396 0.234396 0.091662
0.220875 0.234985 0.092250
0.249355 0.235573 0.092839
0.277834 0.236162 0.093428
0.306313 0.236751 0.094016
0.334793 0.237339 0.094605
0.363272 0.237928 0.095194
0.391751 0.238517 0.095782
0.420230 0.239105 0.096371
0.448710 0.239694 0.096960
0.477189 0.240283 0.097548
0.505668 0.240871 0.098137
0.534148 0.241460 0.098726
0.562627 0.242049 0.099314
0.591106 0.242637 0.099903
0.620194 0.243834 0.101100
0.649556 0.245306 0.102572
0.678918 0.246778 0.104043
0.708281 0.248249 0.105515
0.737643 0.249721 0.106987
0.767005 0.251193 0.108458
0.796367 0.252664 0.109930
0.825730 0.254136 0.111402
0.855092 0.255608 0.112873
0.884454 0.257079 0.114345
0.913816 0.258551 0.115816
0.000000 0.259322 0.088697
0.022676 0.259910 0.089285
0.051155 0.260499 0.089874
0.079635 0.261088 0.090463
0.108114 0.261676 0.091051
0.136593 0.262265 0.091640
0.165073 0.262854 0.092229
0.193552 0.263442 0.092817
0.222031 0.264031 0.093406
0.250510 0.264620 0.093995
0.278990 0.265208 0.094583
0.307469 0.265797 0.095172
0.335948 0.266386 0.095761
0.364427 0.266974 0.096349
0.392907 0.267563 0.096938
0.421386 0.268152 0.097527
0.449865 0.268740 0.098115
0.478345 0.269329 0.098704
0.506824 0.269918 0.099293
0.535303 0.270506 0.099881
0.564358 0.271671 0.101046
0.593721 0.273143 0.102518
0.623083 0.274614 0.103989
0.652445 0.276086 0.105461
0.681807 0.277558 0.106933
0.711170 0.279029 0.108404
0.740532 0.280501 0.109876
0.769894 0.281972 0.111347
0.799257 0.283444 0.112819
0.828619 0.284916 0.114291
0.857981 0.286387 0.115762
0.887343 0.287859 0.117234
0.916706 0.289331 0.118706
0.000000 0.288368 0.089852
0.023832 0.288957 0.090441
0.052311 0.289545 0.091030
0.080790 0.290134 0.091618
0.109270 0.290723 0.092207
0.137749 0.291311 0.092796
0.166228 0.291900 0.093384
0.194707 0.292489 0.093973
0.223187 0.293077 0.094562
0.251666 0.293666 0.095150
0.280145 0.294255 0.095739
0.308625 0.294843 0.096328
0.337104 0.295432 0.096916
0.365583 0.296021 0.097505
0.394062 0.296609 0.098094
0.422542 0.297198 0.098682
0.451021 0.297787 0.099271
0.479500 0.298375 0.099860
0.508523 0.299507 0.100992
0.537885 0.300979 0.102463
0.567248 0.302451 0.103935
0.596610 0.303922 0.105407
0.625972 0.305394 0.106878
0.655334 0.306866 0.108350
0.684697 0.308337 0.109822
0.714059 0.309809 0.111293
0.743421 0.311281 0.112765
0.772783 0.312752 0.114237
0.802146 0.314224 0.115708
0.831508 0.315695 0.117180
0.860870 0.317167 0.118651
0.890232 0.318639 0.120123
0.919595 0.320110 0.121595
0.000000 0.317414 0.091008
0.024987 0.318003 0.091597
0.053467 0.318592 0.092185
0.081946 0.319180 0.092774
0.110425 0.319769 0.093363
0.138905 0.320358 0.093951
0.167384 0.320946 0.094540
0.195863 0.321535 0.095129
0.224342 0.322124 0.095717
0.252822 0.322712 0.096306
0.281301 0.323301 0.096895
0.309780 0.323890 0.097483
0.338260 0.324478 0.098072
0.366739 0.325067 0.098661
0.395218 0.325656 0.099249
0.423697 0.326244 0.099838
0.452688 0.327344 0.100938
0.482050 0.328816 0.102409
0.511412 0.330287 0.103881
0.540774 0.331759 0.105353
0.570137 0.333230 0.106824
0.599499 0.334702 0.108296
0.628861 0.336174 0.109768
0.658224 0.337645 0.111239
0.687586 0.339117 0.112711
0.716948 0.340589 0.114182
0.746310 0.342060 0.115654
0.775673 0.343532 0.117126
0.805035 0.345004 0.118597
0.834397 0.346475 0.120069
0.863759 0.347947 0.121541
0.893122 0.349419 0.123012
0.922484 0.350890 0.124484
0.000000 0.346461 0.092164
0.026143 0.347049 0.092752
0.054622 0.347638 0.093341
0.083102 0.348227 0.093930
0.111581 0.348815 0.094518
0.140060 0.349404 0.095107
0.168539 0.349993 0.095696
0.197019 0.350581 0.096284
0.225498 0.351170 0.096873
0.253977 0.351759 0.097462
0.282457 0.352347 0.098050
0.310936 0.352936 0.098639
0.339415 0.353525 0.099228
0.367894 0.354113 0.099816
0.396852 0.355180 0.100884
0.426215 0.356652 0.102355
0.455577 0.358124 0.103827
0.484939 0.359595 0.105298
0.514301 0.361067 0.106770
0.543664 0.362539 0.108242
0.573026 0.364010 0.109713
0.602388 0.365482 0.111185
0.631750 0.366954 0.112657
0.661113 0.368425 0.114128
0.690475 0.369897 0.115600
0.719837 0.371368 0.117072
0.749199 0.372840 0.118543
0.778562 0.374312 0.120015
0.807924 0.375783 0.121486
0.837286 0.377255 0.122958
0.866649 0.378727 0.124430
0.896011 0.380198 0.125901
0.925373 0.381670 0.127373
0.000000 0.375507 0.093319
0.027299 0.376096 0.093908
0.055778 0.376684 0.094497
0.084257 0.377273 0.095085
0.112737 0.377862 0.095674
0.141216 0.378450 0.096263
0.169695 0.379039 0.096851
0.198174 0.379628 0.097440
0.226654 0.380216 0.098029
0.255133 0.380805 0.098617
0.283612 0.381394 0.099206
0.312092 0.381982 0.099795
0.341017 0.383017 0.100829
0.370379 0.384489 0.102301
0.399741 0.385960 0.103773
0.429104 0.387432 0.105244
0.458466 0.388903 0.106716
0.487828 0.390375 0.108188
0.517190 0.391847 0.109659
0.546553 0.393318 0.111131
0.575915 0.394790 0.112602
0.605277 0.396262 0.114074
0.634640 0.397733 0.115546
0.664002 0.399205 0.117017
0.693364 0.400677 0.118489
0.722726 0.402148 0.119961
0.752089 0.403620 0.121432
0.781451 0.405091 0.122904
0.810813 0.406563 0.124376
0.840175 0.408035 0.125847
0.869538 0.409506 0.127319
0.898900 0.410978 0.128791
0.928262 0.412450 0.130262
0.000000 0.404553 0.094475
0.028454 0.405142 0.095064
0.056934 0.405731 0.095652
0.085413 0.406319 0.096241
0.113892 0.406908 0.096830
0.142372 0.407497 0.097418
0.170851 0.408085 0.098007
0.199330 0.408674 0.098596
0.227809 0.409262 0.099184
0.256289 0.409851 0.099773
0.285181 0.410853 0.100775
0.314544 0.412325 0.102247
0.343906 0.413797 0.103719
0.373268 0.415268 0.105190
0.402631 0.416740 0.106662
0.431993 0.418212 0.108133
0.461355 0.419683 0.109605
0.490717 0.421155 0.111077
0.520080 0.422626 0.112548
0.549442 0.424098 0.114020
0.578804 0.425570 0.115492
0.608166 0.427041 0.116963
0.637529 0.428513 0.118435
0.666891 0.429985 0.119907
0.696253 0.431456 0.121378
0.725615 0.432928 0.122850
0.754978 0.434400 0.124321
0.784340 0.435871 0.125793
0.813702 0.437343 0.127265
0.843065 0.438815 0.128736
0.872427 0.440286 0.130208
0.901789 0.441758 0.131680
0.931151 0.443229 0.133151
0.001131 0.433600 0.095631
0.029610 0.434188 0.096219
0.058089 0.434777 0.096808
0.086569 0.435365 0.097397
0.115048 0.435954 0.097985
0.143527 0.436543 0.098574
0.172006 0.437131 0.099163
0.200486 0.437720 0.099751
0.229346 0.438690 0.100721
0.258708 0.440161 0.102193
0.288071 0.441633 0.103664
0.317433 0.443105 0.105136
0.346795 0.444576 0.106608
0.376157 0.446048 0.108079
0.405520 0.447520 0.109551
0.434882 0.448991 0.111023
0.464244 0.450463 0.112494
0.493606 0.451935 0.113966
0.522969 0.453406 0.115438
0.552331 0.454878 0.116909
0.581693 0.456350 0.118381
0.611056 0.457821 0.119852
0.640418 0.459293 0.121324
0.669780 0.460764 0.122796
0.699142 0.462236 0.124267
0.728505 0.463708 0.125739
0.757867 0.465179 0.127211
0.787229 0.466651 0.128682
0.816591 0.468123 0.130154
0.845954 0.469594 0.131626
0.875316 0.471066 0.133097
0.904678 0.472538 0.134569
0.934040 0.474009 0.136040
0.002286 0.462646 0.096786
0.030766 0.463234 0.097375
0.059245 0.463823 0.097964
0.087724 0.464412 0.098552
0.116204 0.465000 0.099141
0.144683 0.465589 0.099730
0.173511 0.466526 0.100667
0.202873 0.467998 0.102139
0.232235 0.469470 0.103610
0.261598 0.470941 0.105082
0.290960 0.472413 0.106554
0.320322 0.473885 0.108025
0.349684 0.475356 0.109497
0.379047 0.476828 0.110968
0.408409 0.478299 0.112440
0.437771 0.479771 0.113912
0.467133 0.481243 0.115383
0.496496 0.482714 0.116855
0.525858 0.484186 0.118327
0.555220 0.485658 0.119798
0.584582 0.487129 0.121270
0.613945 0.488601 0.122742
0.643307 0.490073 0.124213
0.672669 0.491544 0.125685
0.702031 0.493016 0.127156
0.731394 0.494488 0.128628
0.760756 0.495959 0.130100
0.790118 0.497431 0.131571
0.819481 0.498902 0.133043
0.848843 0.500374 0.134515
0.878205 0.501846 0.135986
0.907567 0.503317 0.137458
0.936930 0.504789 0.138930
0.003442 0.491692 0.097942
0.031921 0.492281 0.098531
0.060401 0.492869 0.099119
0.088880 0.493458 0.099708
0.117675 0.494363 0.100613
0.147038 0.495834 0.102084
0.176400 0.497306 0.103556
0.205762 0.498778 0.105028
0.235124 0.500249 0.106499
0.264487 0.501721 0.107971
0.293849 0.503193 0.109443
0.323211 0.504664 0.110914
0.352573 0.506136 0.112386
0.381936 0.507608 0.113858
0.411298 0.509079 0.115329
0.440660 0.510551 0.116801
0.470023 0.512022 0.118273
0.499385 0.513494 0.119744
0.528747 0.514966 0.121216
0.558109 0.516437 0.122687
0.587472 0.517909 0.124159
0.616834 0.519381 0.125631
0.646196 0.520852 0.127102
0.675558 0.522324 0.128574
0.704921 0.523796 0.130046
0.734283 0.525267 0.131517
0.763645 0.526739 0.132989
0.793007 0.528211 0.134461
0.822370 0.529682 0.135932
0.851732 0.531154 0.137404
0.881094 0.532625 0.138875
0.910456 0.534097 0.140347
0.939819 0.535569 0.141819
0.004598 0.520738 0.099098
0.033077 0.521327 0.099686
0.061840 0.522199 0.100559
0.091202 0.523671 0.102030
0.120564 0.525143 0.103502
0.149927 0.526614 0.104974
0.179289 0.528086 0.106445
0.208651 0.529558 0.107917
0.238014 0.531029 0.109389
0.267376 0.532501 0.110860
0.296738 0.533972 0.112332
0.326100 0.535444 0.113803
0.355463 0.536916 0.115275
0.384825 0.538387 0.116747
0.414187 0.539859 0.118218
0.443549 0.541331 0.119690
0.472912 0.542802 0.121162
0.502274 0.544274 0.122633
0.531636 0.545746 0.124105
0.560998 0.547217 0.125577
0.590361 0.548689 0.127048
0.619723 0.550160 0.128520
0.649085 0.551632 0.129991
0.678447 0.553104 0.131463
0.707810 0.554575 0.132935
0.737172 0.556047 0.134406
0.766534 0.557519 0.135878
0.795897 0.558990 0.137350
0.825259 0.560462 0.138821
0.854621 0.561934 0.140293
0.883983 0.563405 0.141765
0.913346 0.564877 0.143236
0.942708 0.566349 0.144708
0.006005 0.550036 0.100505
0.035367 0.551507 0.101976
0.064729 0.552979 0.103448
0.094091 0.554451 0.104919
0.123454 0.555922 0.106391
0.152816 0.557394 0.107863
0.182178 0.558866 0.109334
0.211540 0.560337 0.110806
0.240903 0.561809 0.112278
0.270265 0.563281 0.113749
0.299627 0.564752 0.115221
0.328989 0.566224 0.116693
0.358352 0.567695 0.118164
0.387714 0.569167 0.119636
0.417076 0.570639 0.121107
0.446439 0.572110 0.122579
0.475801 0.573582 0.124051
0.505163 0.575054 0.125522
0.534525 0.576525 0.126994
0.563888 0.577997 0.128466
0.593250 0.579469 0.129937
0.622612 0.580940 0.131409
0.651974 0.582412 0.132881
0.681337 0.583884 0.134352
0.710699 0.585355 0.135824
0.740061 0.586827 0.137296
0.769423 0.588298 0.138767
0.798786 0.589770 0.140239
0.828148 0.591242 0.141710
0.857510 0.592713 0.143182
0.886872 0.594185 0.144654
0.916235 0.595657 0.146125
0.945597 0.597128 0.147597
0.008894 0.580816 0.103394
0.038256 0.582287 0.104865
0.067618 0.583759 0.106337
0.096980 0.585230 0.107809
0.126343 0.586702 0.109280
0.155705 0.588174 0.110752
0.185067 0.589645 0.112224
0.214430 0.591117 0.113695
0.243792 0.592589 0.115167
0.273154 0.594060 0.116638
0.302516 0.595532 0.118110
0.331879 0.597004 0.119582
0.361241 0.598475 0.121053
0.390603 0.599947 0.122525
0.419965 0.601419 0.123997
0.449328 0.602890 0.125468
0.478690 0.604362 0.126940
0.508052 0.605833 0.128412
0.537414 0.607305 0.129883
0.566777 0.608777 0.131355
0.596139 0.610248 0.132826
0.625501 0.611720 0.134298
0.654864 0.613192 0.135770
0.684226 0.614663 0.137241
0.713588 0.616135 0.138713
0.742950 0.617607 0.140185
0.772313 0.619078 0.141656
0.801675 0.620550 0.143128
0.831037 0.622021 0.144600
0.860399 0.623493 0.146071
0.889762 0.624965 0.147543
0.919124 0.626436 0.149015
0.948486 0.627908 0.150486
0.011783 0.611595 0.106283
0.041145 0.613067 0.107754
0.070507 0.614539 0.109226
0.099870 0.616010 0.110698
0.129232 0.617482 0.112169
0.158594 0.618954 0.113641
0.187956 0.620425 0.115113
0.217319 0.621897 0.116584
0.246681 0.623368 0.118056
0.276043 0.624840 0.119528
0.305405 0.626312 0.120999
0.334768 0.627783 0.122471
0.364130 0.629255 0.123943
0.393492 0.630727 0.125414
0.422855 0.632198 0.126886
0.452217 0.633670 0.128357
0.481579 0.635142 0.129829
0.510941 0.636613 0.131301
0.540304 0.638085 0.132772
0.569666 0.639556 0.134244
0.599028 0.641028 0.135716
0.628390 0.642500 0.137187
0.657753 0.643971 0.138659
0.687115 0.645443 0.140131
0.716477 0.646915 0.141602
0.745839 0.648386 0.143074
0.775202 0.649858 0.144545
0.804564 0.651330 0.146017
0.833926 0.652801 0.147489
0.863289 0.654273 0.148960
0.892651 0.655745 0.150432
0.922013 0.657216 0.151904
0.951375 0.658688 0.153375
0.014672 0.642375 0.109172
0.044034 0.643847 0.110644
0.073396 0.645318 0.112115
0.102759 0.646790 0.113587
0.132121 0.648262 0.115059
0.161483 0.649733 0.116530
0.190846 0.651205 0.118002
0.220208 0.652677 0.119473
0.249570 0.654148 0.120945
0.278932 0.655620 0.122417
0.308295 0.657091 0.123888
0.337657 0.658563 0.125360
0.367019 0.660035 0.126832
0.396381 0.661506 0.128303
0.425744 0.662978 0.129775
0.455106 0.664450 0.131247
0.484468 0.665921 0.132718
0.513830 0.667393 0.134190
0.543193 0.668865 0.135661
0.572555 0.670336 0.137133
0.601917 0.671808 0.138605
0.631280 0.673280 0.140076
0.660642 0.674751 0.141548
0.690004 0.676223 0.143020
0.719366 0.677694 0.144491
0.748729 0.679166 0.145963
0.778091 0.680638 0.147435
0.807453 0.682109 0.148906
0.836815 0.683581 0.150378
0.866178 0.685053 0.151850
0.895540 0.686524 0.153321
0.924902 0.687996 0.154793
0.953590 0.688980 0.156154
0.017561 0.673155 0.112061
0.046923 0.674626 0.113533
0.076286 0.676098 0.115004
0.105648 0.677570 0.116476
0.135010 0.679041 0.117948
0.164372 0.680513 0.119419
0.193735 0.681985 0.120891
0.223097 0.683456 0.122363
0.252459 0.684928 0.123834
0.281821 0.686400 0.125306
0.311184 0.687871 0.126777
0.340546 0.689343 0.128249
0.369908 0.690815 0.129721
0.399271 0.692286 0.131192
0.428633 0.693758 0.132664
0.457995 0.695229 0.134136
0.487357 0.696701 0.135607
0.516720 0.698173 0.137079
0.546082 0.699644 0.138551
0.575444 0.701116 0.140022
0.604806 0.702588 0.141494
0.634169 0.704059 0.142966
0.663531 0.705531 0.144437
0.692893 0.707003 0.145909
0.722255 0.708474 0.147380
0.751618 0.709946 0.148852
0.780980 0.711418 0.150324
0.810342 0.712889 0.151795
0.839705 0.714361 0.153267
0.869067 0.715832 0.154739
0.897823 0.716820 0.156105
0.926346 0.717656 0.157436
0.954818 0.718490 0.158765
0.020450 0.703935 0.114950
0.049812 0.705406 0.116422
0.079175 0.706878 0.117894
0.108537 0.708350 0.119365
0.137899 0.709821 0.120837
0.167262 0.711293 0.122308
0.196624 0.712764 0.123780
0.225986 0.714236 0.125252
0.255348 0.715708 0.126723
0.284711 0.717179 0.128195
0.314073 0.718651 0.129667
0.343435 0.720123 0.131138
0.372797 0.721594 0.132610
0.402160 0.723066 0.134082
0.431522 0.724538 0.135553
0.460884 0.726009 0.137025
0.490246 0.727481 0.138496
0.519609 0.728953 0.139968
0.548971 0.730424 0.141440
0.578333 0.731896 0.142911
0.607696 0.733367 0.144383
0.637058 0.734839 0.145855
0.666420 0.736311 0.147326
0.695782 0.737782 0.148798
0.725145 0.739254 0.150270
0.754507 0.740726 0.151741
0.783869 0.742197 0.153213
0.813231 0.743669 0.154685
0.842053 0.744662 0.156056
0.870626 0.745474 0.157387
0.899148 0.746282 0.158716
0.927618 0.747089 0.160043
0.956035 0.747892 0.161366
0.023339 0.734714 0.117839
0.052702 0.736186 0.119311
0.082064 0.737658 0.120783
0.111426 0.739129 0.122254
0.140788 0.740601 0.123726
0.170151 0.742073 0.125198
0.199513 0.743544 0.126669
0.228875 0.745016 0.128141
0.258238 0.746487 0.129613
0.287600 0.747959 0.131084
0.316962 0.749431 0.132556
0.346324 0.750902 0.134027
0.375687 0.752374 0.135499
0.405049 0.753846 0.136971
0.434411 0.755317 0.138442
0.463773 0.756789 0.139914
0.493136 0.758261 0.141386
0.522498 0.759732 0.142857
0.551860 0.761204 0.144329
0.581222 0.762676 0.145801
0.610585 0.764147 0.147272
0.639947 0.765619 0.148744
0.669309 0.767090 0.150215
0.698671 0.768562 0.151687
0.728034 0.770034 0.153159
0.757396 0.771505 0.154630
0.786279 0.772506 0.156007
0.814902 0.773293 0.157338
0.843474 0.774077 0.158667
0.871994 0.774859 0.159994
0.900462 0.775638 0.161318
0.928879 0.776414 0.162639
0.957243 0.777188 0.163958
0.026229 0.765494 0.120729
0.055591 0.766966 0.122200
0.084953 0.768437 0.123672
0.114315 0.769909 0.125143
0.143678 0.771381 0.126615
0.173040 0.772852 0.128087
0.202402 0.774324 0.129558
0.231764 0.775796 0.131030
0.261127 0.777267 0.132502
0.290489 0.778739 0.133973
0.319851 0.780211 0.135445
0.349213 0.781682 0.136917
0.378576 0.783154 0.138388
0.407938 0.784625 0.139860
0.437300 0.786097 0.141331
0.466662 0.787569 0.142803
0.496025 0.789040 0.144275
0.525387 0.790512 0.145746
0.554749 0.791984 0.147218
0.584112 0.793455 0.148690
0.613474 0.794927 0.150161
0.642836 0.796399 0.151633
0.672198 0.797870 0.153105
0.701561 0.799342 0.154576
0.730501 0.800351 0.155958
0.759175 0.801114 0.157290
0.787797 0.801873 0.158619
0.816367 0.802631 0.159945
0.844886 0.803385 0.161269
0.873352 0.804137 0.162590
0.901767 0.804887 0.163909
0.930130 0.805633 0.165225
0.958441 0.806378 0.166539
0.029118 0.796274 0.123618
0.058480 0.797746 0.125089
0.087842 0.799217 0.126561
0.117204 0.800689 0.128033
0.146567 0.802160 0.129504
0.175929 0.803632 0.130976
0.205291 0.805104 0.132447
0.234654 0.806575 0.133919
0.264016 0.808047 0.135391
0.293378 0.809519 0.136862
0.322740 0.810990 0.138334
0.352103 0.812462 0.139806
0.381465 0.813934 0.141277
0.410827 0.815405 0.142749
0.440189 0.816877 0.144221
0.469552 0.818349 0.145692
0.498914 0.819820 0.147164
0.528276 0.821292 0.148636
0.557638 0.822763 0.150107
0.587001 0.824235 0.151579
0.616363 0.825707 0.153050
0.645725 0.827178 0.154522
0.674720 0.828199 0.155909
0.703444 0.828937 0.157241
0.732116 0.829672 0.158570
0.760737 0.830404 0.159896
0.789306 0.831134 0.161220
0.817823 0.831862 0.162542
0.846288 0.832587 0.163861
